%
(Header)
(Generated by gcodetools from Inkscape.)
(Using default header. To add your own header create file "header" in the output dir.)
M3
(Header end.)
G21 (All units in mm)
(Tool diameter should be at least 0.1 mm)
(Depth, as a function of radius w, must be 10)
(Rapid feeds use safe Z=3.0 mm)
(Material surface at Z=0.0 mm)
(Change tool to Default tool)

G00 Z3.000000
G00 X22.329366 Y9.474230

G01 Z-0.050010 F50.0(Penetrate)
G01 X22.329366 Y8.837734 Z-0.050010 F30.000000
G01 X22.329366 Y8.779709 Z-0.050010
G01 X22.329366 Y8.162263 Z-0.050010
G01 X22.318867 Y8.110504 Z-0.050010
G01 X22.196157 Y7.505363 Z-0.050010
G01 X22.158565 Y7.414572 Z-0.050010
G01 X21.942552 Y6.893082 Z-0.050010
G01 X21.688947 Y6.280829 Z-0.050010
G01 X21.659681 Y6.236661 Z-0.050010
G01 X21.318643 Y5.722142 Z-0.050010
G01 X21.281164 Y5.684662 Z-0.050010
G01 X20.841011 Y5.244509 Z-0.050010
G01 X20.799975 Y5.203474 Z-0.050010
G01 X20.363378 Y4.766876 Z-0.050010
G01 X20.319351 Y4.737694 Z-0.050010
G01 X19.804691 Y4.396572 Z-0.050010
G01 X19.713900 Y4.358952 Z-0.050010
G01 X19.192438 Y4.142967 Z-0.050010
G01 X18.580157 Y3.889362 Z-0.050010
G01 X18.528228 Y3.878807 Z-0.050010
G01 X17.923256 Y3.756153 Z-0.050010
G01 X17.870255 Y3.756153 Z-0.050010
G01 X17.247785 Y3.756153 Z-0.050010
G01 X17.189761 Y3.756153 Z-0.050010
G01 X16.572315 Y3.756153 Z-0.050010
G01 X16.520555 Y3.766652 Z-0.050010
G01 X15.915414 Y3.889362 Z-0.050010
G01 X15.824623 Y3.926954 Z-0.050010
G01 X15.303161 Y4.142967 Z-0.050010
G01 X14.690880 Y4.396572 Z-0.050010
G01 X14.646713 Y4.425838 Z-0.050010
G01 X14.132193 Y4.766876 Z-0.050010
G01 X14.094714 Y4.804355 Z-0.050010
G01 X13.654560 Y5.244509 Z-0.050010
G01 X13.613553 Y5.285544 Z-0.050010
G01 X13.176927 Y5.722142 Z-0.050010
G01 X13.147774 Y5.766168 Z-0.050010
G01 X12.806624 Y6.280829 Z-0.050010
G01 X12.769032 Y6.371620 Z-0.050010
G01 X12.553019 Y6.893082 Z-0.050010
G01 X12.299414 Y7.505363 Z-0.050010
G01 X12.288887 Y7.557320 Z-0.050010
G01 X12.166205 Y8.162263 Z-0.050010
G01 X12.166205 Y8.215264 Z-0.050010
G01 X12.166205 Y8.837734 Z-0.050010
G01 X12.166205 Y8.909785 Z-0.050010
G01 X12.166233 Y9.541003 Z-0.050010
G01 X12.178199 Y9.597307 Z-0.050010
G01 X12.307739 Y10.206173 Z-0.050010
G01 X12.345642 Y10.295835 Z-0.050010
G01 X12.565549 Y10.815688 Z-0.050010
G01 X12.823275 Y11.425091 Z-0.050010
G01 X12.849747 Y11.464009 Z-0.050010
G01 X13.193607 Y11.969977 Z-0.050010
G01 X13.255470 Y12.031812 Z-0.050010
G01 X13.654589 Y12.430931 Z-0.050010
G01 X14.115542 Y12.891913 Z-0.050010
G01 X14.154658 Y12.918498 Z-0.050010
G01 X14.660457 Y13.262245 Z-0.050010
G01 X14.749978 Y13.300091 Z-0.050010
G01 X15.269831 Y13.519970 Z-0.050010
G01 X15.879375 Y13.777780 Z-0.050010
G01 X15.936129 Y13.789859 Z-0.050010
G01 X16.544544 Y13.919286 Z-0.050010
G01 X16.611318 Y13.919286 Z-0.050010
G01 X17.247785 Y13.919286 Z-0.050010
G01 X17.319837 Y13.919286 Z-0.050010
G01 X17.951055 Y13.919286 Z-0.050010
G01 X18.007358 Y13.907320 Z-0.050010
G01 X18.616225 Y13.777780 Z-0.050010
G01 X18.705887 Y13.739849 Z-0.050010
G01 X19.225740 Y13.519970 Z-0.050010
G01 X19.835142 Y13.262245 Z-0.050010
G01 X19.874089 Y13.235772 Z-0.050010
G01 X20.380029 Y12.891913 Z-0.050010
G01 X20.441892 Y12.830078 Z-0.050010
G01 X20.841011 Y12.430931 Z-0.050010
G01 X21.301992 Y11.969977 Z-0.050010
G01 X21.328549 Y11.930861 Z-0.050010
G01 X21.672296 Y11.425091 Z-0.050010
G01 X21.710170 Y11.335542 Z-0.050010
G01 X21.930050 Y10.815688 Z-0.050010
G01 X22.187860 Y10.206173 Z-0.050010
G01 X22.199939 Y10.149390 Z-0.050010
G01 X22.329366 Y9.541003 Z-0.050010
G01 X22.329366 Y9.474230 Z-0.050010
G00 Z3.000000


(Footer)
M5
G00 X0.0000 Y0.0000
M2
(Using default footer. To add your own footer create file "footer" in the output dir.)
(end)
%