%
(Header)
(Generated by gcodetools from Inkscape.)
(Using default header. To add your own header create file "header" in the output dir.)
M3
(Header end.)
G21 (All units in mm)
(Tool diameter should be at least 0.1 mm)
(Depth, as a function of radius w, must be w)
(Rapid feeds use safe Z=3.0 mm)
(Material surface at Z=0.0 mm)
(Change tool to Cone cutter)

G00 Z3.000000
G00 X19.744069 Y2.694490

G01 Z-0.050010 F50.0(Penetrate)
G01 X19.744069 Y1.001156 Z-0.050010 F50.000000
G01 X19.744069 Y0.204951 Z-0.050010
G01 X19.794051 Y0.154941 Z0.000000
G01 X19.744069 Y0.204951 Z-0.050010
G01 X19.468903 Y0.204951 Z-0.050010
G01 X19.418893 Y0.154941 Z0.000000
G01 X19.468903 Y0.204951 Z-0.050010
G01 X19.468903 Y0.281151 Z-0.050010
G01 X19.468903 Y0.845596 Z-0.050010
G01 X19.468903 Y1.586260 Z-0.050010
G01 X19.279419 Y1.586260 Z-0.050010
G01 X18.714974 Y1.586260 Z-0.050010
G01 X17.961046 Y1.586260 Z-0.050010
G01 X17.961046 Y1.410040 Z-0.050010
G01 X17.961046 Y0.845596 Z-0.050010
G01 X17.961046 Y0.204951 Z-0.050010
G01 X18.011055 Y0.154941 Z0.000000
G01 X17.961046 Y0.204951 Z-0.050010
G01 X17.685879 Y0.204951 Z-0.050010
G01 X17.635869 Y0.154941 Z0.000000
G01 X17.685879 Y0.204951 Z-0.050010
G01 X17.685879 Y0.436712 Z-0.050010
G01 X17.685879 Y2.130045 Z-0.050010
G01 X17.685879 Y2.926279 Z-0.050010
G01 X17.635869 Y2.976289 Z0.000000
G01 X17.685879 Y2.926279 Z-0.050010
G01 X17.961046 Y2.926279 Z-0.050010
G01 X18.011055 Y2.976289 Z0.000000
G01 X17.961046 Y2.926279 Z-0.050010
G01 X17.961046 Y2.705214 Z-0.050010
G01 X17.961046 Y1.819714 Z-0.050010
G01 X18.150530 Y1.819714 Z-0.050010
G01 X18.714974 Y1.819714 Z-0.050010
G01 X19.468903 Y1.819714 Z-0.050010
G01 X19.468903 Y2.140770 Z-0.050010
G01 X19.468903 Y2.926279 Z-0.050010
G01 X19.418893 Y2.976289 Z0.000000
G01 X19.468903 Y2.926279 Z-0.050010
G01 X19.744069 Y2.926279 Z-0.050010
G01 X19.794051 Y2.976289 Z0.000000
G01 X19.744069 Y2.926279 Z-0.050010
G01 X19.744069 Y2.694490 Z-0.050010
G00 Z3.000000

G00 Z3.000000
G00 X17.051556 Y0.392318

G01 Z-0.050010 F50.0(Penetrate)
G01 X17.101538 Y0.359581 Z0.000000 F50.000000
G01 X17.051556 Y0.392318 Z-0.050010
G01 X17.011819 Y0.374962 Z-0.050010
G01 X16.948065 Y0.346288 Z-0.050010
G01 X16.890718 Y0.319505 Z-0.050010
G01 X16.836813 Y0.293766 Z-0.050010
G01 X16.766738 Y0.267209 Z-0.050010
G01 X16.677217 Y0.238620 Z-0.050010
G01 X16.601920 Y0.215168 Z-0.050010
G01 X16.520922 Y0.195666 Z-0.050010
G01 X16.430978 Y0.179438 Z-0.050010
G01 X16.343489 Y0.162194 Z-0.050010
G01 X16.249199 Y0.153784 Z-0.050010
G01 X16.142773 Y0.153784 Z-0.050010
G01 X15.941915 Y0.153784 Z-0.050010
G01 X15.763692 Y0.180962 Z-0.050010
G01 X15.600059 Y0.236334 Z-0.050010
G01 X15.438769 Y0.292553 Z-0.050010
G01 X15.302964 Y0.376966 Z-0.050010
G01 X15.183189 Y0.495527 Z-0.050010
G01 X15.066095 Y0.611408 Z-0.050010
G01 X14.977138 Y0.754325 Z-0.050010
G01 X14.910703 Y0.933931 Z-0.050010
G01 X14.844183 Y1.114977 Z-0.050010
G01 X14.811474 Y1.321648 Z-0.050010
G01 X14.811474 Y1.562779 Z-0.050010
G01 X14.811474 Y1.791266 Z-0.050010
G01 X14.842970 Y1.990543 Z-0.050010
G01 X14.907063 Y2.169274 Z-0.050010
G01 X14.971014 Y2.347582 Z-0.050010
G01 X15.060112 Y2.493124 Z-0.050010
G01 X15.179943 Y2.615383 Z-0.050010
G01 X15.296049 Y2.733944 Z-0.050010
G01 X15.431573 Y2.821546 Z-0.050010
G01 X15.595854 Y2.884058 Z-0.050010
G01 X15.761829 Y2.946768 Z-0.050010
G01 X15.941746 Y2.977446 Z-0.050010
G01 X16.144663 Y2.977446 Z-0.050010
G01 X16.293225 Y2.977446 Z-0.050010
G01 X16.438259 Y2.959863 Z-0.050010
G01 X16.585749 Y2.923908 Z-0.050010
G01 X16.734226 Y2.888038 Z-0.050010
G01 X16.896927 Y2.825638 Z-0.050010
G01 X17.051556 Y2.748338 Z-0.050010
G01 X17.101538 Y2.779241 Z0.000000
G01 X17.051556 Y2.748338 Z-0.050010
G01 X17.080710 Y2.354807 Z-0.020856
G01 X17.101538 Y2.333951 Z0.000000
G01 X17.080710 Y2.354807 Z-0.020856
G01 X17.080710 Y2.354807 Z-0.020856
G01 X17.073118 Y2.333951 Z0.000000
G01 X17.080710 Y2.354807 Z-0.020856
G01 X16.947049 Y2.504724 Z-0.050010
G01 X16.785957 Y2.603755 Z-0.050010
G01 X16.628900 Y2.664772 Z-0.050010
G01 X16.471590 Y2.725873 Z-0.050010
G01 X16.298870 Y2.757228 Z-0.050010
G01 X16.120025 Y2.757228 Z-0.050010
G01 X15.972790 Y2.757228 Z-0.050010
G01 X15.834417 Y2.732110 Z-0.050010
G01 X15.714811 Y2.683483 Z-0.050010
G01 X15.595854 Y2.635900 Z-0.050010
G01 X15.484997 Y2.558120 Z-0.050010
G01 X15.391666 Y2.456887 Z-0.050010
G01 X15.300621 Y2.357940 Z-0.050010
G01 X15.227244 Y2.228823 Z-0.050010
G01 X15.176415 Y2.078935 Z-0.050010
G01 X15.126942 Y1.930571 Z-0.050010
G01 X15.101796 Y1.755847 Z-0.050010
G01 X15.101796 Y1.562779 Z-0.050010
G01 X15.101796 Y1.360595 Z-0.050010
G01 X15.129679 Y1.181242 Z-0.050010
G01 X15.184572 Y1.033556 Z-0.050010
G01 X15.240536 Y0.886546 Z-0.050010
G01 X15.315043 Y0.761888 Z-0.050010
G01 X15.403463 Y0.668191 Z-0.050010
G01 X15.495693 Y0.570683 Z-0.050010
G01 X15.607877 Y0.494963 Z-0.050010
G01 X15.730897 Y0.447352 Z-0.050010
G01 X15.854229 Y0.401434 Z-0.050010
G01 X15.988058 Y0.377784 Z-0.050010
G01 X16.123835 Y0.377784 Z-0.050010
G01 X16.309001 Y0.377784 Z-0.050010
G01 X16.487479 Y0.410409 Z-0.050010
G01 X16.649869 Y0.474050 Z-0.050010
G01 X16.812147 Y0.537691 Z-0.050010
G01 X16.967567 Y0.635312 Z-0.050010
G01 X17.082375 Y0.780007 Z-0.019163
G01 X17.075009 Y0.799170 Z0.000000
G01 X17.082375 Y0.780007 Z-0.019163
G01 X17.082375 Y0.780007 Z-0.019163
G01 X17.101538 Y0.799170 Z0.000000
G01 X17.082375 Y0.780007 Z-0.019163
G01 X17.051556 Y0.392318 Z-0.050010
G00 Z3.000000

G00 Z3.000000
G00 X12.924564 Y1.213388

G01 Z-0.050010 F50.0(Penetrate)
G01 X13.773207 Y1.213388 Z-0.050010 F50.000000
G01 X13.691898 Y1.441169 Z-0.050010
G01 X13.502076 Y1.972763 Z-0.050010
G01 X13.207803 Y2.796936 Z-0.050010
G01 X13.102872 Y2.504159 Z-0.050010
G01 X12.912429 Y1.972819 Z-0.050010
G01 X12.640254 Y1.213388 Z-0.050010
G01 X12.924564 Y1.213388 Z-0.050010
G00 Z3.000000

G00 Z3.000000
G00 X13.451163 Y2.874519

G01 Z-0.050010 F50.0(Penetrate)
G01 X14.223436 Y0.752914 Z-0.050010 F50.000000
G01 X14.422882 Y0.204951 Z-0.050010
G01 X14.494284 Y0.154941 Z0.000000
G01 X14.422882 Y0.204951 Z-0.050010
G01 X14.129907 Y0.204951 Z-0.050010
G01 X14.094488 Y0.154941 Z0.000000
G01 X14.129907 Y0.204951 Z-0.050010
G01 X14.097000 Y0.298480 Z-0.050010
G01 X13.853273 Y0.991279 Z-0.050010
G01 X13.772162 Y0.991279 Z-0.050010
G01 X13.207718 Y0.991279 Z-0.050010
G01 X12.562191 Y0.991279 Z-0.050010
G01 X12.505775 Y0.830920 Z-0.050010
G01 X12.285557 Y0.204951 Z-0.050010
G01 X12.320947 Y0.154941 Z0.000000
G01 X12.285557 Y0.204951 Z-0.050010
G01 X12.011519 Y0.204951 Z-0.050010
G01 X11.940117 Y0.154941 Z0.000000
G01 X12.011519 Y0.204951 Z-0.050010
G01 X12.017897 Y0.222505 Z-0.050010
G01 X12.790170 Y2.344111 Z-0.050010
G01 X13.002091 Y2.926279 Z-0.050010
G01 X12.967095 Y2.976289 Z0.000000
G01 X13.002091 Y2.926279 Z-0.050010
G01 X13.432310 Y2.926279 Z-0.050010
G01 X13.467306 Y2.976289 Z0.000000
G01 X13.432310 Y2.926279 Z-0.050010
G01 X13.451163 Y2.874519 Z-0.050010
G00 Z3.000000

G00 Z3.000000
G00 X11.458081 Y2.694490

G01 Z-0.050010 F50.0(Penetrate)
G01 X11.458081 Y1.001156 Z-0.050010 F50.000000
G01 X11.458081 Y0.204951 Z-0.050010
G01 X11.508091 Y0.154941 Z0.000000
G01 X11.458081 Y0.204951 Z-0.050010
G01 X11.182915 Y0.204951 Z-0.050010
G01 X11.132905 Y0.154941 Z0.000000
G01 X11.182915 Y0.204951 Z-0.050010
G01 X11.182915 Y0.241555 Z-0.050010
G01 X11.182915 Y1.934889 Z-0.050010
G01 X11.182915 Y2.808112 Z-0.050010
G01 X11.058313 Y2.545335 Z-0.050010
G01 X10.574585 Y1.525328 Z-0.050010
G01 X10.316831 Y0.981824 Z-0.050010
G01 X10.348468 Y0.931814 Z0.000000
G01 X10.316831 Y0.981824 Z-0.050010
G01 X10.156613 Y0.981824 Z-0.050010
G01 X10.124892 Y0.931814 Z0.000000
G01 X10.156613 Y0.981824 Z-0.050010
G01 X10.141373 Y1.014167 Z-0.050010
G01 X9.660523 Y2.035529 Z-0.050010
G01 X9.296118 Y2.809552 Z-0.050010
G01 X9.296118 Y2.499333 Z-0.050010
G01 X9.296118 Y0.806000 Z-0.050010
G01 X9.296118 Y0.204951 Z-0.050010
G01 X9.346128 Y0.154941 Z0.000000
G01 X9.296118 Y0.204951 Z-0.050010
G01 X9.045589 Y0.204951 Z-0.050010
G01 X8.995579 Y0.154941 Z0.000000
G01 X9.045589 Y0.204951 Z-0.050010
G01 X9.045589 Y0.436712 Z-0.050010
G01 X9.045589 Y2.130045 Z-0.050010
G01 X9.045589 Y2.926279 Z-0.050010
G01 X8.995579 Y2.976289 Z0.000000
G01 X9.045589 Y2.926279 Z-0.050010
G01 X9.475696 Y2.926279 Z-0.050010
G01 X9.507164 Y2.976289 Z0.000000
G01 X9.475696 Y2.926279 Z-0.050010
G01 X9.483034 Y2.937963 Z-0.038326
G01 X9.716290 Y2.423839 Z-0.050010
G01 X9.960102 Y1.914766 Z-0.050010
G01 X10.260161 Y1.288148 Z-0.050010
G01 X10.312739 Y1.401630 Z-0.050010
G01 X10.787211 Y2.425955 Z-0.050010
G01 X11.018972 Y2.926279 Z-0.050010
G01 X10.987024 Y2.976289 Z0.000000
G01 X11.018972 Y2.926279 Z-0.050010
G01 X11.458081 Y2.926279 Z-0.050010
G01 X11.508091 Y2.976289 Z0.000000
G01 X11.458081 Y2.926279 Z-0.050010
G01 X11.458081 Y2.694490 Z-0.050010
G00 Z3.000000

G00 Z3.000000
G00 X8.407344 Y3.053222

G01 Z-0.050010 F50.0(Penetrate)
G01 X8.480185 Y3.103232 Z0.000000 F50.000000
G01 X8.407344 Y3.053222 Z-0.050010
G01 X8.363317 Y2.939064 Z-0.050010
G01 X7.348220 Y0.305733 Z-0.050010
G01 X7.087306 Y-0.371064 Z-0.050010
G01 X7.121624 Y-0.421074 Z0.000000
G01 X7.087306 Y-0.371064 Z-0.050010
G01 X6.866580 Y-0.371064 Z-0.050010
G01 X6.793823 Y-0.421074 Z0.000000
G01 X6.866580 Y-0.371064 Z-0.050010
G01 X6.910098 Y-0.257696 Z-0.050010
G01 X7.921498 Y2.377074 Z-0.050010
G01 X8.181086 Y3.053222 Z-0.050010
G01 X8.146711 Y3.103232 Z0.000000
G01 X8.181086 Y3.053222 Z-0.050010
G01 X8.407344 Y3.053222 Z-0.050010
G00 Z3.000000

G00 Z3.000000
G00 X6.577076 Y0.960234

G01 Z-0.050010 F50.0(Penetrate)
G01 X6.577076 Y0.856207 Z-0.050010 F50.000000
G01 X6.553793 Y0.758558 Z-0.050010
G01 X6.504263 Y0.655829 Z-0.050010
G01 X6.456031 Y0.553354 Z-0.050010
G01 X6.391656 Y0.471312 Z-0.050010
G01 X6.303941 Y0.400446 Z-0.050010
G01 X6.206575 Y0.322553 Z-0.050010
G01 X6.096226 Y0.263512 Z-0.050010
G01 X5.964936 Y0.219344 Z-0.050010
G01 X5.835424 Y0.175374 Z-0.050010
G01 X5.681867 Y0.153784 Z-0.050010
G01 X5.495883 Y0.153784 Z-0.050010
G01 X5.295082 Y0.153784 Z-0.050010
G01 X5.117620 Y0.172129 Z-0.050010
G01 X4.957741 Y0.209297 Z-0.050010
G01 X4.798512 Y0.246635 Z-0.050010
G01 X4.638096 Y0.301330 Z-0.050010
G01 X4.501840 Y0.361754 Z-0.050010
G01 X4.451858 Y0.329242 Z0.000000
G01 X4.501840 Y0.361754 Z-0.050010
G01 X4.471331 Y0.779697 Z-0.019473
G01 X4.451858 Y0.799170 Z0.000000
G01 X4.471331 Y0.779697 Z-0.019473
G01 X4.471331 Y0.779697 Z-0.019473
G01 X4.478359 Y0.799170 Z0.000000
G01 X4.471331 Y0.779697 Z-0.019473
G01 X4.592743 Y0.639009 Z-0.050010
G01 X4.765520 Y0.542997 Z-0.050010
G01 X4.956612 Y0.477154 Z-0.050010
G01 X5.147141 Y0.411510 Z-0.050010
G01 X5.330896 Y0.377784 Z-0.050010
G01 X5.499664 Y0.377784 Z-0.050010
G01 X5.738029 Y0.377784 Z-0.050010
G01 X5.933242 Y0.424887 Z-0.050010
G01 X6.069499 Y0.517032 Z-0.050010
G01 X6.209482 Y0.610815 Z-0.050010
G01 X6.286754 Y0.748878 Z-0.050010
G01 X6.286754 Y0.907176 Z-0.050010
G01 X6.286754 Y1.040385 Z-0.050010
G01 X6.249275 Y1.152004 Z-0.050010
G01 X6.178691 Y1.219709 Z-0.050010
G01 X6.112595 Y1.284423 Z-0.050010
G01 X6.008088 Y1.336324 Z-0.050010
G01 X5.878153 Y1.370472 Z-0.050010
G01 X5.782028 Y1.396098 Z-0.050010
G01 X5.676307 Y1.417519 Z-0.050010
G01 X5.563842 Y1.434114 Z-0.050010
G01 X5.454678 Y1.450398 Z-0.050010
G01 X5.339165 Y1.471000 Z-0.050010
G01 X5.216172 Y1.496118 Z-0.050010
G01 X4.972219 Y1.547877 Z-0.050010
G01 X4.800177 Y1.631556 Z-0.050010
G01 X4.685312 Y1.752404 Z-0.050010
G01 X4.572508 Y1.873534 Z-0.050010
G01 X4.518886 Y2.023055 Z-0.050010
G01 X4.518886 Y2.220272 Z-0.050010
G01 X4.518886 Y2.444356 Z-0.050010
G01 X4.607870 Y2.616681 Z-0.050010
G01 X4.798427 Y2.760191 Z-0.050010
G01 X4.990874 Y2.906354 Z-0.050010
G01 X5.228449 Y2.977446 Z-0.050010
G01 X5.528084 Y2.977446 Z-0.050010
G01 X5.723805 Y2.977446 Z-0.050010
G01 X5.900110 Y2.959101 Z-0.050010
G01 X6.062641 Y2.921876 Z-0.050010
G01 X6.226076 Y2.884454 Z-0.050010
G01 X6.368175 Y2.839129 Z-0.050010
G01 X6.463397 Y2.797614 Z-0.050010
G01 X6.513378 Y2.830380 Z0.000000
G01 X6.463397 Y2.797614 Z-0.050010
G01 X6.493990 Y2.406426 Z-0.019417
G01 X6.513378 Y2.387009 Z0.000000
G01 X6.493990 Y2.406426 Z-0.019417
G01 X6.493990 Y2.406426 Z-0.019417
G01 X6.486850 Y2.387009 Z0.000000
G01 X6.493990 Y2.406426 Z-0.019417
G01 X6.407714 Y2.519597 Z-0.050010
G01 X6.257883 Y2.599183 Z-0.050010
G01 X6.078643 Y2.659805 Z-0.050010
G01 X5.900589 Y2.721724 Z-0.050010
G01 X5.713561 Y2.753446 Z-0.050010
G01 X5.526193 Y2.753446 Z-0.050010
G01 X5.319014 Y2.753446 Z-0.050010
G01 X5.142738 Y2.707980 Z-0.050010
G01 X5.012916 Y2.619644 Z-0.050010
G01 X4.882021 Y2.529672 Z-0.050010
G01 X4.809236 Y2.400781 Z-0.050010
G01 X4.809236 Y2.256255 Z-0.050010
G01 X4.809236 Y2.130779 Z-0.050010
G01 X4.845360 Y2.020882 Z-0.050010
G01 X4.913122 Y1.946065 Z-0.050010
G01 X4.980347 Y1.871840 Z-0.050010
G01 X5.100913 Y1.814041 Z-0.050010
G01 X5.259409 Y1.777380 Z-0.050010
G01 X5.341310 Y1.759459 Z-0.050010
G01 X5.457416 Y1.737756 Z-0.050010
G01 X5.606909 Y1.712413 Z-0.050010
G01 X5.755104 Y1.687295 Z-0.050010
G01 X5.879394 Y1.661810 Z-0.050010
G01 X5.981615 Y1.635677 Z-0.050010
G01 X6.185521 Y1.581603 Z-0.050010
G01 X6.331063 Y1.504161 Z-0.050010
G01 X6.431562 Y1.397707 Z-0.050010
G01 X6.530142 Y1.293256 Z-0.050010
G01 X6.577076 Y1.154149 Z-0.050010
G01 X6.577076 Y0.960234 Z-0.050010
G00 Z3.000000

G00 Z3.000000
G00 X3.105545 Y2.874519

G01 Z-0.050010 F50.0(Penetrate)
G01 X3.877790 Y0.752914 Z-0.050010 F50.000000
G01 X4.077264 Y0.204951 Z-0.050010
G01 X4.148667 Y0.154941 Z0.000000
G01 X4.077264 Y0.204951 Z-0.050010
G01 X3.784290 Y0.204951 Z-0.050010
G01 X3.748871 Y0.154941 Z0.000000
G01 X3.784290 Y0.204951 Z-0.050010
G01 X3.751382 Y0.298480 Z-0.050010
G01 X3.507655 Y0.991279 Z-0.050010
G01 X3.426545 Y0.991279 Z-0.050010
G01 X2.862100 Y0.991279 Z-0.050010
G01 X2.216573 Y0.991279 Z-0.050010
G01 X2.160157 Y0.830920 Z-0.050010
G01 X1.939911 Y0.204951 Z-0.050010
G01 X1.975330 Y0.154941 Z0.000000
G01 X1.939911 Y0.204951 Z-0.050010
G01 X1.665901 Y0.204951 Z-0.050010
G01 X1.594471 Y0.154941 Z0.000000
G01 X1.665901 Y0.204951 Z-0.050010
G01 X1.672280 Y0.222505 Z-0.050010
G01 X2.444552 Y2.344111 Z-0.050010
G01 X2.656473 Y2.926279 Z-0.050010
G01 X2.621478 Y2.976289 Z0.000000
G01 X2.656473 Y2.926279 Z-0.050010
G01 X3.086693 Y2.926279 Z-0.050010
G01 X3.121688 Y2.976289 Z0.000000
G01 X3.086693 Y2.926279 Z-0.050010
G01 X3.105545 Y2.874519 Z-0.050010
G00 Z3.000000

G00 Z3.000000
G00 X2.578947 Y1.213388

G01 Z-0.050010 F50.0(Penetrate)
G01 X3.427589 Y1.213388 Z-0.050010 F50.000000
G01 X3.346252 Y1.441169 Z-0.050010
G01 X3.156458 Y1.972763 Z-0.050010
G01 X2.862185 Y2.796936 Z-0.050010
G01 X2.757255 Y2.504159 Z-0.050010
G01 X2.566811 Y1.972819 Z-0.050010
G01 X2.294636 Y1.213388 Z-0.050010
G01 X2.578947 Y1.213388 Z-0.050010
G00 Z3.000000

G00 Z3.000000
G00 X1.231844 Y0.204951

G01 Z-0.050010 F50.0(Penetrate)
G01 X1.281853 Y0.154941 Z0.000000 F50.000000
G01 X1.231844 Y0.204951 Z-0.050010
G01 X1.006997 Y0.204951 Z-0.050010
G01 X0.217706 Y0.204951 Z-0.050010
G01 X0.167696 Y0.154941 Z0.000000
G01 X0.217706 Y0.204951 Z-0.050010
G01 X0.217706 Y0.392939 Z-0.050010
G01 X0.167696 Y0.442949 Z0.000000
G01 X0.217706 Y0.392939 Z-0.050010
G01 X0.587192 Y0.392939 Z-0.050010
G01 X0.587192 Y0.718934 Z-0.050010
G01 X0.587192 Y1.847823 Z-0.050010
G01 X0.587192 Y2.738291 Z-0.050010
G01 X0.217706 Y2.738291 Z-0.050010
G01 X0.167696 Y2.688281 Z0.000000
G01 X0.217706 Y2.738291 Z-0.050010
G01 X0.217706 Y2.926279 Z-0.050010
G01 X0.167696 Y2.976289 Z0.000000
G01 X0.217706 Y2.926279 Z-0.050010
G01 X0.442553 Y2.926279 Z-0.050010
G01 X1.231844 Y2.926279 Z-0.050010
G01 X1.281853 Y2.976289 Z0.000000
G01 X1.231844 Y2.926279 Z-0.050010
G01 X1.231844 Y2.738291 Z-0.050010
G01 X1.281853 Y2.688281 Z0.000000
G01 X1.231844 Y2.738291 Z-0.050010
G01 X0.862358 Y2.738291 Z-0.050010
G01 X0.862358 Y2.412268 Z-0.050010
G01 X0.862358 Y1.283379 Z-0.050010
G01 X0.862358 Y0.392939 Z-0.050010
G01 X1.231844 Y0.392939 Z-0.050010
G01 X1.281853 Y0.442949 Z0.000000
G01 X1.231844 Y0.392939 Z-0.050010
G01 X1.231844 Y0.204951 Z-0.050010
G00 Z3.000000


(Footer)
M5
G00 X0.0000 Y0.0000
M2
(Using default footer. To add your own footer create file "footer" in the output dir.)
(end)
%