( PCB Contour )
( Generated by Rapid-PCB.com )
( Material Size)
( X= 100.000, Y= 75.000, Z= 1.580)
()
G00
G17
G21
G40
G49
G54
G80
G90
G94
G00 F3000 Z3.000
M03 S9000
G00 F3000 X-66.392 Y73.019
G00 F1500 Z0
G01 F600 Z-0.100
G01 F600 X-66.464 Y73.003
G01 F600 X-66.531 Y72.974
G01 F600 X-66.590 Y72.930
G01 F600 X-66.639 Y72.876
G01 F600 X-66.676 Y72.812
G01 F600 X-66.699 Y72.742
G01 F600 X-66.705 Y72.680
G01 F600 X-66.705 Y70.898
G01 F600 X-66.780 Y70.865
G01 F600 X-66.923 Y70.760
G01 F600 X-67.042 Y70.628
G01 F600 X-67.131 Y70.475
G01 F600 X-67.186 Y70.306
G01 F600 X-67.204 Y70.129
G01 F600 X-67.186 Y69.953
G01 F600 X-67.131 Y69.784
G01 F600 X-67.042 Y69.630
G01 F600 X-66.923 Y69.499
G01 F600 X-66.780 Y69.394
G01 F600 X-66.705 Y69.361
G01 F600 X-66.705 Y67.046
G01 F600 X-66.761 Y67.022
G01 F600 X-66.898 Y66.922
G01 F600 X-67.011 Y66.796
G01 F600 X-67.096 Y66.649
G01 F600 X-67.148 Y66.488
G01 F600 X-67.166 Y66.319
G01 F600 X-67.148 Y66.151
G01 F600 X-67.096 Y65.990
G01 F600 X-67.011 Y65.843
G01 F600 X-66.898 Y65.717
G01 F600 X-66.761 Y65.617
G01 F600 X-66.606 Y65.548
G01 F600 X-66.440 Y65.513
G01 F600 X-66.270 Y65.513
G01 F600 X-66.105 Y65.548
G01 F600 X-65.950 Y65.617
G01 F600 X-65.813 Y65.717
G01 F600 X-65.699 Y65.843
G01 F600 X-65.615 Y65.990
G01 F600 X-65.562 Y66.151
G01 F600 X-65.545 Y66.319
G01 F600 X-65.562 Y66.488
G01 F600 X-65.615 Y66.649
G01 F600 X-65.699 Y66.796
G01 F600 X-65.813 Y66.922
G01 F600 X-65.950 Y67.022
G01 F600 X-66.005 Y67.046
G01 F600 X-66.005 Y69.361
G01 F600 X-65.931 Y69.394
G01 F600 X-65.787 Y69.499
G01 F600 X-65.669 Y69.630
G01 F600 X-65.580 Y69.784
G01 F600 X-65.525 Y69.953
G01 F600 X-65.507 Y70.129
G01 F600 X-65.525 Y70.306
G01 F600 X-65.580 Y70.475
G01 F600 X-65.669 Y70.628
G01 F600 X-65.787 Y70.760
G01 F600 X-65.931 Y70.865
G01 F600 X-66.005 Y70.898
G01 F600 X-66.005 Y72.320
G01 F600 X-42.575 Y72.320
G01 F600 X-42.575 Y70.898
G01 F600 X-42.650 Y70.865
G01 F600 X-42.793 Y70.760
G01 F600 X-42.912 Y70.628
G01 F600 X-43.001 Y70.475
G01 F600 X-43.056 Y70.306
G01 F600 X-43.074 Y70.129
G01 F600 X-43.056 Y69.953
G01 F600 X-43.001 Y69.784
G01 F600 X-42.912 Y69.630
G01 F600 X-42.793 Y69.499
G01 F600 X-42.650 Y69.394
G01 F600 X-42.575 Y69.361
G01 F600 X-42.575 Y68.316
G01 F600 X-42.631 Y68.291
G01 F600 X-42.768 Y68.192
G01 F600 X-42.881 Y68.066
G01 F600 X-42.966 Y67.919
G01 F600 X-43.018 Y67.758
G01 F600 X-43.036 Y67.589
G01 F600 X-43.018 Y67.421
G01 F600 X-42.966 Y67.260
G01 F600 X-42.881 Y67.113
G01 F600 X-42.768 Y66.987
G01 F600 X-42.631 Y66.887
G01 F600 X-42.476 Y66.818
G01 F600 X-42.310 Y66.783
G01 F600 X-42.141 Y66.783
G01 F600 X-41.975 Y66.818
G01 F600 X-41.820 Y66.887
G01 F600 X-41.683 Y66.987
G01 F600 X-41.569 Y67.113
G01 F600 X-41.485 Y67.260
G01 F600 X-41.432 Y67.421
G01 F600 X-41.415 Y67.589
G01 F600 X-41.432 Y67.758
G01 F600 X-41.485 Y67.919
G01 F600 X-41.569 Y68.066
G01 F600 X-41.683 Y68.192
G01 F600 X-41.820 Y68.291
G01 F600 X-41.875 Y68.316
G01 F600 X-41.875 Y69.361
G01 F600 X-41.801 Y69.394
G01 F600 X-41.657 Y69.499
G01 F600 X-41.539 Y69.630
G01 F600 X-41.450 Y69.784
G01 F600 X-41.395 Y69.953
G01 F600 X-41.377 Y70.129
G01 F600 X-41.395 Y70.306
G01 F600 X-41.450 Y70.475
G01 F600 X-41.539 Y70.628
G01 F600 X-41.657 Y70.760
G01 F600 X-41.801 Y70.865
G01 F600 X-41.875 Y70.898
G01 F600 X-41.875 Y72.680
G01 F600 X-41.882 Y72.742
G01 F600 X-41.905 Y72.812
G01 F600 X-41.941 Y72.876
G01 F600 X-41.990 Y72.930
G01 F600 X-42.050 Y72.974
G01 F600 X-42.117 Y73.003
G01 F600 X-42.189 Y73.019
G01 F600 X-66.392 Y73.019
G00 F3000 Z3.000
G00 F3000 X-19.461 Y72.307
G00 F1500 Z0
G01 F600 Z-0.100
G01 F600 X-19.647 Y72.267
G01 F600 X-19.821 Y72.190
G01 F600 X-19.976 Y72.077
G01 F600 X-20.103 Y71.936
G01 F600 X-20.199 Y71.770
G01 F600 X-20.258 Y71.589
G01 F600 X-20.278 Y71.399
G01 F600 X-20.258 Y71.210
G01 F600 X-20.199 Y71.028
G01 F600 X-20.103 Y70.863
G01 F600 X-19.976 Y70.721
G01 F600 X-19.821 Y70.609
G01 F600 X-19.715 Y70.562
G01 F600 X-19.715 Y62.859
G01 F600 X-19.862 Y62.859
G01 F600 X-19.949 Y63.008
G01 F600 X-20.067 Y63.140
G01 F600 X-20.211 Y63.245
G01 F600 X-20.373 Y63.317
G01 F600 X-20.547 Y63.354
G01 F600 X-20.724 Y63.354
G01 F600 X-20.898 Y63.317
G01 F600 X-21.060 Y63.245
G01 F600 X-21.203 Y63.140
G01 F600 X-21.322 Y63.008
G01 F600 X-21.411 Y62.855
G01 F600 X-21.466 Y62.686
G01 F600 X-21.484 Y62.509
G01 F600 X-21.466 Y62.333
G01 F600 X-21.411 Y62.164
G01 F600 X-21.322 Y62.011
G01 F600 X-21.203 Y61.879
G01 F600 X-21.060 Y61.774
G01 F600 X-20.898 Y61.702
G01 F600 X-20.724 Y61.665
G01 F600 X-20.547 Y61.665
G01 F600 X-20.373 Y61.702
G01 F600 X-20.211 Y61.774
G01 F600 X-20.067 Y61.879
G01 F600 X-19.949 Y62.011
G01 F600 X-19.862 Y62.160
G01 F600 X-19.329 Y62.160
G01 F600 X-19.257 Y62.175
G01 F600 X-19.190 Y62.205
G01 F600 X-19.130 Y62.248
G01 F600 X-19.081 Y62.303
G01 F600 X-19.045 Y62.367
G01 F600 X-19.022 Y62.436
G01 F600 X-19.015 Y62.499
G01 F600 X-19.015 Y70.562
G01 F600 X-18.909 Y70.609
G01 F600 X-18.755 Y70.721
G01 F600 X-18.627 Y70.863
G01 F600 X-18.532 Y71.028
G01 F600 X-18.473 Y71.210
G01 F600 X-18.453 Y71.399
G01 F600 X-18.473 Y71.589
G01 F600 X-18.532 Y71.770
G01 F600 X-18.627 Y71.936
G01 F600 X-18.755 Y72.077
G01 F600 X-18.909 Y72.190
G01 F600 X-19.083 Y72.267
G01 F600 X-19.270 Y72.307
G01 F600 X-19.461 Y72.307
G00 F3000 Z3.000
G00 F3000 X-44.854 Y70.974
G00 F1500 Z0
G01 F600 Z-0.100
G01 F600 X-45.028 Y70.937
G01 F600 X-45.190 Y70.865
G01 F600 X-45.333 Y70.760
G01 F600 X-45.452 Y70.628
G01 F600 X-45.541 Y70.475
G01 F600 X-45.596 Y70.306
G01 F600 X-45.614 Y70.129
G01 F600 X-45.596 Y69.953
G01 F600 X-45.541 Y69.784
G01 F600 X-45.452 Y69.630
G01 F600 X-45.333 Y69.499
G01 F600 X-45.190 Y69.394
G01 F600 X-45.115 Y69.361
G01 F600 X-45.115 Y68.316
G01 F600 X-45.171 Y68.291
G01 F600 X-45.308 Y68.192
G01 F600 X-45.421 Y68.066
G01 F600 X-45.506 Y67.919
G01 F600 X-45.558 Y67.758
G01 F600 X-45.576 Y67.589
G01 F600 X-45.558 Y67.421
G01 F600 X-45.506 Y67.260
G01 F600 X-45.421 Y67.113
G01 F600 X-45.308 Y66.987
G01 F600 X-45.171 Y66.887
G01 F600 X-45.016 Y66.818
G01 F600 X-44.850 Y66.783
G01 F600 X-44.681 Y66.783
G01 F600 X-44.515 Y66.818
G01 F600 X-44.360 Y66.887
G01 F600 X-44.223 Y66.987
G01 F600 X-44.109 Y67.113
G01 F600 X-44.025 Y67.260
G01 F600 X-43.972 Y67.421
G01 F600 X-43.955 Y67.589
G01 F600 X-43.972 Y67.758
G01 F600 X-44.025 Y67.919
G01 F600 X-44.109 Y68.066
G01 F600 X-44.223 Y68.192
G01 F600 X-44.360 Y68.291
G01 F600 X-44.415 Y68.316
G01 F600 X-44.415 Y69.361
G01 F600 X-44.341 Y69.394
G01 F600 X-44.197 Y69.499
G01 F600 X-44.079 Y69.630
G01 F600 X-43.990 Y69.784
G01 F600 X-43.935 Y69.953
G01 F600 X-43.916 Y70.129
G01 F600 X-43.935 Y70.306
G01 F600 X-43.990 Y70.475
G01 F600 X-44.079 Y70.628
G01 F600 X-44.197 Y70.760
G01 F600 X-44.341 Y70.865
G01 F600 X-44.503 Y70.937
G01 F600 X-44.677 Y70.974
G01 F600 X-44.854 Y70.974
G00 F3000 Z3.000
G00 F3000 X-53.744 Y70.974
G00 F1500 Z0
G01 F600 Z-0.100
G01 F600 X-53.918 Y70.937
G01 F600 X-54.080 Y70.865
G01 F600 X-54.223 Y70.760
G01 F600 X-54.342 Y70.628
G01 F600 X-54.431 Y70.475
G01 F600 X-54.486 Y70.306
G01 F600 X-54.504 Y70.129
G01 F600 X-54.486 Y69.953
G01 F600 X-54.431 Y69.784
G01 F600 X-54.342 Y69.630
G01 F600 X-54.223 Y69.499
G01 F600 X-54.080 Y69.394
G01 F600 X-53.918 Y69.322
G01 F600 X-53.744 Y69.285
G01 F600 X-53.567 Y69.285
G01 F600 X-53.393 Y69.322
G01 F600 X-53.231 Y69.394
G01 F600 X-53.087 Y69.499
G01 F600 X-52.969 Y69.630
G01 F600 X-52.882 Y69.780
G01 F600 X-52.735 Y69.780
G01 F600 X-52.735 Y57.779
G01 F600 X-52.828 Y57.779
G01 F600 X-52.833 Y57.795
G01 F600 X-52.928 Y57.958
G01 F600 X-53.053 Y58.098
G01 F600 X-53.206 Y58.209
G01 F600 X-53.377 Y58.285
G01 F600 X-53.561 Y58.324
G01 F600 X-53.749 Y58.324
G01 F600 X-53.933 Y58.285
G01 F600 X-54.105 Y58.209
G01 F600 X-54.257 Y58.098
G01 F600 X-54.383 Y57.958
G01 F600 X-54.477 Y57.795
G01 F600 X-54.535 Y57.616
G01 F600 X-54.555 Y57.429
G01 F600 X-54.535 Y57.242
G01 F600 X-54.477 Y57.064
G01 F600 X-54.383 Y56.901
G01 F600 X-54.257 Y56.761
G01 F600 X-54.105 Y56.650
G01 F600 X-53.933 Y56.574
G01 F600 X-53.749 Y56.535
G01 F600 X-53.561 Y56.535
G01 F600 X-53.377 Y56.574
G01 F600 X-53.206 Y56.650
G01 F600 X-53.053 Y56.761
G01 F600 X-52.928 Y56.901
G01 F600 X-52.834 Y57.064
G01 F600 X-52.828 Y57.080
G01 F600 X-52.735 Y57.080
G01 F600 X-52.735 Y51.530
G01 F600 X-52.757 Y51.530
G01 F600 X-52.757 Y52.080
G01 F600 X-54.554 Y52.080
G01 F600 X-54.554 Y50.282
G01 F600 X-52.757 Y50.282
G01 F600 X-52.757 Y50.832
G01 F600 X-52.349 Y50.832
G01 F600 X-52.277 Y50.847
G01 F600 X-52.210 Y50.877
G01 F600 X-52.150 Y50.920
G01 F600 X-52.101 Y50.975
G01 F600 X-52.065 Y51.038
G01 F600 X-52.042 Y51.108
G01 F600 X-52.035 Y51.171
G01 F600 X-52.035 Y70.140
G01 F600 X-52.042 Y70.202
G01 F600 X-52.065 Y70.272
G01 F600 X-52.101 Y70.336
G01 F600 X-52.150 Y70.390
G01 F600 X-52.210 Y70.434
G01 F600 X-52.277 Y70.463
G01 F600 X-52.349 Y70.479
G01 F600 X-52.882 Y70.479
G01 F600 X-52.969 Y70.628
G01 F600 X-53.087 Y70.760
G01 F600 X-53.231 Y70.865
G01 F600 X-53.393 Y70.937
G01 F600 X-53.567 Y70.974
G01 F600 X-53.744 Y70.974
G00 F3000 Z3.000
G00 F3000 X-51.204 Y70.974
G00 F1500 Z0
G01 F600 Z-0.100
G01 F600 X-51.378 Y70.937
G01 F600 X-51.540 Y70.865
G01 F600 X-51.683 Y70.760
G01 F600 X-51.802 Y70.628
G01 F600 X-51.891 Y70.475
G01 F600 X-51.946 Y70.306
G01 F600 X-51.964 Y70.129
G01 F600 X-51.946 Y69.953
G01 F600 X-51.891 Y69.784
G01 F600 X-51.802 Y69.630
G01 F600 X-51.683 Y69.499
G01 F600 X-51.540 Y69.394
G01 F600 X-51.378 Y69.322
G01 F600 X-51.204 Y69.285
G01 F600 X-51.027 Y69.285
G01 F600 X-50.853 Y69.322
G01 F600 X-50.691 Y69.394
G01 F600 X-50.547 Y69.499
G01 F600 X-50.429 Y69.630
G01 F600 X-50.342 Y69.780
G01 F600 X-48.925 Y69.780
G01 F600 X-48.925 Y55.727
G01 F600 X-49.031 Y55.680
G01 F600 X-49.186 Y55.567
G01 F600 X-49.313 Y55.426
G01 F600 X-49.409 Y55.261
G01 F600 X-49.468 Y55.079
G01 F600 X-49.488 Y54.889
G01 F600 X-49.468 Y54.700
G01 F600 X-49.409 Y54.518
G01 F600 X-49.313 Y54.353
G01 F600 X-49.186 Y54.211
G01 F600 X-49.031 Y54.099
G01 F600 X-48.857 Y54.022
G01 F600 X-48.671 Y53.982
G01 F600 X-48.480 Y53.982
G01 F600 X-48.293 Y54.022
G01 F600 X-48.119 Y54.099
G01 F600 X-47.965 Y54.211
G01 F600 X-47.837 Y54.353
G01 F600 X-47.742 Y54.518
G01 F600 X-47.683 Y54.700
G01 F600 X-47.663 Y54.889
G01 F600 X-47.683 Y55.079
G01 F600 X-47.742 Y55.261
G01 F600 X-47.837 Y55.426
G01 F600 X-47.965 Y55.567
G01 F600 X-48.119 Y55.680
G01 F600 X-48.225 Y55.727
G01 F600 X-48.225 Y70.140
G01 F600 X-48.232 Y70.202
G01 F600 X-48.255 Y70.272
G01 F600 X-48.291 Y70.336
G01 F600 X-48.340 Y70.390
G01 F600 X-48.400 Y70.434
G01 F600 X-48.467 Y70.463
G01 F600 X-48.539 Y70.479
G01 F600 X-50.342 Y70.479
G01 F600 X-50.429 Y70.628
G01 F600 X-50.547 Y70.760
G01 F600 X-50.691 Y70.865
G01 F600 X-50.853 Y70.937
G01 F600 X-51.027 Y70.974
G01 F600 X-51.204 Y70.974
G00 F3000 Z3.000
G00 F3000 X-34.694 Y70.974
G00 F1500 Z0
G01 F600 Z-0.100
G01 F600 X-34.868 Y70.937
G01 F600 X-35.030 Y70.865
G01 F600 X-35.173 Y70.760
G01 F600 X-35.292 Y70.628
G01 F600 X-35.381 Y70.475
G01 F600 X-35.436 Y70.306
G01 F600 X-35.454 Y70.129
G01 F600 X-35.436 Y69.953
G01 F600 X-35.381 Y69.784
G01 F600 X-35.292 Y69.630
G01 F600 X-35.173 Y69.499
G01 F600 X-35.030 Y69.394
G01 F600 X-34.868 Y69.322
G01 F600 X-34.694 Y69.285
G01 F600 X-34.517 Y69.285
G01 F600 X-34.343 Y69.322
G01 F600 X-34.181 Y69.394
G01 F600 X-34.037 Y69.499
G01 F600 X-33.919 Y69.630
G01 F600 X-33.832 Y69.780
G01 F600 X-33.685 Y69.780
G01 F600 X-33.685 Y57.779
G01 F600 X-33.778 Y57.779
G01 F600 X-33.783 Y57.795
G01 F600 X-33.878 Y57.958
G01 F600 X-34.003 Y58.098
G01 F600 X-34.156 Y58.209
G01 F600 X-34.327 Y58.285
G01 F600 X-34.511 Y58.324
G01 F600 X-34.699 Y58.324
G01 F600 X-34.883 Y58.285
G01 F600 X-35.055 Y58.209
G01 F600 X-35.207 Y58.098
G01 F600 X-35.333 Y57.958
G01 F600 X-35.427 Y57.795
G01 F600 X-35.485 Y57.616
G01 F600 X-35.505 Y57.429
G01 F600 X-35.485 Y57.242
G01 F600 X-35.427 Y57.064
G01 F600 X-35.333 Y56.901
G01 F600 X-35.207 Y56.761
G01 F600 X-35.055 Y56.650
G01 F600 X-34.883 Y56.574
G01 F600 X-34.699 Y56.535
G01 F600 X-34.511 Y56.535
G01 F600 X-34.327 Y56.574
G01 F600 X-34.156 Y56.650
G01 F600 X-34.003 Y56.761
G01 F600 X-33.878 Y56.901
G01 F600 X-33.784 Y57.064
G01 F600 X-33.778 Y57.080
G01 F600 X-33.685 Y57.080
G01 F600 X-33.685 Y51.530
G01 F600 X-33.707 Y51.530
G01 F600 X-33.707 Y52.080
G01 F600 X-35.504 Y52.080
G01 F600 X-35.504 Y50.282
G01 F600 X-33.707 Y50.282
G01 F600 X-33.707 Y50.832
G01 F600 X-33.299 Y50.832
G01 F600 X-33.227 Y50.847
G01 F600 X-33.160 Y50.877
G01 F600 X-33.100 Y50.920
G01 F600 X-33.051 Y50.975
G01 F600 X-33.015 Y51.038
G01 F600 X-32.992 Y51.108
G01 F600 X-32.985 Y51.171
G01 F600 X-32.985 Y70.140
G01 F600 X-32.992 Y70.202
G01 F600 X-33.015 Y70.272
G01 F600 X-33.051 Y70.336
G01 F600 X-33.100 Y70.390
G01 F600 X-33.160 Y70.434
G01 F600 X-33.227 Y70.463
G01 F600 X-33.299 Y70.479
G01 F600 X-33.832 Y70.479
G01 F600 X-33.919 Y70.628
G01 F600 X-34.037 Y70.760
G01 F600 X-34.181 Y70.865
G01 F600 X-34.343 Y70.937
G01 F600 X-34.517 Y70.974
G01 F600 X-34.694 Y70.974
G00 F3000 Z3.000
G00 F3000 X-32.154 Y70.974
G00 F1500 Z0
G01 F600 Z-0.100
G01 F600 X-32.328 Y70.937
G01 F600 X-32.490 Y70.865
G01 F600 X-32.633 Y70.760
G01 F600 X-32.752 Y70.628
G01 F600 X-32.841 Y70.475
G01 F600 X-32.895 Y70.306
G01 F600 X-32.914 Y70.129
G01 F600 X-32.895 Y69.953
G01 F600 X-32.841 Y69.784
G01 F600 X-32.752 Y69.630
G01 F600 X-32.633 Y69.499
G01 F600 X-32.490 Y69.394
G01 F600 X-32.328 Y69.322
G01 F600 X-32.154 Y69.285
G01 F600 X-31.977 Y69.285
G01 F600 X-31.803 Y69.322
G01 F600 X-31.641 Y69.394
G01 F600 X-31.497 Y69.499
G01 F600 X-31.379 Y69.630
G01 F600 X-31.292 Y69.780
G01 F600 X-31.145 Y69.780
G01 F600 X-31.145 Y57.779
G01 F600 X-31.238 Y57.779
G01 F600 X-31.243 Y57.795
G01 F600 X-31.338 Y57.958
G01 F600 X-31.463 Y58.098
G01 F600 X-31.616 Y58.209
G01 F600 X-31.787 Y58.285
G01 F600 X-31.971 Y58.324
G01 F600 X-32.159 Y58.324
G01 F600 X-32.343 Y58.285
G01 F600 X-32.515 Y58.209
G01 F600 X-32.667 Y58.098
G01 F600 X-32.793 Y57.958
G01 F600 X-32.887 Y57.795
G01 F600 X-32.945 Y57.616
G01 F600 X-32.965 Y57.429
G01 F600 X-32.945 Y57.242
G01 F600 X-32.887 Y57.064
G01 F600 X-32.793 Y56.901
G01 F600 X-32.667 Y56.761
G01 F600 X-32.515 Y56.650
G01 F600 X-32.343 Y56.574
G01 F600 X-32.159 Y56.535
G01 F600 X-31.971 Y56.535
G01 F600 X-31.787 Y56.574
G01 F600 X-31.616 Y56.650
G01 F600 X-31.463 Y56.761
G01 F600 X-31.338 Y56.901
G01 F600 X-31.244 Y57.064
G01 F600 X-31.238 Y57.080
G01 F600 X-31.145 Y57.080
G01 F600 X-31.145 Y51.530
G01 F600 X-31.167 Y51.530
G01 F600 X-31.167 Y52.080
G01 F600 X-32.964 Y52.080
G01 F600 X-32.964 Y50.282
G01 F600 X-31.167 Y50.282
G01 F600 X-31.167 Y50.832
G01 F600 X-30.759 Y50.832
G01 F600 X-30.687 Y50.847
G01 F600 X-30.620 Y50.877
G01 F600 X-30.560 Y50.920
G01 F600 X-30.511 Y50.975
G01 F600 X-30.475 Y51.038
G01 F600 X-30.452 Y51.108
G01 F600 X-30.445 Y51.171
G01 F600 X-30.445 Y70.140
G01 F600 X-30.452 Y70.202
G01 F600 X-30.475 Y70.272
G01 F600 X-30.511 Y70.336
G01 F600 X-30.560 Y70.390
G01 F600 X-30.620 Y70.434
G01 F600 X-30.687 Y70.463
G01 F600 X-30.759 Y70.479
G01 F600 X-31.292 Y70.479
G01 F600 X-31.379 Y70.628
G01 F600 X-31.497 Y70.760
G01 F600 X-31.641 Y70.865
G01 F600 X-31.803 Y70.937
G01 F600 X-31.977 Y70.974
G01 F600 X-32.154 Y70.974
G00 F3000 Z3.000
G00 F3000 X-39.774 Y70.974
G00 F1500 Z0
G01 F600 Z-0.100
G01 F600 X-39.948 Y70.937
G01 F600 X-40.110 Y70.865
G01 F600 X-40.253 Y70.760
G01 F600 X-40.372 Y70.628
G01 F600 X-40.461 Y70.475
G01 F600 X-40.516 Y70.306
G01 F600 X-40.534 Y70.129
G01 F600 X-40.516 Y69.953
G01 F600 X-40.461 Y69.784
G01 F600 X-40.372 Y69.630
G01 F600 X-40.253 Y69.499
G01 F600 X-40.110 Y69.394
G01 F600 X-40.035 Y69.361
G01 F600 X-40.035 Y64.129
G01 F600 X-43.145 Y64.129
G01 F600 X-43.145 Y68.133
G01 F600 X-43.090 Y68.157
G01 F600 X-42.953 Y68.257
G01 F600 X-42.839 Y68.383
G01 F600 X-42.755 Y68.530
G01 F600 X-42.702 Y68.691
G01 F600 X-42.685 Y68.859
G01 F600 X-42.702 Y69.028
G01 F600 X-42.755 Y69.189
G01 F600 X-42.839 Y69.336
G01 F600 X-42.953 Y69.462
G01 F600 X-43.090 Y69.562
G01 F600 X-43.245 Y69.630
G01 F600 X-43.410 Y69.666
G01 F600 X-43.580 Y69.666
G01 F600 X-43.746 Y69.630
G01 F600 X-43.901 Y69.562
G01 F600 X-44.038 Y69.462
G01 F600 X-44.151 Y69.336
G01 F600 X-44.236 Y69.189
G01 F600 X-44.288 Y69.028
G01 F600 X-44.306 Y68.859
G01 F600 X-44.288 Y68.691
G01 F600 X-44.236 Y68.530
G01 F600 X-44.151 Y68.383
G01 F600 X-44.038 Y68.257
G01 F600 X-43.901 Y68.157
G01 F600 X-43.845 Y68.133
G01 F600 X-43.845 Y63.769
G01 F600 X-43.839 Y63.706
G01 F600 X-43.816 Y63.637
G01 F600 X-43.779 Y63.573
G01 F600 X-43.730 Y63.519
G01 F600 X-43.671 Y63.475
G01 F600 X-43.604 Y63.446
G01 F600 X-43.532 Y63.430
G01 F600 X-39.649 Y63.430
G01 F600 X-39.577 Y63.446
G01 F600 X-39.510 Y63.475
G01 F600 X-39.450 Y63.519
G01 F600 X-39.401 Y63.573
G01 F600 X-39.365 Y63.637
G01 F600 X-39.342 Y63.706
G01 F600 X-39.335 Y63.769
G01 F600 X-39.335 Y69.361
G01 F600 X-39.261 Y69.394
G01 F600 X-39.117 Y69.499
G01 F600 X-38.999 Y69.630
G01 F600 X-38.910 Y69.784
G01 F600 X-38.855 Y69.953
G01 F600 X-38.837 Y70.129
G01 F600 X-38.855 Y70.306
G01 F600 X-38.910 Y70.475
G01 F600 X-38.999 Y70.628
G01 F600 X-39.117 Y70.760
G01 F600 X-39.261 Y70.865
G01 F600 X-39.423 Y70.937
G01 F600 X-39.597 Y70.974
G01 F600 X-39.774 Y70.974
G00 F3000 Z3.000
G00 F3000 X-37.234 Y70.974
G00 F1500 Z0
G01 F600 Z-0.100
G01 F600 X-37.408 Y70.937
G01 F600 X-37.570 Y70.865
G01 F600 X-37.713 Y70.760
G01 F600 X-37.832 Y70.628
G01 F600 X-37.921 Y70.475
G01 F600 X-37.976 Y70.306
G01 F600 X-37.994 Y70.129
G01 F600 X-37.976 Y69.953
G01 F600 X-37.921 Y69.784
G01 F600 X-37.832 Y69.630
G01 F600 X-37.713 Y69.499
G01 F600 X-37.570 Y69.394
G01 F600 X-37.408 Y69.322
G01 F600 X-37.234 Y69.285
G01 F600 X-37.057 Y69.285
G01 F600 X-36.883 Y69.322
G01 F600 X-36.721 Y69.394
G01 F600 X-36.577 Y69.499
G01 F600 X-36.459 Y69.630
G01 F600 X-36.370 Y69.784
G01 F600 X-36.315 Y69.953
G01 F600 X-36.297 Y70.129
G01 F600 X-36.315 Y70.306
G01 F600 X-36.370 Y70.475
G01 F600 X-36.459 Y70.628
G01 F600 X-36.577 Y70.760
G01 F600 X-36.721 Y70.865
G01 F600 X-36.883 Y70.937
G01 F600 X-37.057 Y70.974
G01 F600 X-37.234 Y70.974
G00 F3000 Z3.000
G00 F3000 X-68.984 Y70.974
G00 F1500 Z0
G01 F600 Z-0.100
G01 F600 X-69.158 Y70.937
G01 F600 X-69.320 Y70.865
G01 F600 X-69.463 Y70.760
G01 F600 X-69.582 Y70.628
G01 F600 X-69.671 Y70.475
G01 F600 X-69.725 Y70.306
G01 F600 X-69.744 Y70.129
G01 F600 X-69.725 Y69.953
G01 F600 X-69.671 Y69.784
G01 F600 X-69.582 Y69.630
G01 F600 X-69.463 Y69.499
G01 F600 X-69.320 Y69.394
G01 F600 X-69.158 Y69.322
G01 F600 X-68.984 Y69.285
G01 F600 X-68.807 Y69.285
G01 F600 X-68.633 Y69.322
G01 F600 X-68.471 Y69.394
G01 F600 X-68.327 Y69.499
G01 F600 X-68.209 Y69.630
G01 F600 X-68.120 Y69.784
G01 F600 X-68.065 Y69.953
G01 F600 X-68.047 Y70.129
G01 F600 X-68.065 Y70.306
G01 F600 X-68.120 Y70.475
G01 F600 X-68.209 Y70.628
G01 F600 X-68.327 Y70.760
G01 F600 X-68.471 Y70.865
G01 F600 X-68.633 Y70.937
G01 F600 X-68.807 Y70.974
G01 F600 X-68.984 Y70.974
G00 F3000 Z3.000
G00 F3000 X-75.334 Y70.974
G00 F1500 Z0
G01 F600 Z-0.100
G01 F600 X-75.508 Y70.937
G01 F600 X-75.670 Y70.865
G01 F600 X-75.813 Y70.760
G01 F600 X-75.932 Y70.628
G01 F600 X-76.021 Y70.475
G01 F600 X-76.076 Y70.306
G01 F600 X-76.094 Y70.129
G01 F600 X-76.076 Y69.953
G01 F600 X-76.021 Y69.784
G01 F600 X-75.932 Y69.630
G01 F600 X-75.813 Y69.499
G01 F600 X-75.670 Y69.394
G01 F600 X-75.508 Y69.322
G01 F600 X-75.334 Y69.285
G01 F600 X-75.157 Y69.285
G01 F600 X-74.983 Y69.322
G01 F600 X-74.821 Y69.394
G01 F600 X-74.677 Y69.499
G01 F600 X-74.559 Y69.630
G01 F600 X-74.472 Y69.780
G01 F600 X-73.055 Y69.780
G01 F600 X-73.055 Y59.537
G01 F600 X-73.161 Y59.489
G01 F600 X-73.316 Y59.377
G01 F600 X-73.443 Y59.236
G01 F600 X-73.539 Y59.071
G01 F600 X-73.598 Y58.889
G01 F600 X-73.618 Y58.699
G01 F600 X-73.598 Y58.510
G01 F600 X-73.539 Y58.328
G01 F600 X-73.443 Y58.163
G01 F600 X-73.316 Y58.021
G01 F600 X-73.161 Y57.909
G01 F600 X-73.055 Y57.862
G01 F600 X-73.055 Y55.727
G01 F600 X-73.161 Y55.680
G01 F600 X-73.316 Y55.567
G01 F600 X-73.443 Y55.426
G01 F600 X-73.539 Y55.261
G01 F600 X-73.598 Y55.079
G01 F600 X-73.618 Y54.889
G01 F600 X-73.598 Y54.700
G01 F600 X-73.539 Y54.518
G01 F600 X-73.443 Y54.353
G01 F600 X-73.316 Y54.211
G01 F600 X-73.161 Y54.099
G01 F600 X-72.987 Y54.022
G01 F600 X-72.801 Y53.982
G01 F600 X-72.610 Y53.982
G01 F600 X-72.423 Y54.022
G01 F600 X-72.249 Y54.099
G01 F600 X-72.095 Y54.211
G01 F600 X-71.967 Y54.353
G01 F600 X-71.872 Y54.518
G01 F600 X-71.813 Y54.700
G01 F600 X-71.793 Y54.889
G01 F600 X-71.813 Y55.079
G01 F600 X-71.872 Y55.261
G01 F600 X-71.967 Y55.426
G01 F600 X-72.095 Y55.567
G01 F600 X-72.249 Y55.680
G01 F600 X-72.355 Y55.727
G01 F600 X-72.355 Y57.862
G01 F600 X-72.249 Y57.909
G01 F600 X-72.095 Y58.021
G01 F600 X-71.967 Y58.163
G01 F600 X-71.872 Y58.328
G01 F600 X-71.813 Y58.510
G01 F600 X-71.793 Y58.699
G01 F600 X-71.813 Y58.889
G01 F600 X-71.872 Y59.071
G01 F600 X-71.967 Y59.236
G01 F600 X-72.095 Y59.377
G01 F600 X-72.249 Y59.489
G01 F600 X-72.355 Y59.537
G01 F600 X-72.355 Y70.140
G01 F600 X-72.362 Y70.202
G01 F600 X-72.385 Y70.272
G01 F600 X-72.421 Y70.336
G01 F600 X-72.470 Y70.390
G01 F600 X-72.530 Y70.434
G01 F600 X-72.597 Y70.463
G01 F600 X-72.669 Y70.479
G01 F600 X-74.472 Y70.479
G01 F600 X-74.559 Y70.628
G01 F600 X-74.677 Y70.760
G01 F600 X-74.821 Y70.865
G01 F600 X-74.983 Y70.937
G01 F600 X-75.157 Y70.974
G01 F600 X-75.334 Y70.974
G00 F3000 Z3.000
G00 F3000 X-80.414 Y70.974
G00 F1500 Z0
G01 F600 Z-0.100
G01 F600 X-80.588 Y70.937
G01 F600 X-80.750 Y70.865
G01 F600 X-80.893 Y70.760
G01 F600 X-81.012 Y70.628
G01 F600 X-81.101 Y70.475
G01 F600 X-81.156 Y70.306
G01 F600 X-81.174 Y70.129
G01 F600 X-81.156 Y69.953
G01 F600 X-81.101 Y69.784
G01 F600 X-81.012 Y69.630
G01 F600 X-80.893 Y69.499
G01 F600 X-80.750 Y69.394
G01 F600 X-80.588 Y69.322
G01 F600 X-80.414 Y69.285
G01 F600 X-80.237 Y69.285
G01 F600 X-80.063 Y69.322
G01 F600 X-79.901 Y69.394
G01 F600 X-79.757 Y69.499
G01 F600 X-79.639 Y69.630
G01 F600 X-79.552 Y69.780
G01 F600 X-79.405 Y69.780
G01 F600 X-79.405 Y57.779
G01 F600 X-79.498 Y57.779
G01 F600 X-79.503 Y57.795
G01 F600 X-79.598 Y57.958
G01 F600 X-79.723 Y58.098
G01 F600 X-79.876 Y58.209
G01 F600 X-80.047 Y58.285
G01 F600 X-80.231 Y58.324
G01 F600 X-80.419 Y58.324
G01 F600 X-80.603 Y58.285
G01 F600 X-80.775 Y58.209
G01 F600 X-80.927 Y58.098
G01 F600 X-81.053 Y57.958
G01 F600 X-81.147 Y57.795
G01 F600 X-81.205 Y57.616
G01 F600 X-81.225 Y57.429
G01 F600 X-81.205 Y57.242
G01 F600 X-81.147 Y57.064
G01 F600 X-81.053 Y56.901
G01 F600 X-80.927 Y56.761
G01 F600 X-80.775 Y56.650
G01 F600 X-80.603 Y56.574
G01 F600 X-80.419 Y56.535
G01 F600 X-80.231 Y56.535
G01 F600 X-80.047 Y56.574
G01 F600 X-79.876 Y56.650
G01 F600 X-79.723 Y56.761
G01 F600 X-79.598 Y56.901
G01 F600 X-79.504 Y57.064
G01 F600 X-79.498 Y57.080
G01 F600 X-79.405 Y57.080
G01 F600 X-79.405 Y51.530
G01 F600 X-79.427 Y51.530
G01 F600 X-79.427 Y52.080
G01 F600 X-81.224 Y52.080
G01 F600 X-81.224 Y50.282
G01 F600 X-79.427 Y50.282
G01 F600 X-79.427 Y50.832
G01 F600 X-79.019 Y50.832
G01 F600 X-78.947 Y50.847
G01 F600 X-78.880 Y50.877
G01 F600 X-78.820 Y50.920
G01 F600 X-78.771 Y50.975
G01 F600 X-78.735 Y51.038
G01 F600 X-78.712 Y51.108
G01 F600 X-78.705 Y51.171
G01 F600 X-78.705 Y70.140
G01 F600 X-78.712 Y70.202
G01 F600 X-78.735 Y70.272
G01 F600 X-78.771 Y70.336
G01 F600 X-78.820 Y70.390
G01 F600 X-78.880 Y70.434
G01 F600 X-78.947 Y70.463
G01 F600 X-79.019 Y70.479
G01 F600 X-79.552 Y70.479
G01 F600 X-79.639 Y70.628
G01 F600 X-79.757 Y70.760
G01 F600 X-79.901 Y70.865
G01 F600 X-80.063 Y70.937
G01 F600 X-80.237 Y70.974
G01 F600 X-80.414 Y70.974
G00 F3000 Z3.000
G00 F3000 X-77.874 Y70.974
G00 F1500 Z0
G01 F600 Z-0.100
G01 F600 X-78.048 Y70.937
G01 F600 X-78.210 Y70.865
G01 F600 X-78.353 Y70.760
G01 F600 X-78.472 Y70.628
G01 F600 X-78.561 Y70.475
G01 F600 X-78.615 Y70.306
G01 F600 X-78.634 Y70.129
G01 F600 X-78.615 Y69.953
G01 F600 X-78.561 Y69.784
G01 F600 X-78.472 Y69.630
G01 F600 X-78.353 Y69.499
G01 F600 X-78.210 Y69.394
G01 F600 X-78.048 Y69.322
G01 F600 X-77.874 Y69.285
G01 F600 X-77.697 Y69.285
G01 F600 X-77.523 Y69.322
G01 F600 X-77.361 Y69.394
G01 F600 X-77.217 Y69.499
G01 F600 X-77.099 Y69.630
G01 F600 X-77.012 Y69.780
G01 F600 X-76.865 Y69.780
G01 F600 X-76.865 Y57.779
G01 F600 X-76.958 Y57.779
G01 F600 X-76.963 Y57.795
G01 F600 X-77.058 Y57.958
G01 F600 X-77.183 Y58.098
G01 F600 X-77.336 Y58.209
G01 F600 X-77.507 Y58.285
G01 F600 X-77.691 Y58.324
G01 F600 X-77.879 Y58.324
G01 F600 X-78.063 Y58.285
G01 F600 X-78.235 Y58.209
G01 F600 X-78.387 Y58.098
G01 F600 X-78.513 Y57.958
G01 F600 X-78.607 Y57.795
G01 F600 X-78.665 Y57.616
G01 F600 X-78.685 Y57.429
G01 F600 X-78.665 Y57.242
G01 F600 X-78.607 Y57.064
G01 F600 X-78.513 Y56.901
G01 F600 X-78.387 Y56.761
G01 F600 X-78.235 Y56.650
G01 F600 X-78.063 Y56.574
G01 F600 X-77.879 Y56.535
G01 F600 X-77.691 Y56.535
G01 F600 X-77.507 Y56.574
G01 F600 X-77.336 Y56.650
G01 F600 X-77.183 Y56.761
G01 F600 X-77.058 Y56.901
G01 F600 X-76.964 Y57.064
G01 F600 X-76.958 Y57.080
G01 F600 X-76.865 Y57.080
G01 F600 X-76.865 Y51.530
G01 F600 X-76.887 Y51.530
G01 F600 X-76.887 Y52.080
G01 F600 X-78.684 Y52.080
G01 F600 X-78.684 Y50.282
G01 F600 X-76.887 Y50.282
G01 F600 X-76.887 Y50.832
G01 F600 X-76.479 Y50.832
G01 F600 X-76.407 Y50.847
G01 F600 X-76.340 Y50.877
G01 F600 X-76.280 Y50.920
G01 F600 X-76.231 Y50.975
G01 F600 X-76.195 Y51.038
G01 F600 X-76.172 Y51.108
G01 F600 X-76.165 Y51.171
G01 F600 X-76.165 Y70.140
G01 F600 X-76.172 Y70.202
G01 F600 X-76.195 Y70.272
G01 F600 X-76.231 Y70.336
G01 F600 X-76.280 Y70.390
G01 F600 X-76.340 Y70.434
G01 F600 X-76.407 Y70.463
G01 F600 X-76.479 Y70.479
G01 F600 X-77.012 Y70.479
G01 F600 X-77.099 Y70.628
G01 F600 X-77.217 Y70.760
G01 F600 X-77.361 Y70.865
G01 F600 X-77.523 Y70.937
G01 F600 X-77.697 Y70.974
G01 F600 X-77.874 Y70.974
G00 F3000 Z3.000
G00 F3000 X-58.824 Y70.974
G00 F1500 Z0
G01 F600 Z-0.100
G01 F600 X-58.998 Y70.937
G01 F600 X-59.160 Y70.865
G01 F600 X-59.303 Y70.760
G01 F600 X-59.422 Y70.628
G01 F600 X-59.511 Y70.475
G01 F600 X-59.566 Y70.306
G01 F600 X-59.584 Y70.129
G01 F600 X-59.566 Y69.953
G01 F600 X-59.511 Y69.784
G01 F600 X-59.422 Y69.630
G01 F600 X-59.303 Y69.499
G01 F600 X-59.160 Y69.394
G01 F600 X-58.998 Y69.322
G01 F600 X-58.824 Y69.285
G01 F600 X-58.647 Y69.285
G01 F600 X-58.473 Y69.322
G01 F600 X-58.311 Y69.394
G01 F600 X-58.167 Y69.499
G01 F600 X-58.049 Y69.630
G01 F600 X-57.962 Y69.780
G01 F600 X-57.815 Y69.780
G01 F600 X-57.815 Y57.779
G01 F600 X-57.908 Y57.779
G01 F600 X-57.913 Y57.795
G01 F600 X-58.008 Y57.958
G01 F600 X-58.133 Y58.098
G01 F600 X-58.286 Y58.209
G01 F600 X-58.457 Y58.285
G01 F600 X-58.641 Y58.324
G01 F600 X-58.829 Y58.324
G01 F600 X-59.013 Y58.285
G01 F600 X-59.185 Y58.209
G01 F600 X-59.337 Y58.098
G01 F600 X-59.463 Y57.958
G01 F600 X-59.557 Y57.795
G01 F600 X-59.615 Y57.616
G01 F600 X-59.635 Y57.429
G01 F600 X-59.615 Y57.242
G01 F600 X-59.557 Y57.064
G01 F600 X-59.463 Y56.901
G01 F600 X-59.337 Y56.761
G01 F600 X-59.185 Y56.650
G01 F600 X-59.013 Y56.574
G01 F600 X-58.829 Y56.535
G01 F600 X-58.641 Y56.535
G01 F600 X-58.457 Y56.574
G01 F600 X-58.286 Y56.650
G01 F600 X-58.133 Y56.761
G01 F600 X-58.008 Y56.901
G01 F600 X-57.914 Y57.064
G01 F600 X-57.908 Y57.080
G01 F600 X-57.815 Y57.080
G01 F600 X-57.815 Y51.530
G01 F600 X-57.837 Y51.530
G01 F600 X-57.837 Y52.080
G01 F600 X-59.634 Y52.080
G01 F600 X-59.634 Y50.282
G01 F600 X-57.837 Y50.282
G01 F600 X-57.837 Y50.832
G01 F600 X-57.429 Y50.832
G01 F600 X-57.357 Y50.847
G01 F600 X-57.290 Y50.877
G01 F600 X-57.230 Y50.920
G01 F600 X-57.181 Y50.975
G01 F600 X-57.145 Y51.038
G01 F600 X-57.122 Y51.108
G01 F600 X-57.115 Y51.171
G01 F600 X-57.115 Y70.140
G01 F600 X-57.122 Y70.202
G01 F600 X-57.145 Y70.272
G01 F600 X-57.181 Y70.336
G01 F600 X-57.230 Y70.390
G01 F600 X-57.290 Y70.434
G01 F600 X-57.357 Y70.463
G01 F600 X-57.429 Y70.479
G01 F600 X-57.962 Y70.479
G01 F600 X-58.049 Y70.628
G01 F600 X-58.167 Y70.760
G01 F600 X-58.311 Y70.865
G01 F600 X-58.473 Y70.937
G01 F600 X-58.647 Y70.974
G01 F600 X-58.824 Y70.974
G00 F3000 Z3.000
G00 F3000 X-56.284 Y70.974
G00 F1500 Z0
G01 F600 Z-0.100
G01 F600 X-56.458 Y70.937
G01 F600 X-56.620 Y70.865
G01 F600 X-56.763 Y70.760
G01 F600 X-56.882 Y70.628
G01 F600 X-56.971 Y70.475
G01 F600 X-57.026 Y70.306
G01 F600 X-57.044 Y70.129
G01 F600 X-57.026 Y69.953
G01 F600 X-56.971 Y69.784
G01 F600 X-56.882 Y69.630
G01 F600 X-56.763 Y69.499
G01 F600 X-56.620 Y69.394
G01 F600 X-56.458 Y69.322
G01 F600 X-56.284 Y69.285
G01 F600 X-56.107 Y69.285
G01 F600 X-55.933 Y69.322
G01 F600 X-55.771 Y69.394
G01 F600 X-55.627 Y69.499
G01 F600 X-55.509 Y69.630
G01 F600 X-55.422 Y69.780
G01 F600 X-55.275 Y69.780
G01 F600 X-55.275 Y57.779
G01 F600 X-55.368 Y57.779
G01 F600 X-55.373 Y57.795
G01 F600 X-55.468 Y57.958
G01 F600 X-55.593 Y58.098
G01 F600 X-55.745 Y58.209
G01 F600 X-55.917 Y58.285
G01 F600 X-56.101 Y58.324
G01 F600 X-56.289 Y58.324
G01 F600 X-56.473 Y58.285
G01 F600 X-56.645 Y58.209
G01 F600 X-56.797 Y58.098
G01 F600 X-56.923 Y57.958
G01 F600 X-57.017 Y57.795
G01 F600 X-57.075 Y57.616
G01 F600 X-57.095 Y57.429
G01 F600 X-57.075 Y57.242
G01 F600 X-57.017 Y57.064
G01 F600 X-56.923 Y56.901
G01 F600 X-56.797 Y56.761
G01 F600 X-56.645 Y56.650
G01 F600 X-56.473 Y56.574
G01 F600 X-56.289 Y56.535
G01 F600 X-56.101 Y56.535
G01 F600 X-55.917 Y56.574
G01 F600 X-55.745 Y56.650
G01 F600 X-55.593 Y56.761
G01 F600 X-55.468 Y56.901
G01 F600 X-55.373 Y57.064
G01 F600 X-55.368 Y57.080
G01 F600 X-55.275 Y57.080
G01 F600 X-55.275 Y51.530
G01 F600 X-55.297 Y51.530
G01 F600 X-55.297 Y52.080
G01 F600 X-57.094 Y52.080
G01 F600 X-57.094 Y50.282
G01 F600 X-55.297 Y50.282
G01 F600 X-55.297 Y50.832
G01 F600 X-54.889 Y50.832
G01 F600 X-54.817 Y50.847
G01 F600 X-54.750 Y50.877
G01 F600 X-54.690 Y50.920
G01 F600 X-54.641 Y50.975
G01 F600 X-54.605 Y51.038
G01 F600 X-54.582 Y51.108
G01 F600 X-54.575 Y51.171
G01 F600 X-54.575 Y70.140
G01 F600 X-54.582 Y70.202
G01 F600 X-54.605 Y70.272
G01 F600 X-54.641 Y70.336
G01 F600 X-54.690 Y70.390
G01 F600 X-54.750 Y70.434
G01 F600 X-54.817 Y70.463
G01 F600 X-54.889 Y70.479
G01 F600 X-55.422 Y70.479
G01 F600 X-55.509 Y70.628
G01 F600 X-55.627 Y70.760
G01 F600 X-55.771 Y70.865
G01 F600 X-55.933 Y70.937
G01 F600 X-56.107 Y70.974
G01 F600 X-56.284 Y70.974
G00 F3000 Z3.000
G00 F3000 X-63.904 Y70.974
G00 F1500 Z0
G01 F600 Z-0.100
G01 F600 X-64.078 Y70.937
G01 F600 X-64.240 Y70.865
G01 F600 X-64.383 Y70.760
G01 F600 X-64.502 Y70.628
G01 F600 X-64.591 Y70.475
G01 F600 X-64.645 Y70.306
G01 F600 X-64.664 Y70.129
G01 F600 X-64.645 Y69.953
G01 F600 X-64.591 Y69.784
G01 F600 X-64.502 Y69.630
G01 F600 X-64.383 Y69.499
G01 F600 X-64.240 Y69.394
G01 F600 X-64.165 Y69.361
G01 F600 X-64.165 Y65.776
G01 F600 X-64.221 Y65.752
G01 F600 X-64.358 Y65.652
G01 F600 X-64.471 Y65.526
G01 F600 X-64.556 Y65.379
G01 F600 X-64.608 Y65.218
G01 F600 X-64.626 Y65.049
G01 F600 X-64.608 Y64.881
G01 F600 X-64.556 Y64.720
G01 F600 X-64.471 Y64.573
G01 F600 X-64.358 Y64.447
G01 F600 X-64.221 Y64.347
G01 F600 X-64.066 Y64.278
G01 F600 X-63.900 Y64.243
G01 F600 X-63.731 Y64.243
G01 F600 X-63.565 Y64.278
G01 F600 X-63.410 Y64.347
G01 F600 X-63.273 Y64.447
G01 F600 X-63.159 Y64.573
G01 F600 X-63.075 Y64.720
G01 F600 X-63.022 Y64.881
G01 F600 X-63.005 Y65.049
G01 F600 X-63.022 Y65.218
G01 F600 X-63.075 Y65.379
G01 F600 X-63.159 Y65.526
G01 F600 X-63.273 Y65.652
G01 F600 X-63.410 Y65.752
G01 F600 X-63.465 Y65.776
G01 F600 X-63.465 Y69.361
G01 F600 X-63.391 Y69.394
G01 F600 X-63.247 Y69.499
G01 F600 X-63.129 Y69.630
G01 F600 X-63.040 Y69.784
G01 F600 X-62.985 Y69.953
G01 F600 X-62.967 Y70.129
G01 F600 X-62.985 Y70.306
G01 F600 X-63.040 Y70.475
G01 F600 X-63.129 Y70.628
G01 F600 X-63.247 Y70.760
G01 F600 X-63.391 Y70.865
G01 F600 X-63.553 Y70.937
G01 F600 X-63.727 Y70.974
G01 F600 X-63.904 Y70.974
G00 F3000 Z3.000
G00 F3000 X-61.364 Y70.974
G00 F1500 Z0
G01 F600 Z-0.100
G01 F600 X-61.538 Y70.937
G01 F600 X-61.700 Y70.865
G01 F600 X-61.843 Y70.760
G01 F600 X-61.962 Y70.628
G01 F600 X-62.051 Y70.475
G01 F600 X-62.106 Y70.306
G01 F600 X-62.124 Y70.129
G01 F600 X-62.106 Y69.953
G01 F600 X-62.051 Y69.784
G01 F600 X-61.962 Y69.630
G01 F600 X-61.843 Y69.499
G01 F600 X-61.700 Y69.394
G01 F600 X-61.538 Y69.322
G01 F600 X-61.364 Y69.285
G01 F600 X-61.187 Y69.285
G01 F600 X-61.013 Y69.322
G01 F600 X-60.851 Y69.394
G01 F600 X-60.707 Y69.499
G01 F600 X-60.589 Y69.630
G01 F600 X-60.500 Y69.784
G01 F600 X-60.445 Y69.953
G01 F600 X-60.427 Y70.129
G01 F600 X-60.445 Y70.306
G01 F600 X-60.500 Y70.475
G01 F600 X-60.589 Y70.628
G01 F600 X-60.707 Y70.760
G01 F600 X-60.851 Y70.865
G01 F600 X-61.013 Y70.937
G01 F600 X-61.187 Y70.974
G01 F600 X-61.364 Y70.974
G00 F3000 Z3.000
G00 F3000 X-2.944 Y70.974
G00 F1500 Z0
G01 F600 Z-0.100
G01 F600 X-3.118 Y70.937
G01 F600 X-3.280 Y70.865
G01 F600 X-3.423 Y70.760
G01 F600 X-3.542 Y70.628
G01 F600 X-3.631 Y70.475
G01 F600 X-3.686 Y70.306
G01 F600 X-3.704 Y70.129
G01 F600 X-3.686 Y69.953
G01 F600 X-3.631 Y69.784
G01 F600 X-3.542 Y69.630
G01 F600 X-3.423 Y69.499
G01 F600 X-3.280 Y69.394
G01 F600 X-3.118 Y69.322
G01 F600 X-2.944 Y69.285
G01 F600 X-2.767 Y69.285
G01 F600 X-2.593 Y69.322
G01 F600 X-2.431 Y69.394
G01 F600 X-2.287 Y69.499
G01 F600 X-2.169 Y69.630
G01 F600 X-2.080 Y69.784
G01 F600 X-2.025 Y69.953
G01 F600 X-2.006 Y70.129
G01 F600 X-2.025 Y70.306
G01 F600 X-2.080 Y70.475
G01 F600 X-2.169 Y70.628
G01 F600 X-2.287 Y70.760
G01 F600 X-2.431 Y70.865
G01 F600 X-2.593 Y70.937
G01 F600 X-2.767 Y70.974
G01 F600 X-2.944 Y70.974
G00 F3000 Z3.000
G00 F3000 X-18.184 Y70.974
G00 F1500 Z0
G01 F600 Z-0.100
G01 F600 X-18.358 Y70.937
G01 F600 X-18.520 Y70.865
G01 F600 X-18.663 Y70.760
G01 F600 X-18.782 Y70.628
G01 F600 X-18.871 Y70.475
G01 F600 X-18.925 Y70.306
G01 F600 X-18.944 Y70.129
G01 F600 X-18.925 Y69.953
G01 F600 X-18.871 Y69.784
G01 F600 X-18.782 Y69.630
G01 F600 X-18.663 Y69.499
G01 F600 X-18.520 Y69.394
G01 F600 X-18.445 Y69.361
G01 F600 X-18.445 Y68.316
G01 F600 X-18.501 Y68.291
G01 F600 X-18.638 Y68.192
G01 F600 X-18.751 Y68.066
G01 F600 X-18.836 Y67.919
G01 F600 X-18.888 Y67.758
G01 F600 X-18.906 Y67.589
G01 F600 X-18.888 Y67.421
G01 F600 X-18.836 Y67.260
G01 F600 X-18.751 Y67.113
G01 F600 X-18.638 Y66.987
G01 F600 X-18.501 Y66.887
G01 F600 X-18.346 Y66.818
G01 F600 X-18.180 Y66.783
G01 F600 X-18.011 Y66.783
G01 F600 X-17.845 Y66.818
G01 F600 X-17.690 Y66.887
G01 F600 X-17.553 Y66.987
G01 F600 X-17.439 Y67.113
G01 F600 X-17.355 Y67.260
G01 F600 X-17.302 Y67.421
G01 F600 X-17.285 Y67.589
G01 F600 X-17.302 Y67.758
G01 F600 X-17.355 Y67.919
G01 F600 X-17.439 Y68.066
G01 F600 X-17.553 Y68.192
G01 F600 X-17.690 Y68.291
G01 F600 X-17.745 Y68.316
G01 F600 X-17.745 Y69.361
G01 F600 X-17.671 Y69.394
G01 F600 X-17.527 Y69.499
G01 F600 X-17.409 Y69.630
G01 F600 X-17.320 Y69.784
G01 F600 X-17.265 Y69.953
G01 F600 X-17.247 Y70.129
G01 F600 X-17.265 Y70.306
G01 F600 X-17.320 Y70.475
G01 F600 X-17.409 Y70.628
G01 F600 X-17.527 Y70.760
G01 F600 X-17.671 Y70.865
G01 F600 X-17.833 Y70.937
G01 F600 X-18.007 Y70.974
G01 F600 X-18.184 Y70.974
G00 F3000 Z3.000
G00 F3000 X-15.644 Y70.974
G00 F1500 Z0
G01 F600 Z-0.100
G01 F600 X-15.818 Y70.937
G01 F600 X-15.980 Y70.865
G01 F600 X-16.123 Y70.760
G01 F600 X-16.242 Y70.628
G01 F600 X-16.331 Y70.475
G01 F600 X-16.386 Y70.306
G01 F600 X-16.404 Y70.129
G01 F600 X-16.386 Y69.953
G01 F600 X-16.331 Y69.784
G01 F600 X-16.242 Y69.630
G01 F600 X-16.123 Y69.499
G01 F600 X-15.980 Y69.394
G01 F600 X-15.818 Y69.322
G01 F600 X-15.644 Y69.285
G01 F600 X-15.467 Y69.285
G01 F600 X-15.293 Y69.322
G01 F600 X-15.131 Y69.394
G01 F600 X-14.987 Y69.499
G01 F600 X-14.869 Y69.630
G01 F600 X-14.780 Y69.784
G01 F600 X-14.725 Y69.953
G01 F600 X-14.707 Y70.129
G01 F600 X-14.725 Y70.306
G01 F600 X-14.780 Y70.475
G01 F600 X-14.869 Y70.628
G01 F600 X-14.987 Y70.760
G01 F600 X-15.131 Y70.865
G01 F600 X-15.293 Y70.937
G01 F600 X-15.467 Y70.974
G01 F600 X-15.644 Y70.974
G00 F3000 Z3.000
G00 F3000 X-29.614 Y70.974
G00 F1500 Z0
G01 F600 Z-0.100
G01 F600 X-29.788 Y70.937
G01 F600 X-29.950 Y70.865
G01 F600 X-30.093 Y70.760
G01 F600 X-30.212 Y70.628
G01 F600 X-30.301 Y70.475
G01 F600 X-30.356 Y70.306
G01 F600 X-30.374 Y70.129
G01 F600 X-30.356 Y69.953
G01 F600 X-30.301 Y69.784
G01 F600 X-30.212 Y69.630
G01 F600 X-30.093 Y69.499
G01 F600 X-29.950 Y69.394
G01 F600 X-29.788 Y69.322
G01 F600 X-29.614 Y69.285
G01 F600 X-29.437 Y69.285
G01 F600 X-29.263 Y69.322
G01 F600 X-29.101 Y69.394
G01 F600 X-28.957 Y69.499
G01 F600 X-28.839 Y69.630
G01 F600 X-28.752 Y69.780
G01 F600 X-28.605 Y69.780
G01 F600 X-28.605 Y57.779
G01 F600 X-28.698 Y57.779
G01 F600 X-28.703 Y57.795
G01 F600 X-28.798 Y57.958
G01 F600 X-28.923 Y58.098
G01 F600 X-29.076 Y58.209
G01 F600 X-29.247 Y58.285
G01 F600 X-29.431 Y58.324
G01 F600 X-29.619 Y58.324
G01 F600 X-29.803 Y58.285
G01 F600 X-29.975 Y58.209
G01 F600 X-30.127 Y58.098
G01 F600 X-30.253 Y57.958
G01 F600 X-30.347 Y57.795
G01 F600 X-30.405 Y57.616
G01 F600 X-30.425 Y57.429
G01 F600 X-30.405 Y57.242
G01 F600 X-30.347 Y57.064
G01 F600 X-30.253 Y56.901
G01 F600 X-30.127 Y56.761
G01 F600 X-29.975 Y56.650
G01 F600 X-29.803 Y56.574
G01 F600 X-29.619 Y56.535
G01 F600 X-29.431 Y56.535
G01 F600 X-29.247 Y56.574
G01 F600 X-29.076 Y56.650
G01 F600 X-28.923 Y56.761
G01 F600 X-28.798 Y56.901
G01 F600 X-28.704 Y57.064
G01 F600 X-28.698 Y57.080
G01 F600 X-28.605 Y57.080
G01 F600 X-28.605 Y51.530
G01 F600 X-28.627 Y51.530
G01 F600 X-28.627 Y52.080
G01 F600 X-30.424 Y52.080
G01 F600 X-30.424 Y50.282
G01 F600 X-28.627 Y50.282
G01 F600 X-28.627 Y50.832
G01 F600 X-28.219 Y50.832
G01 F600 X-28.147 Y50.847
G01 F600 X-28.080 Y50.877
G01 F600 X-28.020 Y50.920
G01 F600 X-27.971 Y50.975
G01 F600 X-27.935 Y51.038
G01 F600 X-27.912 Y51.108
G01 F600 X-27.905 Y51.171
G01 F600 X-27.905 Y70.140
G01 F600 X-27.912 Y70.202
G01 F600 X-27.935 Y70.272
G01 F600 X-27.971 Y70.336
G01 F600 X-28.020 Y70.390
G01 F600 X-28.080 Y70.434
G01 F600 X-28.147 Y70.463
G01 F600 X-28.219 Y70.479
G01 F600 X-28.752 Y70.479
G01 F600 X-28.839 Y70.628
G01 F600 X-28.957 Y70.760
G01 F600 X-29.101 Y70.865
G01 F600 X-29.263 Y70.937
G01 F600 X-29.437 Y70.974
G01 F600 X-29.614 Y70.974
G00 F3000 Z3.000
G00 F3000 X-20.724 Y70.974
G00 F1500 Z0
G01 F600 Z-0.100
G01 F600 X-20.898 Y70.937
G01 F600 X-21.060 Y70.865
G01 F600 X-21.203 Y70.760
G01 F600 X-21.322 Y70.628
G01 F600 X-21.411 Y70.475
G01 F600 X-21.466 Y70.306
G01 F600 X-21.484 Y70.129
G01 F600 X-21.466 Y69.953
G01 F600 X-21.411 Y69.784
G01 F600 X-21.322 Y69.630
G01 F600 X-21.203 Y69.499
G01 F600 X-21.060 Y69.394
G01 F600 X-20.898 Y69.322
G01 F600 X-20.724 Y69.285
G01 F600 X-20.547 Y69.285
G01 F600 X-20.373 Y69.322
G01 F600 X-20.211 Y69.394
G01 F600 X-20.067 Y69.499
G01 F600 X-19.949 Y69.630
G01 F600 X-19.860 Y69.784
G01 F600 X-19.805 Y69.953
G01 F600 X-19.787 Y70.129
G01 F600 X-19.805 Y70.306
G01 F600 X-19.860 Y70.475
G01 F600 X-19.949 Y70.628
G01 F600 X-20.067 Y70.760
G01 F600 X-20.211 Y70.865
G01 F600 X-20.373 Y70.937
G01 F600 X-20.547 Y70.974
G01 F600 X-20.724 Y70.974
G00 F3000 Z3.000
G00 F3000 X-27.074 Y70.974
G00 F1500 Z0
G01 F600 Z-0.100
G01 F600 X-27.248 Y70.937
G01 F600 X-27.410 Y70.865
G01 F600 X-27.553 Y70.760
G01 F600 X-27.672 Y70.628
G01 F600 X-27.761 Y70.475
G01 F600 X-27.816 Y70.306
G01 F600 X-27.834 Y70.129
G01 F600 X-27.816 Y69.953
G01 F600 X-27.761 Y69.784
G01 F600 X-27.672 Y69.630
G01 F600 X-27.553 Y69.499
G01 F600 X-27.410 Y69.394
G01 F600 X-27.248 Y69.322
G01 F600 X-27.074 Y69.285
G01 F600 X-26.897 Y69.285
G01 F600 X-26.723 Y69.322
G01 F600 X-26.561 Y69.394
G01 F600 X-26.417 Y69.499
G01 F600 X-26.299 Y69.630
G01 F600 X-26.212 Y69.780
G01 F600 X-22.255 Y69.780
G01 F600 X-22.255 Y57.419
G01 F600 X-22.249 Y57.356
G01 F600 X-22.226 Y57.287
G01 F600 X-22.189 Y57.223
G01 F600 X-22.140 Y57.169
G01 F600 X-22.081 Y57.125
G01 F600 X-22.014 Y57.096
G01 F600 X-21.942 Y57.080
G01 F600 X-21.463 Y57.080
G01 F600 X-21.457 Y57.064
G01 F600 X-21.363 Y56.901
G01 F600 X-21.237 Y56.761
G01 F600 X-21.085 Y56.650
G01 F600 X-20.913 Y56.574
G01 F600 X-20.729 Y56.535
G01 F600 X-20.541 Y56.535
G01 F600 X-20.357 Y56.574
G01 F600 X-20.186 Y56.650
G01 F600 X-20.033 Y56.761
G01 F600 X-19.908 Y56.901
G01 F600 X-19.814 Y57.064
G01 F600 X-19.755 Y57.242
G01 F600 X-19.736 Y57.429
G01 F600 X-19.755 Y57.616
G01 F600 X-19.814 Y57.795
G01 F600 X-19.908 Y57.958
G01 F600 X-20.033 Y58.098
G01 F600 X-20.186 Y58.209
G01 F600 X-20.285 Y58.253
G01 F600 X-20.285 Y59.132
G01 F600 X-20.179 Y59.179
G01 F600 X-20.025 Y59.291
G01 F600 X-19.897 Y59.433
G01 F600 X-19.802 Y59.598
G01 F600 X-19.743 Y59.780
G01 F600 X-19.723 Y59.969
G01 F600 X-19.743 Y60.159
G01 F600 X-19.802 Y60.341
G01 F600 X-19.897 Y60.506
G01 F600 X-20.025 Y60.647
G01 F600 X-20.179 Y60.760
G01 F600 X-20.353 Y60.837
G01 F600 X-20.540 Y60.877
G01 F600 X-20.731 Y60.877
G01 F600 X-20.917 Y60.837
G01 F600 X-21.091 Y60.760
G01 F600 X-21.246 Y60.647
G01 F600 X-21.373 Y60.506
G01 F600 X-21.469 Y60.341
G01 F600 X-21.528 Y60.159
G01 F600 X-21.548 Y59.969
G01 F600 X-21.528 Y59.780
G01 F600 X-21.469 Y59.598
G01 F600 X-21.373 Y59.433
G01 F600 X-21.246 Y59.291
G01 F600 X-21.091 Y59.179
G01 F600 X-20.985 Y59.132
G01 F600 X-20.985 Y58.253
G01 F600 X-21.085 Y58.209
G01 F600 X-21.237 Y58.098
G01 F600 X-21.363 Y57.958
G01 F600 X-21.457 Y57.795
G01 F600 X-21.463 Y57.779
G01 F600 X-21.555 Y57.779
G01 F600 X-21.555 Y70.140
G01 F600 X-21.562 Y70.202
G01 F600 X-21.585 Y70.272
G01 F600 X-21.621 Y70.336
G01 F600 X-21.670 Y70.390
G01 F600 X-21.730 Y70.434
G01 F600 X-21.797 Y70.463
G01 F600 X-21.869 Y70.479
G01 F600 X-26.212 Y70.479
G01 F600 X-26.299 Y70.628
G01 F600 X-26.417 Y70.760
G01 F600 X-26.561 Y70.865
G01 F600 X-26.723 Y70.937
G01 F600 X-26.897 Y70.974
G01 F600 X-27.074 Y70.974
G00 F3000 Z3.000
G00 F3000 X-8.024 Y70.974
G00 F1500 Z0
G01 F600 Z-0.100
G01 F600 X-8.198 Y70.937
G01 F600 X-8.360 Y70.865
G01 F600 X-8.503 Y70.760
G01 F600 X-8.622 Y70.628
G01 F600 X-8.711 Y70.475
G01 F600 X-8.766 Y70.306
G01 F600 X-8.784 Y70.129
G01 F600 X-8.766 Y69.953
G01 F600 X-8.711 Y69.784
G01 F600 X-8.622 Y69.630
G01 F600 X-8.503 Y69.499
G01 F600 X-8.360 Y69.394
G01 F600 X-8.198 Y69.322
G01 F600 X-8.024 Y69.285
G01 F600 X-7.847 Y69.285
G01 F600 X-7.673 Y69.322
G01 F600 X-7.511 Y69.394
G01 F600 X-7.367 Y69.499
G01 F600 X-7.249 Y69.630
G01 F600 X-7.162 Y69.780
G01 F600 X-7.015 Y69.780
G01 F600 X-7.015 Y55.239
G01 F600 X-7.108 Y55.239
G01 F600 X-7.113 Y55.255
G01 F600 X-7.208 Y55.418
G01 F600 X-7.333 Y55.558
G01 F600 X-7.486 Y55.669
G01 F600 X-7.657 Y55.745
G01 F600 X-7.841 Y55.784
G01 F600 X-8.029 Y55.784
G01 F600 X-8.213 Y55.745
G01 F600 X-8.385 Y55.669
G01 F600 X-8.537 Y55.558
G01 F600 X-8.663 Y55.418
G01 F600 X-8.757 Y55.255
G01 F600 X-8.815 Y55.076
G01 F600 X-8.835 Y54.889
G01 F600 X-8.815 Y54.702
G01 F600 X-8.757 Y54.524
G01 F600 X-8.663 Y54.361
G01 F600 X-8.537 Y54.221
G01 F600 X-8.385 Y54.110
G01 F600 X-8.285 Y54.066
G01 F600 X-8.285 Y52.080
G01 F600 X-8.834 Y52.080
G01 F600 X-8.834 Y50.282
G01 F600 X-7.037 Y50.282
G01 F600 X-7.037 Y52.080
G01 F600 X-7.585 Y52.080
G01 F600 X-7.585 Y54.066
G01 F600 X-7.486 Y54.110
G01 F600 X-7.333 Y54.221
G01 F600 X-7.208 Y54.361
G01 F600 X-7.114 Y54.524
G01 F600 X-7.108 Y54.540
G01 F600 X-6.629 Y54.540
G01 F600 X-6.557 Y54.556
G01 F600 X-6.490 Y54.585
G01 F600 X-6.430 Y54.629
G01 F600 X-6.381 Y54.683
G01 F600 X-6.345 Y54.747
G01 F600 X-6.322 Y54.816
G01 F600 X-6.315 Y54.879
G01 F600 X-6.315 Y70.140
G01 F600 X-6.322 Y70.202
G01 F600 X-6.345 Y70.272
G01 F600 X-6.381 Y70.336
G01 F600 X-6.430 Y70.390
G01 F600 X-6.490 Y70.434
G01 F600 X-6.557 Y70.463
G01 F600 X-6.629 Y70.479
G01 F600 X-7.162 Y70.479
G01 F600 X-7.249 Y70.628
G01 F600 X-7.367 Y70.760
G01 F600 X-7.511 Y70.865
G01 F600 X-7.673 Y70.937
G01 F600 X-7.847 Y70.974
G01 F600 X-8.024 Y70.974
G00 F3000 Z3.000
G00 F3000 X-5.484 Y70.974
G00 F1500 Z0
G01 F600 Z-0.100
G01 F600 X-5.658 Y70.937
G01 F600 X-5.820 Y70.865
G01 F600 X-5.963 Y70.760
G01 F600 X-6.082 Y70.628
G01 F600 X-6.171 Y70.475
G01 F600 X-6.226 Y70.306
G01 F600 X-6.244 Y70.129
G01 F600 X-6.226 Y69.953
G01 F600 X-6.171 Y69.784
G01 F600 X-6.082 Y69.630
G01 F600 X-5.963 Y69.499
G01 F600 X-5.820 Y69.394
G01 F600 X-5.658 Y69.322
G01 F600 X-5.484 Y69.285
G01 F600 X-5.307 Y69.285
G01 F600 X-5.133 Y69.322
G01 F600 X-4.971 Y69.394
G01 F600 X-4.827 Y69.499
G01 F600 X-4.709 Y69.630
G01 F600 X-4.622 Y69.780
G01 F600 X-4.475 Y69.780
G01 F600 X-4.475 Y55.239
G01 F600 X-4.568 Y55.239
G01 F600 X-4.573 Y55.255
G01 F600 X-4.668 Y55.418
G01 F600 X-4.793 Y55.558
G01 F600 X-4.946 Y55.669
G01 F600 X-5.117 Y55.745
G01 F600 X-5.301 Y55.784
G01 F600 X-5.489 Y55.784
G01 F600 X-5.673 Y55.745
G01 F600 X-5.845 Y55.669
G01 F600 X-5.997 Y55.558
G01 F600 X-6.123 Y55.418
G01 F600 X-6.217 Y55.255
G01 F600 X-6.275 Y55.076
G01 F600 X-6.295 Y54.889
G01 F600 X-6.275 Y54.702
G01 F600 X-6.217 Y54.524
G01 F600 X-6.123 Y54.361
G01 F600 X-5.997 Y54.221
G01 F600 X-5.845 Y54.110
G01 F600 X-5.745 Y54.066
G01 F600 X-5.745 Y52.080
G01 F600 X-6.294 Y52.080
G01 F600 X-6.294 Y50.282
G01 F600 X-4.497 Y50.282
G01 F600 X-4.497 Y52.080
G01 F600 X-5.045 Y52.080
G01 F600 X-5.045 Y54.066
G01 F600 X-4.946 Y54.110
G01 F600 X-4.793 Y54.221
G01 F600 X-4.668 Y54.361
G01 F600 X-4.574 Y54.524
G01 F600 X-4.568 Y54.540
G01 F600 X-4.089 Y54.540
G01 F600 X-4.017 Y54.556
G01 F600 X-3.950 Y54.585
G01 F600 X-3.890 Y54.629
G01 F600 X-3.841 Y54.683
G01 F600 X-3.805 Y54.747
G01 F600 X-3.782 Y54.816
G01 F600 X-3.775 Y54.879
G01 F600 X-3.775 Y70.140
G01 F600 X-3.782 Y70.202
G01 F600 X-3.805 Y70.272
G01 F600 X-3.841 Y70.336
G01 F600 X-3.890 Y70.390
G01 F600 X-3.950 Y70.434
G01 F600 X-4.017 Y70.463
G01 F600 X-4.089 Y70.479
G01 F600 X-4.622 Y70.479
G01 F600 X-4.709 Y70.628
G01 F600 X-4.827 Y70.760
G01 F600 X-4.971 Y70.865
G01 F600 X-5.133 Y70.937
G01 F600 X-5.307 Y70.974
G01 F600 X-5.484 Y70.974
G00 F3000 Z3.000
G00 F3000 X-13.104 Y70.974
G00 F1500 Z0
G01 F600 Z-0.100
G01 F600 X-13.278 Y70.937
G01 F600 X-13.440 Y70.865
G01 F600 X-13.583 Y70.760
G01 F600 X-13.702 Y70.628
G01 F600 X-13.791 Y70.475
G01 F600 X-13.846 Y70.306
G01 F600 X-13.864 Y70.129
G01 F600 X-13.846 Y69.953
G01 F600 X-13.791 Y69.784
G01 F600 X-13.702 Y69.630
G01 F600 X-13.583 Y69.499
G01 F600 X-13.440 Y69.394
G01 F600 X-13.278 Y69.322
G01 F600 X-13.104 Y69.285
G01 F600 X-12.927 Y69.285
G01 F600 X-12.753 Y69.322
G01 F600 X-12.591 Y69.394
G01 F600 X-12.447 Y69.499
G01 F600 X-12.329 Y69.630
G01 F600 X-12.240 Y69.784
G01 F600 X-12.185 Y69.953
G01 F600 X-12.167 Y70.129
G01 F600 X-12.185 Y70.306
G01 F600 X-12.240 Y70.475
G01 F600 X-12.329 Y70.628
G01 F600 X-12.447 Y70.760
G01 F600 X-12.591 Y70.865
G01 F600 X-12.753 Y70.937
G01 F600 X-12.927 Y70.974
G01 F600 X-13.104 Y70.974
G00 F3000 Z3.000
G00 F3000 X-10.564 Y70.974
G00 F1500 Z0
G01 F600 Z-0.100
G01 F600 X-10.738 Y70.937
G01 F600 X-10.900 Y70.865
G01 F600 X-11.043 Y70.760
G01 F600 X-11.162 Y70.628
G01 F600 X-11.251 Y70.475
G01 F600 X-11.306 Y70.306
G01 F600 X-11.324 Y70.129
G01 F600 X-11.306 Y69.953
G01 F600 X-11.251 Y69.784
G01 F600 X-11.162 Y69.630
G01 F600 X-11.043 Y69.499
G01 F600 X-10.900 Y69.394
G01 F600 X-10.738 Y69.322
G01 F600 X-10.564 Y69.285
G01 F600 X-10.387 Y69.285
G01 F600 X-10.213 Y69.322
G01 F600 X-10.051 Y69.394
G01 F600 X-9.907 Y69.499
G01 F600 X-9.789 Y69.630
G01 F600 X-9.702 Y69.780
G01 F600 X-9.555 Y69.780
G01 F600 X-9.555 Y55.239
G01 F600 X-9.648 Y55.239
G01 F600 X-9.653 Y55.255
G01 F600 X-9.748 Y55.418
G01 F600 X-9.873 Y55.558
G01 F600 X-10.026 Y55.669
G01 F600 X-10.197 Y55.745
G01 F600 X-10.381 Y55.784
G01 F600 X-10.569 Y55.784
G01 F600 X-10.753 Y55.745
G01 F600 X-10.925 Y55.669
G01 F600 X-11.077 Y55.558
G01 F600 X-11.203 Y55.418
G01 F600 X-11.297 Y55.255
G01 F600 X-11.355 Y55.076
G01 F600 X-11.375 Y54.889
G01 F600 X-11.355 Y54.702
G01 F600 X-11.297 Y54.524
G01 F600 X-11.203 Y54.361
G01 F600 X-11.077 Y54.221
G01 F600 X-10.925 Y54.110
G01 F600 X-10.825 Y54.066
G01 F600 X-10.825 Y52.080
G01 F600 X-11.374 Y52.080
G01 F600 X-11.374 Y50.282
G01 F600 X-9.577 Y50.282
G01 F600 X-9.577 Y52.080
G01 F600 X-10.125 Y52.080
G01 F600 X-10.125 Y54.066
G01 F600 X-10.026 Y54.110
G01 F600 X-9.873 Y54.221
G01 F600 X-9.748 Y54.361
G01 F600 X-9.654 Y54.524
G01 F600 X-9.648 Y54.540
G01 F600 X-9.169 Y54.540
G01 F600 X-9.097 Y54.556
G01 F600 X-9.030 Y54.585
G01 F600 X-8.970 Y54.629
G01 F600 X-8.921 Y54.683
G01 F600 X-8.885 Y54.747
G01 F600 X-8.862 Y54.816
G01 F600 X-8.855 Y54.879
G01 F600 X-8.855 Y70.140
G01 F600 X-8.862 Y70.202
G01 F600 X-8.885 Y70.272
G01 F600 X-8.921 Y70.336
G01 F600 X-8.970 Y70.390
G01 F600 X-9.030 Y70.434
G01 F600 X-9.097 Y70.463
G01 F600 X-9.169 Y70.479
G01 F600 X-9.702 Y70.479
G01 F600 X-9.789 Y70.628
G01 F600 X-9.907 Y70.760
G01 F600 X-10.051 Y70.865
G01 F600 X-10.213 Y70.937
G01 F600 X-10.387 Y70.974
G01 F600 X-10.564 Y70.974
G00 F3000 Z3.000
G00 F3000 X-93.114 Y70.974
G00 F1500 Z0
G01 F600 Z-0.100
G01 F600 X-93.288 Y70.937
G01 F600 X-93.450 Y70.865
G01 F600 X-93.593 Y70.760
G01 F600 X-93.712 Y70.628
G01 F600 X-93.801 Y70.475
G01 F600 X-93.856 Y70.306
G01 F600 X-93.874 Y70.129
G01 F600 X-93.856 Y69.953
G01 F600 X-93.801 Y69.784
G01 F600 X-93.712 Y69.630
G01 F600 X-93.593 Y69.499
G01 F600 X-93.450 Y69.394
G01 F600 X-93.375 Y69.361
G01 F600 X-93.375 Y68.316
G01 F600 X-93.431 Y68.291
G01 F600 X-93.568 Y68.192
G01 F600 X-93.681 Y68.066
G01 F600 X-93.766 Y67.919
G01 F600 X-93.818 Y67.758
G01 F600 X-93.836 Y67.589
G01 F600 X-93.818 Y67.421
G01 F600 X-93.766 Y67.260
G01 F600 X-93.681 Y67.113
G01 F600 X-93.568 Y66.987
G01 F600 X-93.431 Y66.887
G01 F600 X-93.375 Y66.863
G01 F600 X-93.375 Y63.769
G01 F600 X-93.369 Y63.706
G01 F600 X-93.346 Y63.637
G01 F600 X-93.309 Y63.573
G01 F600 X-93.260 Y63.519
G01 F600 X-93.201 Y63.475
G01 F600 X-93.134 Y63.446
G01 F600 X-93.062 Y63.430
G01 F600 X-92.485 Y63.430
G01 F600 X-92.411 Y63.303
G01 F600 X-92.298 Y63.177
G01 F600 X-92.161 Y63.077
G01 F600 X-92.006 Y63.008
G01 F600 X-91.840 Y62.973
G01 F600 X-91.671 Y62.973
G01 F600 X-91.505 Y63.008
G01 F600 X-91.350 Y63.077
G01 F600 X-91.213 Y63.177
G01 F600 X-91.099 Y63.303
G01 F600 X-91.015 Y63.450
G01 F600 X-90.962 Y63.611
G01 F600 X-90.945 Y63.779
G01 F600 X-90.962 Y63.948
G01 F600 X-91.015 Y64.109
G01 F600 X-91.099 Y64.256
G01 F600 X-91.213 Y64.382
G01 F600 X-91.350 Y64.481
G01 F600 X-91.505 Y64.550
G01 F600 X-91.671 Y64.586
G01 F600 X-91.840 Y64.586
G01 F600 X-92.006 Y64.550
G01 F600 X-92.161 Y64.481
G01 F600 X-92.298 Y64.382
G01 F600 X-92.411 Y64.256
G01 F600 X-92.485 Y64.129
G01 F600 X-92.675 Y64.129
G01 F600 X-92.675 Y66.863
G01 F600 X-92.620 Y66.887
G01 F600 X-92.483 Y66.987
G01 F600 X-92.369 Y67.113
G01 F600 X-92.285 Y67.260
G01 F600 X-92.232 Y67.421
G01 F600 X-92.215 Y67.589
G01 F600 X-92.232 Y67.758
G01 F600 X-92.285 Y67.919
G01 F600 X-92.369 Y68.066
G01 F600 X-92.483 Y68.192
G01 F600 X-92.620 Y68.291
G01 F600 X-92.675 Y68.316
G01 F600 X-92.675 Y69.361
G01 F600 X-92.601 Y69.394
G01 F600 X-92.457 Y69.499
G01 F600 X-92.339 Y69.630
G01 F600 X-92.250 Y69.784
G01 F600 X-92.195 Y69.953
G01 F600 X-92.177 Y70.129
G01 F600 X-92.195 Y70.306
G01 F600 X-92.250 Y70.475
G01 F600 X-92.339 Y70.628
G01 F600 X-92.457 Y70.760
G01 F600 X-92.601 Y70.865
G01 F600 X-92.763 Y70.937
G01 F600 X-92.937 Y70.974
G01 F600 X-93.114 Y70.974
G00 F3000 Z3.000
G00 F3000 X-85.494 Y70.974
G00 F1500 Z0
G01 F600 Z-0.100
G01 F600 X-85.668 Y70.937
G01 F600 X-85.830 Y70.865
G01 F600 X-85.973 Y70.760
G01 F600 X-86.092 Y70.628
G01 F600 X-86.181 Y70.475
G01 F600 X-86.236 Y70.306
G01 F600 X-86.254 Y70.129
G01 F600 X-86.236 Y69.953
G01 F600 X-86.181 Y69.784
G01 F600 X-86.092 Y69.630
G01 F600 X-85.973 Y69.499
G01 F600 X-85.830 Y69.394
G01 F600 X-85.668 Y69.322
G01 F600 X-85.494 Y69.285
G01 F600 X-85.317 Y69.285
G01 F600 X-85.143 Y69.322
G01 F600 X-84.981 Y69.394
G01 F600 X-84.837 Y69.499
G01 F600 X-84.719 Y69.630
G01 F600 X-84.630 Y69.784
G01 F600 X-84.575 Y69.953
G01 F600 X-84.556 Y70.129
G01 F600 X-84.575 Y70.306
G01 F600 X-84.630 Y70.475
G01 F600 X-84.719 Y70.628
G01 F600 X-84.837 Y70.760
G01 F600 X-84.981 Y70.865
G01 F600 X-85.143 Y70.937
G01 F600 X-85.317 Y70.974
G01 F600 X-85.494 Y70.974
G00 F3000 Z3.000
G00 F3000 X-82.954 Y70.974
G00 F1500 Z0
G01 F600 Z-0.100
G01 F600 X-83.128 Y70.937
G01 F600 X-83.290 Y70.865
G01 F600 X-83.433 Y70.760
G01 F600 X-83.552 Y70.628
G01 F600 X-83.641 Y70.475
G01 F600 X-83.696 Y70.306
G01 F600 X-83.714 Y70.129
G01 F600 X-83.696 Y69.953
G01 F600 X-83.641 Y69.784
G01 F600 X-83.552 Y69.630
G01 F600 X-83.433 Y69.499
G01 F600 X-83.290 Y69.394
G01 F600 X-83.128 Y69.322
G01 F600 X-82.954 Y69.285
G01 F600 X-82.777 Y69.285
G01 F600 X-82.603 Y69.322
G01 F600 X-82.441 Y69.394
G01 F600 X-82.297 Y69.499
G01 F600 X-82.179 Y69.630
G01 F600 X-82.092 Y69.780
G01 F600 X-81.945 Y69.780
G01 F600 X-81.945 Y57.779
G01 F600 X-82.038 Y57.779
G01 F600 X-82.043 Y57.795
G01 F600 X-82.138 Y57.958
G01 F600 X-82.263 Y58.098
G01 F600 X-82.416 Y58.209
G01 F600 X-82.587 Y58.285
G01 F600 X-82.771 Y58.324
G01 F600 X-82.959 Y58.324
G01 F600 X-83.143 Y58.285
G01 F600 X-83.315 Y58.209
G01 F600 X-83.467 Y58.098
G01 F600 X-83.593 Y57.958
G01 F600 X-83.687 Y57.795
G01 F600 X-83.745 Y57.616
G01 F600 X-83.765 Y57.429
G01 F600 X-83.745 Y57.242
G01 F600 X-83.687 Y57.064
G01 F600 X-83.593 Y56.901
G01 F600 X-83.467 Y56.761
G01 F600 X-83.315 Y56.650
G01 F600 X-83.143 Y56.574
G01 F600 X-82.959 Y56.535
G01 F600 X-82.771 Y56.535
G01 F600 X-82.587 Y56.574
G01 F600 X-82.416 Y56.650
G01 F600 X-82.263 Y56.761
G01 F600 X-82.138 Y56.901
G01 F600 X-82.044 Y57.064
G01 F600 X-82.038 Y57.080
G01 F600 X-81.945 Y57.080
G01 F600 X-81.945 Y51.530
G01 F600 X-81.967 Y51.530
G01 F600 X-81.967 Y52.080
G01 F600 X-83.764 Y52.080
G01 F600 X-83.764 Y50.282
G01 F600 X-81.967 Y50.282
G01 F600 X-81.967 Y50.832
G01 F600 X-81.559 Y50.832
G01 F600 X-81.487 Y50.847
G01 F600 X-81.420 Y50.877
G01 F600 X-81.360 Y50.920
G01 F600 X-81.311 Y50.975
G01 F600 X-81.275 Y51.038
G01 F600 X-81.252 Y51.108
G01 F600 X-81.245 Y51.171
G01 F600 X-81.245 Y70.140
G01 F600 X-81.252 Y70.202
G01 F600 X-81.275 Y70.272
G01 F600 X-81.311 Y70.336
G01 F600 X-81.360 Y70.390
G01 F600 X-81.420 Y70.434
G01 F600 X-81.487 Y70.463
G01 F600 X-81.559 Y70.479
G01 F600 X-82.092 Y70.479
G01 F600 X-82.179 Y70.628
G01 F600 X-82.297 Y70.760
G01 F600 X-82.441 Y70.865
G01 F600 X-82.603 Y70.937
G01 F600 X-82.777 Y70.974
G01 F600 X-82.954 Y70.974
G00 F3000 Z3.000
G00 F3000 X-90.574 Y70.974
G00 F1500 Z0
G01 F600 Z-0.100
G01 F600 X-90.748 Y70.937
G01 F600 X-90.910 Y70.865
G01 F600 X-91.053 Y70.760
G01 F600 X-91.172 Y70.628
G01 F600 X-91.261 Y70.475
G01 F600 X-91.316 Y70.306
G01 F600 X-91.334 Y70.129
G01 F600 X-91.316 Y69.953
G01 F600 X-91.261 Y69.784
G01 F600 X-91.172 Y69.630
G01 F600 X-91.053 Y69.499
G01 F600 X-90.910 Y69.394
G01 F600 X-90.835 Y69.361
G01 F600 X-90.835 Y67.046
G01 F600 X-90.891 Y67.022
G01 F600 X-91.028 Y66.922
G01 F600 X-91.141 Y66.796
G01 F600 X-91.226 Y66.649
G01 F600 X-91.278 Y66.488
G01 F600 X-91.296 Y66.319
G01 F600 X-91.278 Y66.151
G01 F600 X-91.226 Y65.990
G01 F600 X-91.141 Y65.843
G01 F600 X-91.028 Y65.717
G01 F600 X-90.891 Y65.617
G01 F600 X-90.736 Y65.548
G01 F600 X-90.570 Y65.513
G01 F600 X-90.401 Y65.513
G01 F600 X-90.235 Y65.548
G01 F600 X-90.080 Y65.617
G01 F600 X-89.943 Y65.717
G01 F600 X-89.829 Y65.843
G01 F600 X-89.745 Y65.990
G01 F600 X-89.692 Y66.151
G01 F600 X-89.675 Y66.319
G01 F600 X-89.692 Y66.488
G01 F600 X-89.745 Y66.649
G01 F600 X-89.829 Y66.796
G01 F600 X-89.943 Y66.922
G01 F600 X-90.080 Y67.022
G01 F600 X-90.135 Y67.046
G01 F600 X-90.135 Y69.361
G01 F600 X-90.061 Y69.394
G01 F600 X-89.917 Y69.499
G01 F600 X-89.799 Y69.630
G01 F600 X-89.710 Y69.784
G01 F600 X-89.655 Y69.953
G01 F600 X-89.636 Y70.129
G01 F600 X-89.655 Y70.306
G01 F600 X-89.710 Y70.475
G01 F600 X-89.799 Y70.628
G01 F600 X-89.917 Y70.760
G01 F600 X-90.061 Y70.865
G01 F600 X-90.223 Y70.937
G01 F600 X-90.397 Y70.974
G01 F600 X-90.574 Y70.974
G00 F3000 Z3.000
G00 F3000 X-88.034 Y70.974
G00 F1500 Z0
G01 F600 Z-0.100
G01 F600 X-88.208 Y70.937
G01 F600 X-88.370 Y70.865
G01 F600 X-88.513 Y70.760
G01 F600 X-88.632 Y70.628
G01 F600 X-88.721 Y70.475
G01 F600 X-88.776 Y70.306
G01 F600 X-88.794 Y70.129
G01 F600 X-88.776 Y69.953
G01 F600 X-88.721 Y69.784
G01 F600 X-88.632 Y69.630
G01 F600 X-88.513 Y69.499
G01 F600 X-88.370 Y69.394
G01 F600 X-88.295 Y69.361
G01 F600 X-88.295 Y64.129
G01 F600 X-88.486 Y64.129
G01 F600 X-88.559 Y64.256
G01 F600 X-88.673 Y64.382
G01 F600 X-88.810 Y64.481
G01 F600 X-88.965 Y64.550
G01 F600 X-89.130 Y64.586
G01 F600 X-89.300 Y64.586
G01 F600 X-89.466 Y64.550
G01 F600 X-89.621 Y64.481
G01 F600 X-89.758 Y64.382
G01 F600 X-89.871 Y64.256
G01 F600 X-89.956 Y64.109
G01 F600 X-90.008 Y63.948
G01 F600 X-90.026 Y63.779
G01 F600 X-90.008 Y63.611
G01 F600 X-89.956 Y63.450
G01 F600 X-89.871 Y63.303
G01 F600 X-89.758 Y63.177
G01 F600 X-89.621 Y63.077
G01 F600 X-89.466 Y63.008
G01 F600 X-89.300 Y62.973
G01 F600 X-89.130 Y62.973
G01 F600 X-88.965 Y63.008
G01 F600 X-88.810 Y63.077
G01 F600 X-88.673 Y63.177
G01 F600 X-88.559 Y63.303
G01 F600 X-88.486 Y63.430
G01 F600 X-87.909 Y63.430
G01 F600 X-87.837 Y63.446
G01 F600 X-87.770 Y63.475
G01 F600 X-87.710 Y63.519
G01 F600 X-87.661 Y63.573
G01 F600 X-87.625 Y63.637
G01 F600 X-87.602 Y63.706
G01 F600 X-87.595 Y63.769
G01 F600 X-87.595 Y69.361
G01 F600 X-87.521 Y69.394
G01 F600 X-87.377 Y69.499
G01 F600 X-87.259 Y69.630
G01 F600 X-87.170 Y69.784
G01 F600 X-87.115 Y69.953
G01 F600 X-87.097 Y70.129
G01 F600 X-87.115 Y70.306
G01 F600 X-87.170 Y70.475
G01 F600 X-87.259 Y70.628
G01 F600 X-87.377 Y70.760
G01 F600 X-87.521 Y70.865
G01 F600 X-87.683 Y70.937
G01 F600 X-87.857 Y70.974
G01 F600 X-88.034 Y70.974
G00 F3000 Z3.000
G00 F3000 X-23.271 Y63.417
G00 F1500 Z0
G01 F600 Z-0.100
G01 F600 X-23.457 Y63.377
G01 F600 X-23.631 Y63.300
G01 F600 X-23.786 Y63.187
G01 F600 X-23.913 Y63.046
G01 F600 X-24.009 Y62.881
G01 F600 X-24.068 Y62.699
G01 F600 X-24.088 Y62.509
G01 F600 X-24.068 Y62.320
G01 F600 X-24.009 Y62.138
G01 F600 X-23.913 Y61.973
G01 F600 X-23.786 Y61.831
G01 F600 X-23.631 Y61.719
G01 F600 X-23.525 Y61.672
G01 F600 X-23.525 Y39.639
G01 F600 X-23.519 Y39.576
G01 F600 X-23.496 Y39.507
G01 F600 X-23.459 Y39.443
G01 F600 X-23.410 Y39.389
G01 F600 X-23.351 Y39.345
G01 F600 X-23.284 Y39.316
G01 F600 X-23.212 Y39.300
G01 F600 X-21.463 Y39.300
G01 F600 X-21.457 Y39.284
G01 F600 X-21.363 Y39.121
G01 F600 X-21.267 Y39.014
G01 F600 X-21.363 Y38.908
G01 F600 X-21.457 Y38.745
G01 F600 X-21.463 Y38.729
G01 F600 X-21.942 Y38.729
G01 F600 X-22.014 Y38.713
G01 F600 X-22.081 Y38.684
G01 F600 X-22.140 Y38.640
G01 F600 X-22.189 Y38.586
G01 F600 X-22.226 Y38.522
G01 F600 X-22.249 Y38.452
G01 F600 X-22.255 Y38.390
G01 F600 X-22.255 Y4.079
G01 F600 X-22.249 Y4.016
G01 F600 X-22.226 Y3.947
G01 F600 X-22.189 Y3.883
G01 F600 X-22.140 Y3.829
G01 F600 X-22.081 Y3.785
G01 F600 X-22.014 Y3.756
G01 F600 X-21.942 Y3.740
G01 F600 X-21.408 Y3.740
G01 F600 X-21.322 Y3.591
G01 F600 X-21.203 Y3.459
G01 F600 X-21.060 Y3.354
G01 F600 X-20.898 Y3.282
G01 F600 X-20.724 Y3.245
G01 F600 X-20.547 Y3.245
G01 F600 X-20.373 Y3.282
G01 F600 X-20.211 Y3.354
G01 F600 X-20.067 Y3.459
G01 F600 X-19.949 Y3.591
G01 F600 X-19.860 Y3.744
G01 F600 X-19.805 Y3.913
G01 F600 X-19.787 Y4.089
G01 F600 X-19.805 Y4.266
G01 F600 X-19.860 Y4.435
G01 F600 X-19.949 Y4.588
G01 F600 X-20.067 Y4.720
G01 F600 X-20.211 Y4.825
G01 F600 X-20.285 Y4.858
G01 F600 X-20.285 Y5.792
G01 F600 X-20.179 Y5.839
G01 F600 X-20.025 Y5.951
G01 F600 X-19.897 Y6.093
G01 F600 X-19.802 Y6.258
G01 F600 X-19.743 Y6.440
G01 F600 X-19.723 Y6.629
G01 F600 X-19.743 Y6.819
G01 F600 X-19.802 Y7.001
G01 F600 X-19.897 Y7.166
G01 F600 X-20.025 Y7.307
G01 F600 X-20.179 Y7.420
G01 F600 X-20.353 Y7.497
G01 F600 X-20.540 Y7.537
G01 F600 X-20.731 Y7.537
G01 F600 X-20.917 Y7.497
G01 F600 X-21.091 Y7.420
G01 F600 X-21.246 Y7.307
G01 F600 X-21.373 Y7.166
G01 F600 X-21.469 Y7.001
G01 F600 X-21.528 Y6.819
G01 F600 X-21.548 Y6.629
G01 F600 X-21.528 Y6.440
G01 F600 X-21.469 Y6.258
G01 F600 X-21.373 Y6.093
G01 F600 X-21.246 Y5.951
G01 F600 X-21.091 Y5.839
G01 F600 X-20.985 Y5.792
G01 F600 X-20.985 Y4.858
G01 F600 X-21.060 Y4.825
G01 F600 X-21.203 Y4.720
G01 F600 X-21.322 Y4.588
G01 F600 X-21.408 Y4.439
G01 F600 X-21.555 Y4.439
G01 F600 X-21.555 Y38.030
G01 F600 X-21.463 Y38.030
G01 F600 X-21.457 Y38.014
G01 F600 X-21.363 Y37.851
G01 F600 X-21.237 Y37.711
G01 F600 X-21.085 Y37.600
G01 F600 X-20.913 Y37.524
G01 F600 X-20.729 Y37.485
G01 F600 X-20.541 Y37.485
G01 F600 X-20.357 Y37.524
G01 F600 X-20.186 Y37.600
G01 F600 X-20.033 Y37.711
G01 F600 X-19.908 Y37.851
G01 F600 X-19.814 Y38.014
G01 F600 X-19.755 Y38.192
G01 F600 X-19.736 Y38.379
G01 F600 X-19.755 Y38.566
G01 F600 X-19.814 Y38.745
G01 F600 X-19.908 Y38.908
G01 F600 X-20.003 Y39.014
G01 F600 X-19.908 Y39.121
G01 F600 X-19.814 Y39.284
G01 F600 X-19.755 Y39.462
G01 F600 X-19.736 Y39.649
G01 F600 X-19.755 Y39.836
G01 F600 X-19.814 Y40.015
G01 F600 X-19.908 Y40.178
G01 F600 X-20.033 Y40.318
G01 F600 X-20.186 Y40.428
G01 F600 X-20.357 Y40.505
G01 F600 X-20.541 Y40.544
G01 F600 X-20.729 Y40.544
G01 F600 X-20.913 Y40.505
G01 F600 X-21.085 Y40.428
G01 F600 X-21.237 Y40.318
G01 F600 X-21.363 Y40.178
G01 F600 X-21.457 Y40.015
G01 F600 X-21.463 Y39.999
G01 F600 X-22.825 Y39.999
G01 F600 X-22.825 Y61.672
G01 F600 X-22.719 Y61.719
G01 F600 X-22.565 Y61.831
G01 F600 X-22.437 Y61.973
G01 F600 X-22.342 Y62.138
G01 F600 X-22.283 Y62.320
G01 F600 X-22.263 Y62.509
G01 F600 X-22.283 Y62.699
G01 F600 X-22.342 Y62.881
G01 F600 X-22.437 Y63.046
G01 F600 X-22.565 Y63.187
G01 F600 X-22.719 Y63.300
G01 F600 X-22.893 Y63.377
G01 F600 X-23.080 Y63.417
G01 F600 X-23.271 Y63.417
G00 F3000 Z3.000
G00 F3000 X-3.703 Y63.357
G00 F1500 Z0
G01 F600 Z-0.100
G01 F600 X-3.703 Y61.662
G01 F600 X-2.008 Y61.662
G01 F600 X-2.008 Y62.160
G01 F600 X-1.935 Y62.160
G01 F600 X-1.935 Y55.239
G01 F600 X-2.028 Y55.239
G01 F600 X-2.033 Y55.255
G01 F600 X-2.127 Y55.418
G01 F600 X-2.253 Y55.558
G01 F600 X-2.405 Y55.669
G01 F600 X-2.577 Y55.745
G01 F600 X-2.761 Y55.784
G01 F600 X-2.949 Y55.784
G01 F600 X-3.133 Y55.745
G01 F600 X-3.305 Y55.669
G01 F600 X-3.457 Y55.558
G01 F600 X-3.583 Y55.418
G01 F600 X-3.677 Y55.255
G01 F600 X-3.735 Y55.076
G01 F600 X-3.755 Y54.889
G01 F600 X-3.735 Y54.702
G01 F600 X-3.677 Y54.524
G01 F600 X-3.583 Y54.361
G01 F600 X-3.457 Y54.221
G01 F600 X-3.305 Y54.110
G01 F600 X-3.205 Y54.066
G01 F600 X-3.205 Y52.080
G01 F600 X-3.754 Y52.080
G01 F600 X-3.754 Y50.282
G01 F600 X-1.957 Y50.282
G01 F600 X-1.957 Y52.080
G01 F600 X-2.505 Y52.080
G01 F600 X-2.505 Y54.066
G01 F600 X-2.405 Y54.110
G01 F600 X-2.253 Y54.221
G01 F600 X-2.127 Y54.361
G01 F600 X-2.034 Y54.524
G01 F600 X-2.028 Y54.540
G01 F600 X-1.549 Y54.540
G01 F600 X-1.477 Y54.556
G01 F600 X-1.410 Y54.585
G01 F600 X-1.350 Y54.629
G01 F600 X-1.301 Y54.683
G01 F600 X-1.265 Y54.747
G01 F600 X-1.242 Y54.816
G01 F600 X-1.235 Y54.879
G01 F600 X-1.235 Y62.520
G01 F600 X-1.242 Y62.582
G01 F600 X-1.265 Y62.652
G01 F600 X-1.301 Y62.716
G01 F600 X-1.350 Y62.770
G01 F600 X-1.410 Y62.814
G01 F600 X-1.477 Y62.843
G01 F600 X-1.549 Y62.859
G01 F600 X-2.008 Y62.859
G01 F600 X-2.008 Y63.357
G01 F600 X-3.703 Y63.357
G00 F3000 Z3.000
G00 F3000 X-27.833 Y63.357
G00 F1500 Z0
G01 F600 Z-0.100
G01 F600 X-27.833 Y61.662
G01 F600 X-27.335 Y61.662
G01 F600 X-27.335 Y58.253
G01 F600 X-27.435 Y58.209
G01 F600 X-27.587 Y58.098
G01 F600 X-27.713 Y57.958
G01 F600 X-27.807 Y57.795
G01 F600 X-27.865 Y57.616
G01 F600 X-27.885 Y57.429
G01 F600 X-27.865 Y57.242
G01 F600 X-27.807 Y57.064
G01 F600 X-27.713 Y56.901
G01 F600 X-27.587 Y56.761
G01 F600 X-27.435 Y56.650
G01 F600 X-27.263 Y56.574
G01 F600 X-27.079 Y56.535
G01 F600 X-26.891 Y56.535
G01 F600 X-26.707 Y56.574
G01 F600 X-26.536 Y56.650
G01 F600 X-26.383 Y56.761
G01 F600 X-26.258 Y56.901
G01 F600 X-26.164 Y57.064
G01 F600 X-26.105 Y57.242
G01 F600 X-26.086 Y57.429
G01 F600 X-26.105 Y57.616
G01 F600 X-26.164 Y57.795
G01 F600 X-26.258 Y57.958
G01 F600 X-26.383 Y58.098
G01 F600 X-26.536 Y58.209
G01 F600 X-26.635 Y58.253
G01 F600 X-26.635 Y61.662
G01 F600 X-26.138 Y61.662
G01 F600 X-26.138 Y63.357
G01 F600 X-27.833 Y63.357
G00 F3000 Z3.000
G00 F3000 X-51.963 Y63.357
G00 F1500 Z0
G01 F600 Z-0.100
G01 F600 X-51.963 Y61.662
G01 F600 X-51.465 Y61.662
G01 F600 X-51.465 Y58.253
G01 F600 X-51.565 Y58.209
G01 F600 X-51.717 Y58.098
G01 F600 X-51.843 Y57.958
G01 F600 X-51.937 Y57.795
G01 F600 X-51.995 Y57.616
G01 F600 X-52.015 Y57.429
G01 F600 X-51.995 Y57.242
G01 F600 X-51.937 Y57.064
G01 F600 X-51.843 Y56.901
G01 F600 X-51.717 Y56.761
G01 F600 X-51.565 Y56.650
G01 F600 X-51.393 Y56.574
G01 F600 X-51.209 Y56.535
G01 F600 X-51.021 Y56.535
G01 F600 X-50.837 Y56.574
G01 F600 X-50.666 Y56.650
G01 F600 X-50.513 Y56.761
G01 F600 X-50.388 Y56.901
G01 F600 X-50.294 Y57.064
G01 F600 X-50.288 Y57.080
G01 F600 X-50.195 Y57.080
G01 F600 X-50.195 Y51.530
G01 F600 X-50.217 Y51.530
G01 F600 X-50.217 Y52.080
G01 F600 X-52.014 Y52.080
G01 F600 X-52.014 Y50.282
G01 F600 X-50.217 Y50.282
G01 F600 X-50.217 Y50.832
G01 F600 X-49.809 Y50.832
G01 F600 X-49.737 Y50.847
G01 F600 X-49.670 Y50.877
G01 F600 X-49.610 Y50.920
G01 F600 X-49.561 Y50.975
G01 F600 X-49.525 Y51.038
G01 F600 X-49.502 Y51.108
G01 F600 X-49.495 Y51.171
G01 F600 X-49.495 Y57.440
G01 F600 X-49.502 Y57.502
G01 F600 X-49.525 Y57.572
G01 F600 X-49.561 Y57.636
G01 F600 X-49.610 Y57.690
G01 F600 X-49.670 Y57.733
G01 F600 X-49.737 Y57.763
G01 F600 X-49.809 Y57.779
G01 F600 X-50.288 Y57.779
G01 F600 X-50.293 Y57.795
G01 F600 X-50.388 Y57.958
G01 F600 X-50.513 Y58.098
G01 F600 X-50.666 Y58.209
G01 F600 X-50.765 Y58.253
G01 F600 X-50.765 Y61.662
G01 F600 X-50.268 Y61.662
G01 F600 X-50.268 Y63.357
G01 F600 X-51.963 Y63.357
G00 F3000 Z3.000
G00 F3000 X-76.093 Y63.357
G00 F1500 Z0
G01 F600 Z-0.100
G01 F600 X-76.093 Y61.662
G01 F600 X-75.595 Y61.662
G01 F600 X-75.595 Y58.253
G01 F600 X-75.695 Y58.209
G01 F600 X-75.847 Y58.098
G01 F600 X-75.973 Y57.958
G01 F600 X-76.067 Y57.795
G01 F600 X-76.125 Y57.616
G01 F600 X-76.145 Y57.429
G01 F600 X-76.125 Y57.242
G01 F600 X-76.067 Y57.064
G01 F600 X-75.973 Y56.901
G01 F600 X-75.847 Y56.761
G01 F600 X-75.695 Y56.650
G01 F600 X-75.523 Y56.574
G01 F600 X-75.339 Y56.535
G01 F600 X-75.151 Y56.535
G01 F600 X-74.967 Y56.574
G01 F600 X-74.796 Y56.650
G01 F600 X-74.643 Y56.761
G01 F600 X-74.517 Y56.901
G01 F600 X-74.424 Y57.064
G01 F600 X-74.418 Y57.080
G01 F600 X-74.325 Y57.080
G01 F600 X-74.325 Y51.530
G01 F600 X-74.347 Y51.530
G01 F600 X-74.347 Y52.080
G01 F600 X-76.144 Y52.080
G01 F600 X-76.144 Y50.282
G01 F600 X-74.347 Y50.282
G01 F600 X-74.347 Y50.832
G01 F600 X-73.939 Y50.832
G01 F600 X-73.867 Y50.847
G01 F600 X-73.800 Y50.877
G01 F600 X-73.740 Y50.920
G01 F600 X-73.691 Y50.975
G01 F600 X-73.655 Y51.038
G01 F600 X-73.632 Y51.108
G01 F600 X-73.625 Y51.171
G01 F600 X-73.625 Y57.440
G01 F600 X-73.632 Y57.502
G01 F600 X-73.655 Y57.572
G01 F600 X-73.691 Y57.636
G01 F600 X-73.740 Y57.690
G01 F600 X-73.800 Y57.733
G01 F600 X-73.867 Y57.763
G01 F600 X-73.939 Y57.779
G01 F600 X-74.418 Y57.779
G01 F600 X-74.423 Y57.795
G01 F600 X-74.517 Y57.958
G01 F600 X-74.643 Y58.098
G01 F600 X-74.796 Y58.209
G01 F600 X-74.895 Y58.253
G01 F600 X-74.895 Y61.662
G01 F600 X-74.398 Y61.662
G01 F600 X-74.398 Y63.357
G01 F600 X-76.093 Y63.357
G00 F3000 Z3.000
G00 F3000 X-44.854 Y63.354
G00 F1500 Z0
G01 F600 Z-0.100
G01 F600 X-45.028 Y63.317
G01 F600 X-45.190 Y63.245
G01 F600 X-45.333 Y63.140
G01 F600 X-45.452 Y63.008
G01 F600 X-45.538 Y62.859
G01 F600 X-46.072 Y62.859
G01 F600 X-46.144 Y62.843
G01 F600 X-46.211 Y62.814
G01 F600 X-46.270 Y62.770
G01 F600 X-46.319 Y62.716
G01 F600 X-46.356 Y62.652
G01 F600 X-46.379 Y62.582
G01 F600 X-46.385 Y62.520
G01 F600 X-46.385 Y39.639
G01 F600 X-46.379 Y39.576
G01 F600 X-46.356 Y39.507
G01 F600 X-46.319 Y39.443
G01 F600 X-46.270 Y39.389
G01 F600 X-46.211 Y39.345
G01 F600 X-46.144 Y39.316
G01 F600 X-46.072 Y39.300
G01 F600 X-45.593 Y39.300
G01 F600 X-45.587 Y39.284
G01 F600 X-45.493 Y39.121
G01 F600 X-45.397 Y39.014
G01 F600 X-45.493 Y38.908
G01 F600 X-45.587 Y38.745
G01 F600 X-45.645 Y38.566
G01 F600 X-45.665 Y38.379
G01 F600 X-45.645 Y38.192
G01 F600 X-45.587 Y38.014
G01 F600 X-45.493 Y37.851
G01 F600 X-45.367 Y37.711
G01 F600 X-45.215 Y37.600
G01 F600 X-45.043 Y37.524
G01 F600 X-44.859 Y37.485
G01 F600 X-44.671 Y37.485
G01 F600 X-44.487 Y37.524
G01 F600 X-44.316 Y37.600
G01 F600 X-44.163 Y37.711
G01 F600 X-44.038 Y37.851
G01 F600 X-43.944 Y38.014
G01 F600 X-43.885 Y38.192
G01 F600 X-43.866 Y38.379
G01 F600 X-43.885 Y38.566
G01 F600 X-43.944 Y38.745
G01 F600 X-44.038 Y38.908
G01 F600 X-44.133 Y39.014
G01 F600 X-44.038 Y39.121
G01 F600 X-43.944 Y39.284
G01 F600 X-43.885 Y39.462
G01 F600 X-43.866 Y39.649
G01 F600 X-43.885 Y39.836
G01 F600 X-43.944 Y40.015
G01 F600 X-44.038 Y40.178
G01 F600 X-44.163 Y40.318
G01 F600 X-44.316 Y40.428
G01 F600 X-44.487 Y40.505
G01 F600 X-44.671 Y40.544
G01 F600 X-44.859 Y40.544
G01 F600 X-45.043 Y40.505
G01 F600 X-45.215 Y40.428
G01 F600 X-45.367 Y40.318
G01 F600 X-45.493 Y40.178
G01 F600 X-45.587 Y40.015
G01 F600 X-45.593 Y39.999
G01 F600 X-45.685 Y39.999
G01 F600 X-45.685 Y62.160
G01 F600 X-45.538 Y62.160
G01 F600 X-45.452 Y62.011
G01 F600 X-45.333 Y61.879
G01 F600 X-45.190 Y61.774
G01 F600 X-45.028 Y61.702
G01 F600 X-44.854 Y61.665
G01 F600 X-44.677 Y61.665
G01 F600 X-44.503 Y61.702
G01 F600 X-44.341 Y61.774
G01 F600 X-44.197 Y61.879
G01 F600 X-44.079 Y62.011
G01 F600 X-43.990 Y62.164
G01 F600 X-43.935 Y62.333
G01 F600 X-43.916 Y62.509
G01 F600 X-43.935 Y62.686
G01 F600 X-43.990 Y62.855
G01 F600 X-44.079 Y63.008
G01 F600 X-44.197 Y63.140
G01 F600 X-44.341 Y63.245
G01 F600 X-44.503 Y63.317
G01 F600 X-44.677 Y63.354
G01 F600 X-44.854 Y63.354
G00 F3000 Z3.000
G00 F3000 X-42.314 Y63.354
G00 F1500 Z0
G01 F600 Z-0.100
G01 F600 X-42.488 Y63.317
G01 F600 X-42.650 Y63.245
G01 F600 X-42.793 Y63.140
G01 F600 X-42.912 Y63.008
G01 F600 X-42.998 Y62.859
G01 F600 X-43.532 Y62.859
G01 F600 X-43.604 Y62.843
G01 F600 X-43.671 Y62.814
G01 F600 X-43.730 Y62.770
G01 F600 X-43.779 Y62.716
G01 F600 X-43.816 Y62.652
G01 F600 X-43.839 Y62.582
G01 F600 X-43.845 Y62.520
G01 F600 X-43.845 Y57.779
G01 F600 X-43.938 Y57.779
G01 F600 X-43.943 Y57.795
G01 F600 X-44.038 Y57.958
G01 F600 X-44.163 Y58.098
G01 F600 X-44.316 Y58.209
G01 F600 X-44.487 Y58.285
G01 F600 X-44.671 Y58.324
G01 F600 X-44.859 Y58.324
G01 F600 X-45.043 Y58.285
G01 F600 X-45.215 Y58.209
G01 F600 X-45.367 Y58.098
G01 F600 X-45.493 Y57.958
G01 F600 X-45.587 Y57.795
G01 F600 X-45.645 Y57.616
G01 F600 X-45.665 Y57.429
G01 F600 X-45.645 Y57.242
G01 F600 X-45.587 Y57.064
G01 F600 X-45.493 Y56.901
G01 F600 X-45.367 Y56.761
G01 F600 X-45.215 Y56.650
G01 F600 X-45.043 Y56.574
G01 F600 X-44.859 Y56.535
G01 F600 X-44.671 Y56.535
G01 F600 X-44.487 Y56.574
G01 F600 X-44.316 Y56.650
G01 F600 X-44.163 Y56.761
G01 F600 X-44.038 Y56.901
G01 F600 X-43.944 Y57.064
G01 F600 X-43.938 Y57.080
G01 F600 X-43.845 Y57.080
G01 F600 X-43.845 Y51.530
G01 F600 X-43.867 Y51.530
G01 F600 X-43.867 Y52.080
G01 F600 X-45.664 Y52.080
G01 F600 X-45.664 Y50.282
G01 F600 X-43.867 Y50.282
G01 F600 X-43.867 Y50.832
G01 F600 X-43.459 Y50.832
G01 F600 X-43.387 Y50.847
G01 F600 X-43.320 Y50.877
G01 F600 X-43.260 Y50.920
G01 F600 X-43.211 Y50.975
G01 F600 X-43.175 Y51.038
G01 F600 X-43.152 Y51.108
G01 F600 X-43.145 Y51.171
G01 F600 X-43.145 Y62.160
G01 F600 X-42.998 Y62.160
G01 F600 X-42.912 Y62.011
G01 F600 X-42.793 Y61.879
G01 F600 X-42.650 Y61.774
G01 F600 X-42.488 Y61.702
G01 F600 X-42.314 Y61.665
G01 F600 X-42.137 Y61.665
G01 F600 X-41.963 Y61.702
G01 F600 X-41.801 Y61.774
G01 F600 X-41.657 Y61.879
G01 F600 X-41.539 Y62.011
G01 F600 X-41.450 Y62.164
G01 F600 X-41.395 Y62.333
G01 F600 X-41.377 Y62.509
G01 F600 X-41.395 Y62.686
G01 F600 X-41.450 Y62.855
G01 F600 X-41.539 Y63.008
G01 F600 X-41.657 Y63.140
G01 F600 X-41.801 Y63.245
G01 F600 X-41.963 Y63.317
G01 F600 X-42.137 Y63.354
G01 F600 X-42.314 Y63.354
G00 F3000 Z3.000
G00 F3000 X-56.284 Y63.354
G00 F1500 Z0
G01 F600 Z-0.100
G01 F600 X-56.458 Y63.317
G01 F600 X-56.620 Y63.245
G01 F600 X-56.763 Y63.140
G01 F600 X-56.882 Y63.008
G01 F600 X-56.971 Y62.855
G01 F600 X-57.026 Y62.686
G01 F600 X-57.044 Y62.509
G01 F600 X-57.026 Y62.333
G01 F600 X-56.971 Y62.164
G01 F600 X-56.882 Y62.011
G01 F600 X-56.763 Y61.879
G01 F600 X-56.620 Y61.774
G01 F600 X-56.458 Y61.702
G01 F600 X-56.284 Y61.665
G01 F600 X-56.107 Y61.665
G01 F600 X-55.933 Y61.702
G01 F600 X-55.771 Y61.774
G01 F600 X-55.627 Y61.879
G01 F600 X-55.509 Y62.011
G01 F600 X-55.420 Y62.164
G01 F600 X-55.365 Y62.333
G01 F600 X-55.347 Y62.509
G01 F600 X-55.365 Y62.686
G01 F600 X-55.420 Y62.855
G01 F600 X-55.509 Y63.008
G01 F600 X-55.627 Y63.140
G01 F600 X-55.771 Y63.245
G01 F600 X-55.933 Y63.317
G01 F600 X-56.107 Y63.354
G01 F600 X-56.284 Y63.354
G00 F3000 Z3.000
G00 F3000 X-53.744 Y63.354
G00 F1500 Z0
G01 F600 Z-0.100
G01 F600 X-53.918 Y63.317
G01 F600 X-54.080 Y63.245
G01 F600 X-54.223 Y63.140
G01 F600 X-54.342 Y63.008
G01 F600 X-54.431 Y62.855
G01 F600 X-54.486 Y62.686
G01 F600 X-54.504 Y62.509
G01 F600 X-54.486 Y62.333
G01 F600 X-54.431 Y62.164
G01 F600 X-54.342 Y62.011
G01 F600 X-54.223 Y61.879
G01 F600 X-54.080 Y61.774
G01 F600 X-53.918 Y61.702
G01 F600 X-53.744 Y61.665
G01 F600 X-53.567 Y61.665
G01 F600 X-53.393 Y61.702
G01 F600 X-53.231 Y61.774
G01 F600 X-53.087 Y61.879
G01 F600 X-52.969 Y62.011
G01 F600 X-52.880 Y62.164
G01 F600 X-52.825 Y62.333
G01 F600 X-52.806 Y62.509
G01 F600 X-52.825 Y62.686
G01 F600 X-52.880 Y62.855
G01 F600 X-52.969 Y63.008
G01 F600 X-53.087 Y63.140
G01 F600 X-53.231 Y63.245
G01 F600 X-53.393 Y63.317
G01 F600 X-53.567 Y63.354
G01 F600 X-53.744 Y63.354
G00 F3000 Z3.000
G00 F3000 X-34.694 Y63.354
G00 F1500 Z0
G01 F600 Z-0.100
G01 F600 X-34.868 Y63.317
G01 F600 X-35.030 Y63.245
G01 F600 X-35.173 Y63.140
G01 F600 X-35.292 Y63.008
G01 F600 X-35.378 Y62.859
G01 F600 X-35.912 Y62.859
G01 F600 X-35.984 Y62.843
G01 F600 X-36.051 Y62.814
G01 F600 X-36.110 Y62.770
G01 F600 X-36.159 Y62.716
G01 F600 X-36.196 Y62.652
G01 F600 X-36.219 Y62.582
G01 F600 X-36.225 Y62.520
G01 F600 X-36.225 Y57.779
G01 F600 X-36.318 Y57.779
G01 F600 X-36.323 Y57.795
G01 F600 X-36.418 Y57.958
G01 F600 X-36.543 Y58.098
G01 F600 X-36.696 Y58.209
G01 F600 X-36.867 Y58.285
G01 F600 X-37.051 Y58.324
G01 F600 X-37.239 Y58.324
G01 F600 X-37.423 Y58.285
G01 F600 X-37.595 Y58.209
G01 F600 X-37.747 Y58.098
G01 F600 X-37.873 Y57.958
G01 F600 X-37.967 Y57.795
G01 F600 X-38.025 Y57.616
G01 F600 X-38.045 Y57.429
G01 F600 X-38.025 Y57.242
G01 F600 X-37.967 Y57.064
G01 F600 X-37.873 Y56.901
G01 F600 X-37.747 Y56.761
G01 F600 X-37.595 Y56.650
G01 F600 X-37.423 Y56.574
G01 F600 X-37.239 Y56.535
G01 F600 X-37.051 Y56.535
G01 F600 X-36.867 Y56.574
G01 F600 X-36.696 Y56.650
G01 F600 X-36.543 Y56.761
G01 F600 X-36.418 Y56.901
G01 F600 X-36.324 Y57.064
G01 F600 X-36.318 Y57.080
G01 F600 X-36.225 Y57.080
G01 F600 X-36.225 Y51.530
G01 F600 X-36.247 Y51.530
G01 F600 X-36.247 Y52.080
G01 F600 X-38.044 Y52.080
G01 F600 X-38.044 Y50.282
G01 F600 X-36.247 Y50.282
G01 F600 X-36.247 Y50.832
G01 F600 X-35.839 Y50.832
G01 F600 X-35.767 Y50.847
G01 F600 X-35.700 Y50.877
G01 F600 X-35.640 Y50.920
G01 F600 X-35.591 Y50.975
G01 F600 X-35.555 Y51.038
G01 F600 X-35.532 Y51.108
G01 F600 X-35.525 Y51.171
G01 F600 X-35.525 Y62.160
G01 F600 X-35.378 Y62.160
G01 F600 X-35.292 Y62.011
G01 F600 X-35.173 Y61.879
G01 F600 X-35.030 Y61.774
G01 F600 X-34.868 Y61.702
G01 F600 X-34.694 Y61.665
G01 F600 X-34.517 Y61.665
G01 F600 X-34.343 Y61.702
G01 F600 X-34.181 Y61.774
G01 F600 X-34.037 Y61.879
G01 F600 X-33.919 Y62.011
G01 F600 X-33.830 Y62.164
G01 F600 X-33.775 Y62.333
G01 F600 X-33.757 Y62.509
G01 F600 X-33.775 Y62.686
G01 F600 X-33.830 Y62.855
G01 F600 X-33.919 Y63.008
G01 F600 X-34.037 Y63.140
G01 F600 X-34.181 Y63.245
G01 F600 X-34.343 Y63.317
G01 F600 X-34.517 Y63.354
G01 F600 X-34.694 Y63.354
G00 F3000 Z3.000
G00 F3000 X-32.154 Y63.354
G00 F1500 Z0
G01 F600 Z-0.100
G01 F600 X-32.328 Y63.317
G01 F600 X-32.490 Y63.245
G01 F600 X-32.633 Y63.140
G01 F600 X-32.752 Y63.008
G01 F600 X-32.841 Y62.855
G01 F600 X-32.895 Y62.686
G01 F600 X-32.914 Y62.509
G01 F600 X-32.895 Y62.333
G01 F600 X-32.841 Y62.164
G01 F600 X-32.752 Y62.011
G01 F600 X-32.633 Y61.879
G01 F600 X-32.490 Y61.774
G01 F600 X-32.328 Y61.702
G01 F600 X-32.154 Y61.665
G01 F600 X-31.977 Y61.665
G01 F600 X-31.803 Y61.702
G01 F600 X-31.641 Y61.774
G01 F600 X-31.497 Y61.879
G01 F600 X-31.379 Y62.011
G01 F600 X-31.290 Y62.164
G01 F600 X-31.235 Y62.333
G01 F600 X-31.216 Y62.509
G01 F600 X-31.235 Y62.686
G01 F600 X-31.290 Y62.855
G01 F600 X-31.379 Y63.008
G01 F600 X-31.497 Y63.140
G01 F600 X-31.641 Y63.245
G01 F600 X-31.803 Y63.317
G01 F600 X-31.977 Y63.354
G01 F600 X-32.154 Y63.354
G00 F3000 Z3.000
G00 F3000 X-39.774 Y63.354
G00 F1500 Z0
G01 F600 Z-0.100
G01 F600 X-39.948 Y63.317
G01 F600 X-40.110 Y63.245
G01 F600 X-40.253 Y63.140
G01 F600 X-40.372 Y63.008
G01 F600 X-40.458 Y62.859
G01 F600 X-40.992 Y62.859
G01 F600 X-41.064 Y62.843
G01 F600 X-41.131 Y62.814
G01 F600 X-41.190 Y62.770
G01 F600 X-41.239 Y62.716
G01 F600 X-41.276 Y62.652
G01 F600 X-41.299 Y62.582
G01 F600 X-41.305 Y62.520
G01 F600 X-41.305 Y57.779
G01 F600 X-41.398 Y57.779
G01 F600 X-41.403 Y57.795
G01 F600 X-41.498 Y57.958
G01 F600 X-41.623 Y58.098
G01 F600 X-41.776 Y58.209
G01 F600 X-41.947 Y58.285
G01 F600 X-42.131 Y58.324
G01 F600 X-42.319 Y58.324
G01 F600 X-42.503 Y58.285
G01 F600 X-42.675 Y58.209
G01 F600 X-42.827 Y58.098
G01 F600 X-42.953 Y57.958
G01 F600 X-43.047 Y57.795
G01 F600 X-43.105 Y57.616
G01 F600 X-43.125 Y57.429
G01 F600 X-43.105 Y57.242
G01 F600 X-43.047 Y57.064
G01 F600 X-42.953 Y56.901
G01 F600 X-42.827 Y56.761
G01 F600 X-42.675 Y56.650
G01 F600 X-42.503 Y56.574
G01 F600 X-42.319 Y56.535
G01 F600 X-42.131 Y56.535
G01 F600 X-41.947 Y56.574
G01 F600 X-41.776 Y56.650
G01 F600 X-41.623 Y56.761
G01 F600 X-41.498 Y56.901
G01 F600 X-41.404 Y57.064
G01 F600 X-41.398 Y57.080
G01 F600 X-41.305 Y57.080
G01 F600 X-41.305 Y51.530
G01 F600 X-41.327 Y51.530
G01 F600 X-41.327 Y52.080
G01 F600 X-43.124 Y52.080
G01 F600 X-43.124 Y50.282
G01 F600 X-41.327 Y50.282
G01 F600 X-41.327 Y50.832
G01 F600 X-40.919 Y50.832
G01 F600 X-40.847 Y50.847
G01 F600 X-40.780 Y50.877
G01 F600 X-40.720 Y50.920
G01 F600 X-40.671 Y50.975
G01 F600 X-40.635 Y51.038
G01 F600 X-40.612 Y51.108
G01 F600 X-40.605 Y51.171
G01 F600 X-40.605 Y62.160
G01 F600 X-40.458 Y62.160
G01 F600 X-40.372 Y62.011
G01 F600 X-40.253 Y61.879
G01 F600 X-40.110 Y61.774
G01 F600 X-39.948 Y61.702
G01 F600 X-39.774 Y61.665
G01 F600 X-39.597 Y61.665
G01 F600 X-39.423 Y61.702
G01 F600 X-39.261 Y61.774
G01 F600 X-39.117 Y61.879
G01 F600 X-38.999 Y62.011
G01 F600 X-38.910 Y62.164
G01 F600 X-38.855 Y62.333
G01 F600 X-38.837 Y62.509
G01 F600 X-38.855 Y62.686
G01 F600 X-38.910 Y62.855
G01 F600 X-38.999 Y63.008
G01 F600 X-39.117 Y63.140
G01 F600 X-39.261 Y63.245
G01 F600 X-39.423 Y63.317
G01 F600 X-39.597 Y63.354
G01 F600 X-39.774 Y63.354
G00 F3000 Z3.000
G00 F3000 X-37.234 Y63.354
G00 F1500 Z0
G01 F600 Z-0.100
G01 F600 X-37.408 Y63.317
G01 F600 X-37.570 Y63.245
G01 F600 X-37.713 Y63.140
G01 F600 X-37.832 Y63.008
G01 F600 X-37.918 Y62.859
G01 F600 X-38.452 Y62.859
G01 F600 X-38.524 Y62.843
G01 F600 X-38.591 Y62.814
G01 F600 X-38.650 Y62.770
G01 F600 X-38.699 Y62.716
G01 F600 X-38.736 Y62.652
G01 F600 X-38.759 Y62.582
G01 F600 X-38.765 Y62.520
G01 F600 X-38.765 Y57.779
G01 F600 X-38.858 Y57.779
G01 F600 X-38.863 Y57.795
G01 F600 X-38.958 Y57.958
G01 F600 X-39.083 Y58.098
G01 F600 X-39.236 Y58.209
G01 F600 X-39.407 Y58.285
G01 F600 X-39.591 Y58.324
G01 F600 X-39.779 Y58.324
G01 F600 X-39.963 Y58.285
G01 F600 X-40.135 Y58.209
G01 F600 X-40.287 Y58.098
G01 F600 X-40.413 Y57.958
G01 F600 X-40.507 Y57.795
G01 F600 X-40.565 Y57.616
G01 F600 X-40.585 Y57.429
G01 F600 X-40.565 Y57.242
G01 F600 X-40.507 Y57.064
G01 F600 X-40.413 Y56.901
G01 F600 X-40.287 Y56.761
G01 F600 X-40.135 Y56.650
G01 F600 X-39.963 Y56.574
G01 F600 X-39.779 Y56.535
G01 F600 X-39.591 Y56.535
G01 F600 X-39.407 Y56.574
G01 F600 X-39.236 Y56.650
G01 F600 X-39.083 Y56.761
G01 F600 X-38.958 Y56.901
G01 F600 X-38.864 Y57.064
G01 F600 X-38.858 Y57.080
G01 F600 X-38.765 Y57.080
G01 F600 X-38.765 Y51.530
G01 F600 X-38.787 Y51.530
G01 F600 X-38.787 Y52.080
G01 F600 X-40.584 Y52.080
G01 F600 X-40.584 Y50.282
G01 F600 X-38.787 Y50.282
G01 F600 X-38.787 Y50.832
G01 F600 X-38.379 Y50.832
G01 F600 X-38.307 Y50.847
G01 F600 X-38.240 Y50.877
G01 F600 X-38.180 Y50.920
G01 F600 X-38.131 Y50.975
G01 F600 X-38.095 Y51.038
G01 F600 X-38.072 Y51.108
G01 F600 X-38.065 Y51.171
G01 F600 X-38.065 Y62.160
G01 F600 X-37.918 Y62.160
G01 F600 X-37.832 Y62.011
G01 F600 X-37.713 Y61.879
G01 F600 X-37.570 Y61.774
G01 F600 X-37.408 Y61.702
G01 F600 X-37.234 Y61.665
G01 F600 X-37.057 Y61.665
G01 F600 X-36.883 Y61.702
G01 F600 X-36.721 Y61.774
G01 F600 X-36.577 Y61.879
G01 F600 X-36.459 Y62.011
G01 F600 X-36.370 Y62.164
G01 F600 X-36.315 Y62.333
G01 F600 X-36.297 Y62.509
G01 F600 X-36.315 Y62.686
G01 F600 X-36.370 Y62.855
G01 F600 X-36.459 Y63.008
G01 F600 X-36.577 Y63.140
G01 F600 X-36.721 Y63.245
G01 F600 X-36.883 Y63.317
G01 F600 X-37.057 Y63.354
G01 F600 X-37.234 Y63.354
G00 F3000 Z3.000
G00 F3000 X-68.984 Y63.354
G00 F1500 Z0
G01 F600 Z-0.100
G01 F600 X-69.158 Y63.317
G01 F600 X-69.320 Y63.245
G01 F600 X-69.463 Y63.140
G01 F600 X-69.582 Y63.008
G01 F600 X-69.668 Y62.859
G01 F600 X-70.202 Y62.859
G01 F600 X-70.274 Y62.843
G01 F600 X-70.341 Y62.814
G01 F600 X-70.400 Y62.770
G01 F600 X-70.449 Y62.716
G01 F600 X-70.486 Y62.652
G01 F600 X-70.509 Y62.582
G01 F600 X-70.515 Y62.520
G01 F600 X-70.515 Y39.639
G01 F600 X-70.509 Y39.576
G01 F600 X-70.486 Y39.507
G01 F600 X-70.449 Y39.443
G01 F600 X-70.400 Y39.389
G01 F600 X-70.341 Y39.345
G01 F600 X-70.274 Y39.316
G01 F600 X-70.202 Y39.300
G01 F600 X-69.722 Y39.300
G01 F600 X-69.717 Y39.284
G01 F600 X-69.623 Y39.121
G01 F600 X-69.527 Y39.014
G01 F600 X-69.623 Y38.908
G01 F600 X-69.717 Y38.745
G01 F600 X-69.775 Y38.566
G01 F600 X-69.795 Y38.379
G01 F600 X-69.775 Y38.192
G01 F600 X-69.717 Y38.014
G01 F600 X-69.623 Y37.851
G01 F600 X-69.497 Y37.711
G01 F600 X-69.345 Y37.600
G01 F600 X-69.173 Y37.524
G01 F600 X-68.989 Y37.485
G01 F600 X-68.801 Y37.485
G01 F600 X-68.617 Y37.524
G01 F600 X-68.446 Y37.600
G01 F600 X-68.293 Y37.711
G01 F600 X-68.168 Y37.851
G01 F600 X-68.074 Y38.014
G01 F600 X-68.015 Y38.192
G01 F600 X-67.996 Y38.379
G01 F600 X-68.015 Y38.566
G01 F600 X-68.074 Y38.745
G01 F600 X-68.168 Y38.908
G01 F600 X-68.263 Y39.014
G01 F600 X-68.168 Y39.121
G01 F600 X-68.074 Y39.284
G01 F600 X-68.015 Y39.462
G01 F600 X-67.996 Y39.649
G01 F600 X-68.015 Y39.836
G01 F600 X-68.074 Y40.015
G01 F600 X-68.168 Y40.178
G01 F600 X-68.293 Y40.318
G01 F600 X-68.446 Y40.428
G01 F600 X-68.617 Y40.505
G01 F600 X-68.801 Y40.544
G01 F600 X-68.989 Y40.544
G01 F600 X-69.173 Y40.505
G01 F600 X-69.345 Y40.428
G01 F600 X-69.497 Y40.318
G01 F600 X-69.623 Y40.178
G01 F600 X-69.717 Y40.015
G01 F600 X-69.722 Y39.999
G01 F600 X-69.815 Y39.999
G01 F600 X-69.815 Y62.160
G01 F600 X-69.668 Y62.160
G01 F600 X-69.582 Y62.011
G01 F600 X-69.463 Y61.879
G01 F600 X-69.320 Y61.774
G01 F600 X-69.158 Y61.702
G01 F600 X-68.984 Y61.665
G01 F600 X-68.807 Y61.665
G01 F600 X-68.633 Y61.702
G01 F600 X-68.471 Y61.774
G01 F600 X-68.327 Y61.879
G01 F600 X-68.209 Y62.011
G01 F600 X-68.120 Y62.164
G01 F600 X-68.065 Y62.333
G01 F600 X-68.047 Y62.509
G01 F600 X-68.065 Y62.686
G01 F600 X-68.120 Y62.855
G01 F600 X-68.209 Y63.008
G01 F600 X-68.327 Y63.140
G01 F600 X-68.471 Y63.245
G01 F600 X-68.633 Y63.317
G01 F600 X-68.807 Y63.354
G01 F600 X-68.984 Y63.354
G00 F3000 Z3.000
G00 F3000 X-80.414 Y63.354
G00 F1500 Z0
G01 F600 Z-0.100
G01 F600 X-80.588 Y63.317
G01 F600 X-80.750 Y63.245
G01 F600 X-80.893 Y63.140
G01 F600 X-81.012 Y63.008
G01 F600 X-81.101 Y62.855
G01 F600 X-81.156 Y62.686
G01 F600 X-81.174 Y62.509
G01 F600 X-81.156 Y62.333
G01 F600 X-81.101 Y62.164
G01 F600 X-81.012 Y62.011
G01 F600 X-80.893 Y61.879
G01 F600 X-80.750 Y61.774
G01 F600 X-80.588 Y61.702
G01 F600 X-80.414 Y61.665
G01 F600 X-80.237 Y61.665
G01 F600 X-80.063 Y61.702
G01 F600 X-79.901 Y61.774
G01 F600 X-79.757 Y61.879
G01 F600 X-79.639 Y62.011
G01 F600 X-79.550 Y62.164
G01 F600 X-79.495 Y62.333
G01 F600 X-79.477 Y62.509
G01 F600 X-79.495 Y62.686
G01 F600 X-79.550 Y62.855
G01 F600 X-79.639 Y63.008
G01 F600 X-79.757 Y63.140
G01 F600 X-79.901 Y63.245
G01 F600 X-80.063 Y63.317
G01 F600 X-80.237 Y63.354
G01 F600 X-80.414 Y63.354
G00 F3000 Z3.000
G00 F3000 X-77.874 Y63.354
G00 F1500 Z0
G01 F600 Z-0.100
G01 F600 X-78.048 Y63.317
G01 F600 X-78.210 Y63.245
G01 F600 X-78.353 Y63.140
G01 F600 X-78.472 Y63.008
G01 F600 X-78.561 Y62.855
G01 F600 X-78.615 Y62.686
G01 F600 X-78.634 Y62.509
G01 F600 X-78.615 Y62.333
G01 F600 X-78.561 Y62.164
G01 F600 X-78.472 Y62.011
G01 F600 X-78.353 Y61.879
G01 F600 X-78.210 Y61.774
G01 F600 X-78.048 Y61.702
G01 F600 X-77.874 Y61.665
G01 F600 X-77.697 Y61.665
G01 F600 X-77.523 Y61.702
G01 F600 X-77.361 Y61.774
G01 F600 X-77.217 Y61.879
G01 F600 X-77.099 Y62.011
G01 F600 X-77.010 Y62.164
G01 F600 X-76.955 Y62.333
G01 F600 X-76.937 Y62.509
G01 F600 X-76.955 Y62.686
G01 F600 X-77.010 Y62.855
G01 F600 X-77.099 Y63.008
G01 F600 X-77.217 Y63.140
G01 F600 X-77.361 Y63.245
G01 F600 X-77.523 Y63.317
G01 F600 X-77.697 Y63.354
G01 F600 X-77.874 Y63.354
G00 F3000 Z3.000
G00 F3000 X-61.364 Y63.354
G00 F1500 Z0
G01 F600 Z-0.100
G01 F600 X-61.538 Y63.317
G01 F600 X-61.700 Y63.245
G01 F600 X-61.843 Y63.140
G01 F600 X-61.962 Y63.008
G01 F600 X-62.048 Y62.859
G01 F600 X-62.582 Y62.859
G01 F600 X-62.654 Y62.843
G01 F600 X-62.721 Y62.814
G01 F600 X-62.780 Y62.770
G01 F600 X-62.829 Y62.716
G01 F600 X-62.866 Y62.652
G01 F600 X-62.889 Y62.582
G01 F600 X-62.895 Y62.520
G01 F600 X-62.895 Y57.779
G01 F600 X-62.988 Y57.779
G01 F600 X-62.993 Y57.795
G01 F600 X-63.088 Y57.958
G01 F600 X-63.213 Y58.098
G01 F600 X-63.366 Y58.209
G01 F600 X-63.537 Y58.285
G01 F600 X-63.721 Y58.324
G01 F600 X-63.909 Y58.324
G01 F600 X-64.093 Y58.285
G01 F600 X-64.265 Y58.209
G01 F600 X-64.417 Y58.098
G01 F600 X-64.543 Y57.958
G01 F600 X-64.637 Y57.795
G01 F600 X-64.695 Y57.616
G01 F600 X-64.715 Y57.429
G01 F600 X-64.695 Y57.242
G01 F600 X-64.637 Y57.064
G01 F600 X-64.543 Y56.901
G01 F600 X-64.417 Y56.761
G01 F600 X-64.265 Y56.650
G01 F600 X-64.093 Y56.574
G01 F600 X-63.909 Y56.535
G01 F600 X-63.721 Y56.535
G01 F600 X-63.537 Y56.574
G01 F600 X-63.366 Y56.650
G01 F600 X-63.213 Y56.761
G01 F600 X-63.088 Y56.901
G01 F600 X-62.994 Y57.064
G01 F600 X-62.988 Y57.080
G01 F600 X-62.895 Y57.080
G01 F600 X-62.895 Y51.530
G01 F600 X-62.917 Y51.530
G01 F600 X-62.917 Y52.080
G01 F600 X-64.714 Y52.080
G01 F600 X-64.714 Y50.282
G01 F600 X-62.917 Y50.282
G01 F600 X-62.917 Y50.832
G01 F600 X-62.509 Y50.832
G01 F600 X-62.437 Y50.847
G01 F600 X-62.370 Y50.877
G01 F600 X-62.310 Y50.920
G01 F600 X-62.261 Y50.975
G01 F600 X-62.225 Y51.038
G01 F600 X-62.202 Y51.108
G01 F600 X-62.195 Y51.171
G01 F600 X-62.195 Y62.160
G01 F600 X-62.048 Y62.160
G01 F600 X-61.962 Y62.011
G01 F600 X-61.843 Y61.879
G01 F600 X-61.700 Y61.774
G01 F600 X-61.538 Y61.702
G01 F600 X-61.364 Y61.665
G01 F600 X-61.187 Y61.665
G01 F600 X-61.013 Y61.702
G01 F600 X-60.851 Y61.774
G01 F600 X-60.707 Y61.879
G01 F600 X-60.589 Y62.011
G01 F600 X-60.500 Y62.164
G01 F600 X-60.445 Y62.333
G01 F600 X-60.427 Y62.509
G01 F600 X-60.445 Y62.686
G01 F600 X-60.500 Y62.855
G01 F600 X-60.589 Y63.008
G01 F600 X-60.707 Y63.140
G01 F600 X-60.851 Y63.245
G01 F600 X-61.013 Y63.317
G01 F600 X-61.187 Y63.354
G01 F600 X-61.364 Y63.354
G00 F3000 Z3.000
G00 F3000 X-58.824 Y63.354
G00 F1500 Z0
G01 F600 Z-0.100
G01 F600 X-58.998 Y63.317
G01 F600 X-59.160 Y63.245
G01 F600 X-59.303 Y63.140
G01 F600 X-59.422 Y63.008
G01 F600 X-59.508 Y62.859
G01 F600 X-60.042 Y62.859
G01 F600 X-60.114 Y62.843
G01 F600 X-60.181 Y62.814
G01 F600 X-60.240 Y62.770
G01 F600 X-60.289 Y62.716
G01 F600 X-60.326 Y62.652
G01 F600 X-60.349 Y62.582
G01 F600 X-60.355 Y62.520
G01 F600 X-60.355 Y57.779
G01 F600 X-60.448 Y57.779
G01 F600 X-60.453 Y57.795
G01 F600 X-60.547 Y57.958
G01 F600 X-60.673 Y58.098
G01 F600 X-60.826 Y58.209
G01 F600 X-60.997 Y58.285
G01 F600 X-61.181 Y58.324
G01 F600 X-61.369 Y58.324
G01 F600 X-61.553 Y58.285
G01 F600 X-61.725 Y58.209
G01 F600 X-61.877 Y58.098
G01 F600 X-62.003 Y57.958
G01 F600 X-62.097 Y57.795
G01 F600 X-62.155 Y57.616
G01 F600 X-62.175 Y57.429
G01 F600 X-62.155 Y57.242
G01 F600 X-62.097 Y57.064
G01 F600 X-62.003 Y56.901
G01 F600 X-61.877 Y56.761
G01 F600 X-61.725 Y56.650
G01 F600 X-61.553 Y56.574
G01 F600 X-61.369 Y56.535
G01 F600 X-61.181 Y56.535
G01 F600 X-60.997 Y56.574
G01 F600 X-60.826 Y56.650
G01 F600 X-60.673 Y56.761
G01 F600 X-60.547 Y56.901
G01 F600 X-60.454 Y57.064
G01 F600 X-60.448 Y57.080
G01 F600 X-60.355 Y57.080
G01 F600 X-60.355 Y51.530
G01 F600 X-60.377 Y51.530
G01 F600 X-60.377 Y52.080
G01 F600 X-62.174 Y52.080
G01 F600 X-62.174 Y50.282
G01 F600 X-60.377 Y50.282
G01 F600 X-60.377 Y50.832
G01 F600 X-59.969 Y50.832
G01 F600 X-59.897 Y50.847
G01 F600 X-59.830 Y50.877
G01 F600 X-59.770 Y50.920
G01 F600 X-59.721 Y50.975
G01 F600 X-59.685 Y51.038
G01 F600 X-59.662 Y51.108
G01 F600 X-59.655 Y51.171
G01 F600 X-59.655 Y62.160
G01 F600 X-59.508 Y62.160
G01 F600 X-59.422 Y62.011
G01 F600 X-59.303 Y61.879
G01 F600 X-59.160 Y61.774
G01 F600 X-58.998 Y61.702
G01 F600 X-58.824 Y61.665
G01 F600 X-58.647 Y61.665
G01 F600 X-58.473 Y61.702
G01 F600 X-58.311 Y61.774
G01 F600 X-58.167 Y61.879
G01 F600 X-58.049 Y62.011
G01 F600 X-57.960 Y62.164
G01 F600 X-57.905 Y62.333
G01 F600 X-57.887 Y62.509
G01 F600 X-57.905 Y62.686
G01 F600 X-57.960 Y62.855
G01 F600 X-58.049 Y63.008
G01 F600 X-58.167 Y63.140
G01 F600 X-58.311 Y63.245
G01 F600 X-58.473 Y63.317
G01 F600 X-58.647 Y63.354
G01 F600 X-58.824 Y63.354
G00 F3000 Z3.000
G00 F3000 X-66.444 Y63.354
G00 F1500 Z0
G01 F600 Z-0.100
G01 F600 X-66.618 Y63.317
G01 F600 X-66.780 Y63.245
G01 F600 X-66.923 Y63.140
G01 F600 X-67.042 Y63.008
G01 F600 X-67.131 Y62.855
G01 F600 X-67.186 Y62.686
G01 F600 X-67.204 Y62.509
G01 F600 X-67.186 Y62.333
G01 F600 X-67.131 Y62.164
G01 F600 X-67.042 Y62.011
G01 F600 X-66.923 Y61.879
G01 F600 X-66.780 Y61.774
G01 F600 X-66.705 Y61.741
G01 F600 X-66.705 Y59.049
G01 F600 X-68.932 Y59.049
G01 F600 X-69.004 Y59.033
G01 F600 X-69.071 Y59.004
G01 F600 X-69.130 Y58.960
G01 F600 X-69.179 Y58.906
G01 F600 X-69.216 Y58.842
G01 F600 X-69.239 Y58.772
G01 F600 X-69.245 Y58.710
G01 F600 X-69.245 Y58.253
G01 F600 X-69.345 Y58.209
G01 F600 X-69.497 Y58.098
G01 F600 X-69.623 Y57.958
G01 F600 X-69.717 Y57.795
G01 F600 X-69.775 Y57.616
G01 F600 X-69.795 Y57.429
G01 F600 X-69.775 Y57.242
G01 F600 X-69.717 Y57.064
G01 F600 X-69.623 Y56.901
G01 F600 X-69.497 Y56.761
G01 F600 X-69.345 Y56.650
G01 F600 X-69.173 Y56.574
G01 F600 X-68.989 Y56.535
G01 F600 X-68.801 Y56.535
G01 F600 X-68.617 Y56.574
G01 F600 X-68.446 Y56.650
G01 F600 X-68.293 Y56.761
G01 F600 X-68.168 Y56.901
G01 F600 X-68.074 Y57.064
G01 F600 X-68.015 Y57.242
G01 F600 X-67.996 Y57.429
G01 F600 X-68.015 Y57.616
G01 F600 X-68.074 Y57.795
G01 F600 X-68.168 Y57.958
G01 F600 X-68.293 Y58.098
G01 F600 X-68.446 Y58.209
G01 F600 X-68.545 Y58.253
G01 F600 X-68.545 Y58.350
G01 F600 X-66.319 Y58.350
G01 F600 X-66.247 Y58.366
G01 F600 X-66.180 Y58.395
G01 F600 X-66.120 Y58.439
G01 F600 X-66.071 Y58.493
G01 F600 X-66.035 Y58.557
G01 F600 X-66.012 Y58.626
G01 F600 X-66.005 Y58.689
G01 F600 X-66.005 Y61.741
G01 F600 X-65.931 Y61.774
G01 F600 X-65.787 Y61.879
G01 F600 X-65.669 Y62.011
G01 F600 X-65.580 Y62.164
G01 F600 X-65.525 Y62.333
G01 F600 X-65.507 Y62.509
G01 F600 X-65.525 Y62.686
G01 F600 X-65.580 Y62.855
G01 F600 X-65.669 Y63.008
G01 F600 X-65.787 Y63.140
G01 F600 X-65.931 Y63.245
G01 F600 X-66.093 Y63.317
G01 F600 X-66.267 Y63.354
G01 F600 X-66.444 Y63.354
G00 F3000 Z3.000
G00 F3000 X-63.904 Y63.354
G00 F1500 Z0
G01 F600 Z-0.100
G01 F600 X-64.078 Y63.317
G01 F600 X-64.240 Y63.245
G01 F600 X-64.383 Y63.140
G01 F600 X-64.502 Y63.008
G01 F600 X-64.588 Y62.859
G01 F600 X-65.122 Y62.859
G01 F600 X-65.194 Y62.843
G01 F600 X-65.261 Y62.814
G01 F600 X-65.320 Y62.770
G01 F600 X-65.369 Y62.716
G01 F600 X-65.406 Y62.652
G01 F600 X-65.429 Y62.582
G01 F600 X-65.435 Y62.520
G01 F600 X-65.435 Y57.779
G01 F600 X-65.528 Y57.779
G01 F600 X-65.533 Y57.795
G01 F600 X-65.627 Y57.958
G01 F600 X-65.753 Y58.098
G01 F600 X-65.906 Y58.209
G01 F600 X-66.077 Y58.285
G01 F600 X-66.261 Y58.324
G01 F600 X-66.449 Y58.324
G01 F600 X-66.633 Y58.285
G01 F600 X-66.805 Y58.209
G01 F600 X-66.957 Y58.098
G01 F600 X-67.083 Y57.958
G01 F600 X-67.177 Y57.795
G01 F600 X-67.235 Y57.616
G01 F600 X-67.255 Y57.429
G01 F600 X-67.235 Y57.242
G01 F600 X-67.177 Y57.064
G01 F600 X-67.083 Y56.901
G01 F600 X-66.957 Y56.761
G01 F600 X-66.805 Y56.650
G01 F600 X-66.633 Y56.574
G01 F600 X-66.449 Y56.535
G01 F600 X-66.261 Y56.535
G01 F600 X-66.077 Y56.574
G01 F600 X-65.906 Y56.650
G01 F600 X-65.753 Y56.761
G01 F600 X-65.627 Y56.901
G01 F600 X-65.534 Y57.064
G01 F600 X-65.528 Y57.080
G01 F600 X-65.435 Y57.080
G01 F600 X-65.435 Y51.530
G01 F600 X-65.457 Y51.530
G01 F600 X-65.457 Y52.080
G01 F600 X-67.254 Y52.080
G01 F600 X-67.254 Y50.282
G01 F600 X-65.457 Y50.282
G01 F600 X-65.457 Y50.832
G01 F600 X-65.049 Y50.832
G01 F600 X-64.977 Y50.847
G01 F600 X-64.910 Y50.877
G01 F600 X-64.850 Y50.920
G01 F600 X-64.801 Y50.975
G01 F600 X-64.765 Y51.038
G01 F600 X-64.742 Y51.108
G01 F600 X-64.735 Y51.171
G01 F600 X-64.735 Y62.160
G01 F600 X-64.588 Y62.160
G01 F600 X-64.502 Y62.011
G01 F600 X-64.383 Y61.879
G01 F600 X-64.240 Y61.774
G01 F600 X-64.078 Y61.702
G01 F600 X-63.904 Y61.665
G01 F600 X-63.727 Y61.665
G01 F600 X-63.553 Y61.702
G01 F600 X-63.391 Y61.774
G01 F600 X-63.247 Y61.879
G01 F600 X-63.129 Y62.011
G01 F600 X-63.040 Y62.164
G01 F600 X-62.985 Y62.333
G01 F600 X-62.967 Y62.509
G01 F600 X-62.985 Y62.686
G01 F600 X-63.040 Y62.855
G01 F600 X-63.129 Y63.008
G01 F600 X-63.247 Y63.140
G01 F600 X-63.391 Y63.245
G01 F600 X-63.553 Y63.317
G01 F600 X-63.727 Y63.354
G01 F600 X-63.904 Y63.354
G00 F3000 Z3.000
G00 F3000 X-5.484 Y63.354
G00 F1500 Z0
G01 F600 Z-0.100
G01 F600 X-5.658 Y63.317
G01 F600 X-5.820 Y63.245
G01 F600 X-5.963 Y63.140
G01 F600 X-6.082 Y63.008
G01 F600 X-6.171 Y62.855
G01 F600 X-6.226 Y62.686
G01 F600 X-6.244 Y62.509
G01 F600 X-6.226 Y62.333
G01 F600 X-6.171 Y62.164
G01 F600 X-6.082 Y62.011
G01 F600 X-5.963 Y61.879
G01 F600 X-5.820 Y61.774
G01 F600 X-5.658 Y61.702
G01 F600 X-5.484 Y61.665
G01 F600 X-5.307 Y61.665
G01 F600 X-5.133 Y61.702
G01 F600 X-4.971 Y61.774
G01 F600 X-4.827 Y61.879
G01 F600 X-4.709 Y62.011
G01 F600 X-4.620 Y62.164
G01 F600 X-4.565 Y62.333
G01 F600 X-4.546 Y62.509
G01 F600 X-4.565 Y62.686
G01 F600 X-4.620 Y62.855
G01 F600 X-4.709 Y63.008
G01 F600 X-4.827 Y63.140
G01 F600 X-4.971 Y63.245
G01 F600 X-5.133 Y63.317
G01 F600 X-5.307 Y63.354
G01 F600 X-5.484 Y63.354
G00 F3000 Z3.000
G00 F3000 X-18.184 Y63.354
G00 F1500 Z0
G01 F600 Z-0.100
G01 F600 X-18.358 Y63.317
G01 F600 X-18.520 Y63.245
G01 F600 X-18.663 Y63.140
G01 F600 X-18.782 Y63.008
G01 F600 X-18.871 Y62.855
G01 F600 X-18.925 Y62.686
G01 F600 X-18.944 Y62.509
G01 F600 X-18.925 Y62.333
G01 F600 X-18.871 Y62.164
G01 F600 X-18.782 Y62.011
G01 F600 X-18.663 Y61.879
G01 F600 X-18.520 Y61.774
G01 F600 X-18.358 Y61.702
G01 F600 X-18.184 Y61.665
G01 F600 X-18.007 Y61.665
G01 F600 X-17.833 Y61.702
G01 F600 X-17.671 Y61.774
G01 F600 X-17.527 Y61.879
G01 F600 X-17.409 Y62.011
G01 F600 X-17.320 Y62.164
G01 F600 X-17.265 Y62.333
G01 F600 X-17.247 Y62.509
G01 F600 X-17.265 Y62.686
G01 F600 X-17.320 Y62.855
G01 F600 X-17.409 Y63.008
G01 F600 X-17.527 Y63.140
G01 F600 X-17.671 Y63.245
G01 F600 X-17.833 Y63.317
G01 F600 X-18.007 Y63.354
G01 F600 X-18.184 Y63.354
G00 F3000 Z3.000
G00 F3000 X-29.614 Y63.354
G00 F1500 Z0
G01 F600 Z-0.100
G01 F600 X-29.788 Y63.317
G01 F600 X-29.950 Y63.245
G01 F600 X-30.093 Y63.140
G01 F600 X-30.212 Y63.008
G01 F600 X-30.301 Y62.855
G01 F600 X-30.356 Y62.686
G01 F600 X-30.374 Y62.509
G01 F600 X-30.356 Y62.333
G01 F600 X-30.301 Y62.164
G01 F600 X-30.212 Y62.011
G01 F600 X-30.093 Y61.879
G01 F600 X-29.950 Y61.774
G01 F600 X-29.788 Y61.702
G01 F600 X-29.614 Y61.665
G01 F600 X-29.437 Y61.665
G01 F600 X-29.263 Y61.702
G01 F600 X-29.101 Y61.774
G01 F600 X-28.957 Y61.879
G01 F600 X-28.839 Y62.011
G01 F600 X-28.750 Y62.164
G01 F600 X-28.695 Y62.333
G01 F600 X-28.677 Y62.509
G01 F600 X-28.695 Y62.686
G01 F600 X-28.750 Y62.855
G01 F600 X-28.839 Y63.008
G01 F600 X-28.957 Y63.140
G01 F600 X-29.101 Y63.245
G01 F600 X-29.263 Y63.317
G01 F600 X-29.437 Y63.354
G01 F600 X-29.614 Y63.354
G00 F3000 Z3.000
G00 F3000 X-10.564 Y63.354
G00 F1500 Z0
G01 F600 Z-0.100
G01 F600 X-10.738 Y63.317
G01 F600 X-10.900 Y63.245
G01 F600 X-11.043 Y63.140
G01 F600 X-11.162 Y63.008
G01 F600 X-11.248 Y62.859
G01 F600 X-11.782 Y62.859
G01 F600 X-11.854 Y62.843
G01 F600 X-11.921 Y62.814
G01 F600 X-11.980 Y62.770
G01 F600 X-12.029 Y62.716
G01 F600 X-12.066 Y62.652
G01 F600 X-12.089 Y62.582
G01 F600 X-12.095 Y62.520
G01 F600 X-12.095 Y55.239
G01 F600 X-12.188 Y55.239
G01 F600 X-12.193 Y55.255
G01 F600 X-12.288 Y55.418
G01 F600 X-12.413 Y55.558
G01 F600 X-12.566 Y55.669
G01 F600 X-12.737 Y55.745
G01 F600 X-12.921 Y55.784
G01 F600 X-13.109 Y55.784
G01 F600 X-13.293 Y55.745
G01 F600 X-13.465 Y55.669
G01 F600 X-13.617 Y55.558
G01 F600 X-13.743 Y55.418
G01 F600 X-13.837 Y55.255
G01 F600 X-13.895 Y55.076
G01 F600 X-13.915 Y54.889
G01 F600 X-13.895 Y54.702
G01 F600 X-13.837 Y54.524
G01 F600 X-13.743 Y54.361
G01 F600 X-13.617 Y54.221
G01 F600 X-13.465 Y54.110
G01 F600 X-13.365 Y54.066
G01 F600 X-13.365 Y52.080
G01 F600 X-13.914 Y52.080
G01 F600 X-13.914 Y50.282
G01 F600 X-12.117 Y50.282
G01 F600 X-12.117 Y52.080
G01 F600 X-12.665 Y52.080
G01 F600 X-12.665 Y54.066
G01 F600 X-12.566 Y54.110
G01 F600 X-12.413 Y54.221
G01 F600 X-12.288 Y54.361
G01 F600 X-12.194 Y54.524
G01 F600 X-12.188 Y54.540
G01 F600 X-11.709 Y54.540
G01 F600 X-11.637 Y54.556
G01 F600 X-11.570 Y54.585
G01 F600 X-11.510 Y54.629
G01 F600 X-11.461 Y54.683
G01 F600 X-11.425 Y54.747
G01 F600 X-11.402 Y54.816
G01 F600 X-11.395 Y54.879
G01 F600 X-11.395 Y62.160
G01 F600 X-11.248 Y62.160
G01 F600 X-11.162 Y62.011
G01 F600 X-11.043 Y61.879
G01 F600 X-10.900 Y61.774
G01 F600 X-10.738 Y61.702
G01 F600 X-10.564 Y61.665
G01 F600 X-10.387 Y61.665
G01 F600 X-10.213 Y61.702
G01 F600 X-10.051 Y61.774
G01 F600 X-9.907 Y61.879
G01 F600 X-9.789 Y62.011
G01 F600 X-9.700 Y62.164
G01 F600 X-9.645 Y62.333
G01 F600 X-9.627 Y62.509
G01 F600 X-9.645 Y62.686
G01 F600 X-9.700 Y62.855
G01 F600 X-9.789 Y63.008
G01 F600 X-9.907 Y63.140
G01 F600 X-10.051 Y63.245
G01 F600 X-10.213 Y63.317
G01 F600 X-10.387 Y63.354
G01 F600 X-10.564 Y63.354
G00 F3000 Z3.000
G00 F3000 X-8.024 Y63.354
G00 F1500 Z0
G01 F600 Z-0.100
G01 F600 X-8.198 Y63.317
G01 F600 X-8.360 Y63.245
G01 F600 X-8.503 Y63.140
G01 F600 X-8.622 Y63.008
G01 F600 X-8.711 Y62.855
G01 F600 X-8.766 Y62.686
G01 F600 X-8.784 Y62.509
G01 F600 X-8.766 Y62.333
G01 F600 X-8.711 Y62.164
G01 F600 X-8.622 Y62.011
G01 F600 X-8.503 Y61.879
G01 F600 X-8.360 Y61.774
G01 F600 X-8.198 Y61.702
G01 F600 X-8.024 Y61.665
G01 F600 X-7.847 Y61.665
G01 F600 X-7.673 Y61.702
G01 F600 X-7.511 Y61.774
G01 F600 X-7.367 Y61.879
G01 F600 X-7.249 Y62.011
G01 F600 X-7.160 Y62.164
G01 F600 X-7.105 Y62.333
G01 F600 X-7.087 Y62.509
G01 F600 X-7.105 Y62.686
G01 F600 X-7.160 Y62.855
G01 F600 X-7.249 Y63.008
G01 F600 X-7.367 Y63.140
G01 F600 X-7.511 Y63.245
G01 F600 X-7.673 Y63.317
G01 F600 X-7.847 Y63.354
G01 F600 X-8.024 Y63.354
G00 F3000 Z3.000
G00 F3000 X-15.644 Y63.354
G00 F1500 Z0
G01 F600 Z-0.100
G01 F600 X-15.818 Y63.317
G01 F600 X-15.980 Y63.245
G01 F600 X-16.123 Y63.140
G01 F600 X-16.242 Y63.008
G01 F600 X-16.328 Y62.859
G01 F600 X-16.862 Y62.859
G01 F600 X-16.934 Y62.843
G01 F600 X-17.001 Y62.814
G01 F600 X-17.060 Y62.770
G01 F600 X-17.109 Y62.716
G01 F600 X-17.146 Y62.652
G01 F600 X-17.169 Y62.582
G01 F600 X-17.175 Y62.520
G01 F600 X-17.175 Y55.239
G01 F600 X-17.268 Y55.239
G01 F600 X-17.273 Y55.255
G01 F600 X-17.367 Y55.418
G01 F600 X-17.493 Y55.558
G01 F600 X-17.646 Y55.669
G01 F600 X-17.817 Y55.745
G01 F600 X-18.001 Y55.784
G01 F600 X-18.189 Y55.784
G01 F600 X-18.373 Y55.745
G01 F600 X-18.545 Y55.669
G01 F600 X-18.697 Y55.558
G01 F600 X-18.823 Y55.418
G01 F600 X-18.917 Y55.255
G01 F600 X-18.975 Y55.076
G01 F600 X-18.995 Y54.889
G01 F600 X-18.975 Y54.702
G01 F600 X-18.917 Y54.524
G01 F600 X-18.823 Y54.361
G01 F600 X-18.697 Y54.221
G01 F600 X-18.545 Y54.110
G01 F600 X-18.445 Y54.066
G01 F600 X-18.445 Y52.080
G01 F600 X-18.994 Y52.080
G01 F600 X-18.994 Y50.282
G01 F600 X-17.197 Y50.282
G01 F600 X-17.197 Y52.080
G01 F600 X-17.745 Y52.080
G01 F600 X-17.745 Y54.066
G01 F600 X-17.646 Y54.110
G01 F600 X-17.493 Y54.221
G01 F600 X-17.367 Y54.361
G01 F600 X-17.274 Y54.524
G01 F600 X-17.268 Y54.540
G01 F600 X-16.789 Y54.540
G01 F600 X-16.717 Y54.556
G01 F600 X-16.650 Y54.585
