( PCB Contour )
( Generated by Rapid-PCB.com )
( Material Size)
( X= 100.000, Y= 75.000, Z= 1.580)
()
G00
G17
G21
G40
G49
G54
G80
G90
G94
G00 F3000 Z2.000
M03 S9000
G00 F3000 X20.608 Y72.923
G00 F1500 Z0
G01 F600 Z-0.100
G01 F600 X20.556 Y72.912
G01 F600 X20.508 Y72.890
G01 F600 X20.465 Y72.859
G01 F600 X20.429 Y72.819
G01 F600 X20.402 Y72.773
G01 F600 X20.386 Y72.722
G01 F600 X20.381 Y72.675
G01 F600 X20.381 Y70.835
G01 F600 X20.259 Y70.781
G01 F600 X20.132 Y70.688
G01 F600 X20.027 Y70.572
G01 F600 X19.948 Y70.435
G01 F600 X19.899 Y70.286
G01 F600 X19.883 Y70.129
G01 F600 X19.899 Y69.973
G01 F600 X19.948 Y69.823
G01 F600 X20.027 Y69.687
G01 F600 X20.132 Y69.570
G01 F600 X20.259 Y69.478
G01 F600 X20.403 Y69.414
G01 F600 X20.556 Y69.381
G01 F600 X20.714 Y69.381
G01 F600 X20.868 Y69.414
G01 F600 X21.011 Y69.478
G01 F600 X21.139 Y69.570
G01 F600 X21.244 Y69.687
G01 F600 X21.322 Y69.823
G01 F600 X21.371 Y69.973
G01 F600 X21.387 Y70.129
G01 F600 X21.371 Y70.286
G01 F600 X21.322 Y70.435
G01 F600 X21.244 Y70.572
G01 F600 X21.139 Y70.688
G01 F600 X21.011 Y70.781
G01 F600 X20.889 Y70.835
G01 F600 X20.889 Y72.416
G01 F600 X44.511 Y72.416
G01 F600 X44.511 Y70.835
G01 F600 X44.389 Y70.781
G01 F600 X44.262 Y70.688
G01 F600 X44.157 Y70.572
G01 F600 X44.078 Y70.435
G01 F600 X44.029 Y70.286
G01 F600 X44.013 Y70.129
G01 F600 X44.029 Y69.973
G01 F600 X44.078 Y69.823
G01 F600 X44.157 Y69.687
G01 F600 X44.262 Y69.570
G01 F600 X44.389 Y69.478
G01 F600 X44.533 Y69.414
G01 F600 X44.687 Y69.381
G01 F600 X44.844 Y69.381
G01 F600 X44.998 Y69.414
G01 F600 X45.141 Y69.478
G01 F600 X45.269 Y69.570
G01 F600 X45.374 Y69.687
G01 F600 X45.452 Y69.823
G01 F600 X45.501 Y69.973
G01 F600 X45.517 Y70.129
G01 F600 X45.501 Y70.286
G01 F600 X45.452 Y70.435
G01 F600 X45.374 Y70.572
G01 F600 X45.269 Y70.688
G01 F600 X45.141 Y70.781
G01 F600 X45.019 Y70.835
G01 F600 X45.019 Y72.675
G01 F600 X45.014 Y72.722
G01 F600 X44.998 Y72.773
G01 F600 X44.971 Y72.819
G01 F600 X44.935 Y72.859
G01 F600 X44.892 Y72.890
G01 F600 X44.844 Y72.912
G01 F600 X44.792 Y72.923
G01 F600 X20.608 Y72.923
G00 F3000 Z2.000
G00 F3000 X19.280 Y72.211
G00 F1500 Z0
G01 F600 Z-0.100
G01 F600 X19.113 Y72.175
G01 F600 X18.957 Y72.106
G01 F600 X18.819 Y72.006
G01 F600 X18.705 Y71.879
G01 F600 X18.620 Y71.731
G01 F600 X18.594 Y71.653
G01 F600 X15.529 Y71.653
G01 F600 X15.476 Y71.642
G01 F600 X15.428 Y71.620
G01 F600 X15.385 Y71.589
G01 F600 X15.349 Y71.549
G01 F600 X15.323 Y71.503
G01 F600 X15.306 Y71.452
G01 F600 X15.301 Y71.405
G01 F600 X15.301 Y70.835
G01 F600 X15.179 Y70.781
G01 F600 X15.052 Y70.688
G01 F600 X14.947 Y70.572
G01 F600 X14.868 Y70.435
G01 F600 X14.819 Y70.286
G01 F600 X14.803 Y70.129
G01 F600 X14.819 Y69.973
G01 F600 X14.868 Y69.823
G01 F600 X14.947 Y69.687
G01 F600 X15.052 Y69.570
G01 F600 X15.179 Y69.478
G01 F600 X15.323 Y69.414
G01 F600 X15.477 Y69.381
G01 F600 X15.634 Y69.381
G01 F600 X15.788 Y69.414
G01 F600 X15.931 Y69.478
G01 F600 X16.059 Y69.570
G01 F600 X16.164 Y69.687
G01 F600 X16.242 Y69.823
G01 F600 X16.291 Y69.973
G01 F600 X16.307 Y70.129
G01 F600 X16.291 Y70.286
G01 F600 X16.242 Y70.435
G01 F600 X16.164 Y70.572
G01 F600 X16.059 Y70.688
G01 F600 X15.931 Y70.781
G01 F600 X15.809 Y70.835
G01 F600 X15.809 Y71.146
G01 F600 X18.594 Y71.146
G01 F600 X18.620 Y71.068
G01 F600 X18.705 Y70.920
G01 F600 X18.819 Y70.793
G01 F600 X18.957 Y70.693
G01 F600 X19.113 Y70.624
G01 F600 X19.280 Y70.588
G01 F600 X19.450 Y70.588
G01 F600 X19.617 Y70.624
G01 F600 X19.773 Y70.693
G01 F600 X19.911 Y70.793
G01 F600 X20.025 Y70.920
G01 F600 X20.110 Y71.068
G01 F600 X20.163 Y71.230
G01 F600 X20.181 Y71.399
G01 F600 X20.163 Y71.569
G01 F600 X20.110 Y71.731
G01 F600 X20.025 Y71.879
G01 F600 X19.911 Y72.006
G01 F600 X19.773 Y72.106
G01 F600 X19.617 Y72.175
G01 F600 X19.450 Y72.211
G01 F600 X19.280 Y72.211
G00 F3000 Z2.000
G00 F3000 X56.117 Y70.878
G00 F1500 Z0
G01 F600 Z-0.100
G01 F600 X55.963 Y70.845
G01 F600 X55.819 Y70.781
G01 F600 X55.692 Y70.688
G01 F600 X55.587 Y70.572
G01 F600 X55.508 Y70.435
G01 F600 X55.459 Y70.286
G01 F600 X55.443 Y70.129
G01 F600 X55.459 Y69.973
G01 F600 X55.508 Y69.823
G01 F600 X55.587 Y69.687
G01 F600 X55.692 Y69.570
G01 F600 X55.819 Y69.478
G01 F600 X55.963 Y69.414
G01 F600 X56.117 Y69.381
G01 F600 X56.274 Y69.381
G01 F600 X56.428 Y69.414
G01 F600 X56.571 Y69.478
G01 F600 X56.699 Y69.570
G01 F600 X56.804 Y69.687
G01 F600 X56.882 Y69.823
G01 F600 X56.931 Y69.973
G01 F600 X56.947 Y70.129
G01 F600 X56.931 Y70.286
G01 F600 X56.882 Y70.435
G01 F600 X56.804 Y70.572
G01 F600 X56.699 Y70.688
G01 F600 X56.571 Y70.781
G01 F600 X56.428 Y70.845
G01 F600 X56.274 Y70.878
G01 F600 X56.117 Y70.878
G00 F3000 Z2.000
G00 F3000 X53.577 Y70.878
G00 F1500 Z0
G01 F600 Z-0.100
G01 F600 X53.423 Y70.845
G01 F600 X53.279 Y70.781
G01 F600 X53.152 Y70.688
G01 F600 X53.047 Y70.572
G01 F600 X52.968 Y70.435
G01 F600 X52.919 Y70.286
G01 F600 X52.903 Y70.129
G01 F600 X52.919 Y69.973
G01 F600 X52.968 Y69.823
G01 F600 X53.047 Y69.687
G01 F600 X53.152 Y69.570
G01 F600 X53.279 Y69.478
G01 F600 X53.423 Y69.414
G01 F600 X53.577 Y69.381
G01 F600 X53.734 Y69.381
G01 F600 X53.888 Y69.414
G01 F600 X54.031 Y69.478
G01 F600 X54.159 Y69.570
G01 F600 X54.264 Y69.687
G01 F600 X54.342 Y69.823
G01 F600 X54.391 Y69.973
G01 F600 X54.407 Y70.129
G01 F600 X54.391 Y70.286
G01 F600 X54.342 Y70.435
G01 F600 X54.264 Y70.572
G01 F600 X54.159 Y70.688
G01 F600 X54.031 Y70.781
G01 F600 X53.888 Y70.845
G01 F600 X53.734 Y70.878
G01 F600 X53.577 Y70.878
G00 F3000 Z2.000
G00 F3000 X61.197 Y70.878
G00 F1500 Z0
G01 F600 Z-0.100
G01 F600 X61.043 Y70.845
G01 F600 X60.899 Y70.781
G01 F600 X60.772 Y70.688
G01 F600 X60.667 Y70.572
G01 F600 X60.588 Y70.435
G01 F600 X60.539 Y70.286
G01 F600 X60.523 Y70.129
G01 F600 X60.539 Y69.973
G01 F600 X60.588 Y69.823
G01 F600 X60.667 Y69.687
G01 F600 X60.772 Y69.570
G01 F600 X60.899 Y69.478
G01 F600 X61.043 Y69.414
G01 F600 X61.197 Y69.381
G01 F600 X61.354 Y69.381
G01 F600 X61.508 Y69.414
G01 F600 X61.651 Y69.478
G01 F600 X61.779 Y69.570
G01 F600 X61.884 Y69.687
G01 F600 X61.962 Y69.823
G01 F600 X62.011 Y69.973
G01 F600 X62.027 Y70.129
G01 F600 X62.011 Y70.286
G01 F600 X61.962 Y70.435
G01 F600 X61.884 Y70.572
G01 F600 X61.779 Y70.688
G01 F600 X61.651 Y70.781
G01 F600 X61.508 Y70.845
G01 F600 X61.354 Y70.878
G01 F600 X61.197 Y70.878
G00 F3000 Z2.000
G00 F3000 X58.657 Y70.878
G00 F1500 Z0
G01 F600 Z-0.100
G01 F600 X58.503 Y70.845
G01 F600 X58.359 Y70.781
G01 F600 X58.232 Y70.688
G01 F600 X58.127 Y70.572
G01 F600 X58.048 Y70.435
G01 F600 X57.999 Y70.286
G01 F600 X57.983 Y70.129
G01 F600 X57.999 Y69.973
G01 F600 X58.048 Y69.823
G01 F600 X58.127 Y69.687
G01 F600 X58.232 Y69.570
G01 F600 X58.359 Y69.478
G01 F600 X58.503 Y69.414
G01 F600 X58.657 Y69.381
G01 F600 X58.814 Y69.381
G01 F600 X58.968 Y69.414
G01 F600 X59.111 Y69.478
G01 F600 X59.239 Y69.570
G01 F600 X59.344 Y69.687
G01 F600 X59.422 Y69.823
G01 F600 X59.471 Y69.973
G01 F600 X59.487 Y70.129
G01 F600 X59.471 Y70.286
G01 F600 X59.422 Y70.435
G01 F600 X59.344 Y70.572
G01 F600 X59.239 Y70.688
G01 F600 X59.111 Y70.781
G01 F600 X58.968 Y70.845
G01 F600 X58.814 Y70.878
G01 F600 X58.657 Y70.878
G00 F3000 Z2.000
G00 F3000 X42.147 Y70.878
G00 F1500 Z0
G01 F600 Z-0.100
G01 F600 X41.993 Y70.845
G01 F600 X41.849 Y70.781
G01 F600 X41.722 Y70.688
G01 F600 X41.617 Y70.572
G01 F600 X41.538 Y70.435
G01 F600 X41.489 Y70.286
G01 F600 X41.473 Y70.129
G01 F600 X41.489 Y69.973
G01 F600 X41.538 Y69.823
G01 F600 X41.617 Y69.687
G01 F600 X41.722 Y69.570
G01 F600 X41.849 Y69.478
G01 F600 X41.993 Y69.414
G01 F600 X42.147 Y69.381
G01 F600 X42.304 Y69.381
G01 F600 X42.458 Y69.414
G01 F600 X42.601 Y69.478
G01 F600 X42.729 Y69.570
G01 F600 X42.834 Y69.687
G01 F600 X42.912 Y69.823
G01 F600 X42.961 Y69.973
G01 F600 X42.977 Y70.129
G01 F600 X42.961 Y70.286
G01 F600 X42.912 Y70.435
G01 F600 X42.834 Y70.572
G01 F600 X42.729 Y70.688
G01 F600 X42.601 Y70.781
G01 F600 X42.458 Y70.845
G01 F600 X42.304 Y70.878
G01 F600 X42.147 Y70.878
G00 F3000 Z2.000
G00 F3000 X39.607 Y70.878
G00 F1500 Z0
G01 F600 Z-0.100
G01 F600 X39.453 Y70.845
G01 F600 X39.309 Y70.781
G01 F600 X39.182 Y70.688
G01 F600 X39.077 Y70.572
G01 F600 X38.998 Y70.435
G01 F600 X38.949 Y70.286
G01 F600 X38.933 Y70.129
G01 F600 X38.949 Y69.973
G01 F600 X38.998 Y69.823
G01 F600 X39.077 Y69.687
G01 F600 X39.182 Y69.570
G01 F600 X39.309 Y69.478
G01 F600 X39.453 Y69.414
G01 F600 X39.607 Y69.381
G01 F600 X39.764 Y69.381
G01 F600 X39.918 Y69.414
G01 F600 X40.061 Y69.478
G01 F600 X40.189 Y69.570
G01 F600 X40.294 Y69.687
G01 F600 X40.372 Y69.823
G01 F600 X40.421 Y69.973
G01 F600 X40.437 Y70.129
G01 F600 X40.421 Y70.286
G01 F600 X40.372 Y70.435
G01 F600 X40.294 Y70.572
G01 F600 X40.189 Y70.688
G01 F600 X40.061 Y70.781
G01 F600 X39.918 Y70.845
G01 F600 X39.764 Y70.878
G01 F600 X39.607 Y70.878
G00 F3000 Z2.000
G00 F3000 X51.037 Y70.878
G00 F1500 Z0
G01 F600 Z-0.100
G01 F600 X50.883 Y70.845
G01 F600 X50.739 Y70.781
G01 F600 X50.612 Y70.688
G01 F600 X50.507 Y70.572
G01 F600 X50.428 Y70.435
G01 F600 X50.379 Y70.286
G01 F600 X50.363 Y70.129
G01 F600 X50.379 Y69.973
G01 F600 X50.428 Y69.823
G01 F600 X50.507 Y69.687
G01 F600 X50.612 Y69.570
G01 F600 X50.739 Y69.478
G01 F600 X50.883 Y69.414
G01 F600 X51.037 Y69.381
G01 F600 X51.194 Y69.381
G01 F600 X51.348 Y69.414
G01 F600 X51.491 Y69.478
G01 F600 X51.619 Y69.570
G01 F600 X51.724 Y69.687
G01 F600 X51.802 Y69.823
G01 F600 X51.851 Y69.973
G01 F600 X51.867 Y70.129
G01 F600 X51.851 Y70.286
G01 F600 X51.802 Y70.435
G01 F600 X51.724 Y70.572
G01 F600 X51.619 Y70.688
G01 F600 X51.491 Y70.781
G01 F600 X51.348 Y70.845
G01 F600 X51.194 Y70.878
G01 F600 X51.037 Y70.878
G00 F3000 Z2.000
G00 F3000 X82.787 Y70.878
G00 F1500 Z0
G01 F600 Z-0.100
G01 F600 X82.633 Y70.845
G01 F600 X82.489 Y70.781
G01 F600 X82.362 Y70.688
G01 F600 X82.257 Y70.572
G01 F600 X82.178 Y70.435
G01 F600 X82.129 Y70.286
G01 F600 X82.113 Y70.129
G01 F600 X82.129 Y69.973
G01 F600 X82.178 Y69.823
G01 F600 X82.257 Y69.687
G01 F600 X82.362 Y69.570
G01 F600 X82.489 Y69.478
G01 F600 X82.633 Y69.414
G01 F600 X82.787 Y69.381
G01 F600 X82.944 Y69.381
G01 F600 X83.098 Y69.414
G01 F600 X83.241 Y69.478
G01 F600 X83.368 Y69.570
G01 F600 X83.474 Y69.687
G01 F600 X83.552 Y69.823
G01 F600 X83.601 Y69.973
G01 F600 X83.617 Y70.129
G01 F600 X83.601 Y70.286
G01 F600 X83.552 Y70.435
G01 F600 X83.474 Y70.572
G01 F600 X83.368 Y70.688
G01 F600 X83.241 Y70.781
G01 F600 X83.098 Y70.845
G01 F600 X82.944 Y70.878
G01 F600 X82.787 Y70.878
G00 F3000 Z2.000
G00 F3000 X80.246 Y70.878
G00 F1500 Z0
G01 F600 Z-0.100
G01 F600 X80.093 Y70.845
G01 F600 X79.949 Y70.781
G01 F600 X79.822 Y70.688
G01 F600 X79.717 Y70.572
G01 F600 X79.638 Y70.435
G01 F600 X79.589 Y70.286
G01 F600 X79.573 Y70.129
G01 F600 X79.589 Y69.973
G01 F600 X79.638 Y69.823
G01 F600 X79.717 Y69.687
G01 F600 X79.822 Y69.570
G01 F600 X79.949 Y69.478
G01 F600 X80.093 Y69.414
G01 F600 X80.246 Y69.381
G01 F600 X80.404 Y69.381
G01 F600 X80.558 Y69.414
G01 F600 X80.701 Y69.478
G01 F600 X80.829 Y69.570
G01 F600 X80.934 Y69.687
G01 F600 X81.012 Y69.823
G01 F600 X81.061 Y69.973
G01 F600 X81.077 Y70.129
G01 F600 X81.061 Y70.286
G01 F600 X81.012 Y70.435
G01 F600 X80.934 Y70.572
G01 F600 X80.829 Y70.688
G01 F600 X80.701 Y70.781
G01 F600 X80.558 Y70.845
G01 F600 X80.404 Y70.878
G01 F600 X80.246 Y70.878
G00 F3000 Z2.000
G00 F3000 X87.867 Y70.878
G00 F1500 Z0
G01 F600 Z-0.100
G01 F600 X87.713 Y70.845
G01 F600 X87.569 Y70.781
G01 F600 X87.442 Y70.688
G01 F600 X87.337 Y70.572
G01 F600 X87.258 Y70.435
G01 F600 X87.209 Y70.286
G01 F600 X87.193 Y70.129
G01 F600 X87.209 Y69.973
G01 F600 X87.258 Y69.823
G01 F600 X87.337 Y69.687
G01 F600 X87.442 Y69.570
G01 F600 X87.569 Y69.478
G01 F600 X87.713 Y69.414
G01 F600 X87.867 Y69.381
G01 F600 X88.024 Y69.381
G01 F600 X88.178 Y69.414
G01 F600 X88.321 Y69.478
G01 F600 X88.449 Y69.570
G01 F600 X88.554 Y69.687
G01 F600 X88.632 Y69.823
G01 F600 X88.681 Y69.973
G01 F600 X88.697 Y70.129
G01 F600 X88.681 Y70.286
G01 F600 X88.632 Y70.435
G01 F600 X88.554 Y70.572
G01 F600 X88.449 Y70.688
G01 F600 X88.321 Y70.781
G01 F600 X88.178 Y70.845
G01 F600 X88.024 Y70.878
G01 F600 X87.867 Y70.878
G00 F3000 Z2.000
G00 F3000 X85.327 Y70.878
G00 F1500 Z0
G01 F600 Z-0.100
G01 F600 X85.173 Y70.845
G01 F600 X85.029 Y70.781
G01 F600 X84.902 Y70.688
G01 F600 X84.797 Y70.572
G01 F600 X84.718 Y70.435
G01 F600 X84.669 Y70.286
G01 F600 X84.653 Y70.129
G01 F600 X84.669 Y69.973
G01 F600 X84.718 Y69.823
G01 F600 X84.797 Y69.687
G01 F600 X84.902 Y69.570
G01 F600 X85.029 Y69.478
G01 F600 X85.173 Y69.414
G01 F600 X85.327 Y69.381
G01 F600 X85.484 Y69.381
G01 F600 X85.638 Y69.414
G01 F600 X85.781 Y69.478
G01 F600 X85.909 Y69.570
G01 F600 X86.014 Y69.687
G01 F600 X86.092 Y69.823
G01 F600 X86.141 Y69.973
G01 F600 X86.157 Y70.129
G01 F600 X86.141 Y70.286
G01 F600 X86.092 Y70.435
G01 F600 X86.014 Y70.572
G01 F600 X85.909 Y70.688
G01 F600 X85.781 Y70.781
G01 F600 X85.638 Y70.845
G01 F600 X85.484 Y70.878
G01 F600 X85.327 Y70.878
G00 F3000 Z2.000
G00 F3000 X66.276 Y70.878
G00 F1500 Z0
G01 F600 Z-0.100
G01 F600 X66.123 Y70.845
G01 F600 X65.979 Y70.781
G01 F600 X65.852 Y70.688
G01 F600 X65.746 Y70.572
G01 F600 X65.668 Y70.435
G01 F600 X65.619 Y70.286
G01 F600 X65.603 Y70.129
G01 F600 X65.619 Y69.973
G01 F600 X65.668 Y69.823
G01 F600 X65.746 Y69.687
G01 F600 X65.852 Y69.570
G01 F600 X65.979 Y69.478
G01 F600 X66.123 Y69.414
G01 F600 X66.276 Y69.381
G01 F600 X66.434 Y69.381
G01 F600 X66.588 Y69.414
G01 F600 X66.731 Y69.478
G01 F600 X66.859 Y69.570
G01 F600 X66.964 Y69.687
G01 F600 X67.042 Y69.823
G01 F600 X67.091 Y69.973
G01 F600 X67.107 Y70.129
G01 F600 X67.091 Y70.286
G01 F600 X67.042 Y70.435
G01 F600 X66.964 Y70.572
G01 F600 X66.859 Y70.688
G01 F600 X66.731 Y70.781
G01 F600 X66.588 Y70.845
G01 F600 X66.434 Y70.878
G01 F600 X66.276 Y70.878
G00 F3000 Z2.000
G00 F3000 X63.737 Y70.878
G00 F1500 Z0
G01 F600 Z-0.100
G01 F600 X63.583 Y70.845
G01 F600 X63.439 Y70.781
G01 F600 X63.312 Y70.688
G01 F600 X63.207 Y70.572
G01 F600 X63.128 Y70.435
G01 F600 X63.079 Y70.286
G01 F600 X63.063 Y70.129
G01 F600 X63.079 Y69.973
G01 F600 X63.128 Y69.823
G01 F600 X63.207 Y69.687
G01 F600 X63.312 Y69.570
G01 F600 X63.439 Y69.478
G01 F600 X63.583 Y69.414
G01 F600 X63.737 Y69.381
G01 F600 X63.894 Y69.381
G01 F600 X64.048 Y69.414
G01 F600 X64.191 Y69.478
G01 F600 X64.319 Y69.570
G01 F600 X64.424 Y69.687
G01 F600 X64.502 Y69.823
G01 F600 X64.551 Y69.973
G01 F600 X64.567 Y70.129
G01 F600 X64.551 Y70.286
G01 F600 X64.502 Y70.435
G01 F600 X64.424 Y70.572
G01 F600 X64.319 Y70.688
G01 F600 X64.191 Y70.781
G01 F600 X64.048 Y70.845
G01 F600 X63.894 Y70.878
G01 F600 X63.737 Y70.878
G00 F3000 Z2.000
G00 F3000 X77.707 Y70.878
G00 F1500 Z0
G01 F600 Z-0.100
G01 F600 X77.553 Y70.845
G01 F600 X77.409 Y70.781
G01 F600 X77.282 Y70.688
G01 F600 X77.177 Y70.572
G01 F600 X77.098 Y70.435
G01 F600 X77.049 Y70.286
G01 F600 X77.033 Y70.129
G01 F600 X77.049 Y69.973
G01 F600 X77.098 Y69.823
G01 F600 X77.177 Y69.687
G01 F600 X77.282 Y69.570
G01 F600 X77.409 Y69.478
G01 F600 X77.553 Y69.414
G01 F600 X77.707 Y69.381
G01 F600 X77.864 Y69.381
G01 F600 X78.018 Y69.414
G01 F600 X78.161 Y69.478
G01 F600 X78.288 Y69.570
G01 F600 X78.394 Y69.687
G01 F600 X78.472 Y69.823
G01 F600 X78.521 Y69.973
G01 F600 X78.537 Y70.129
G01 F600 X78.521 Y70.286
G01 F600 X78.472 Y70.435
G01 F600 X78.394 Y70.572
G01 F600 X78.288 Y70.688
G01 F600 X78.161 Y70.781
G01 F600 X78.018 Y70.845
G01 F600 X77.864 Y70.878
G01 F600 X77.707 Y70.878
G00 F3000 Z2.000
G00 F3000 X68.817 Y70.878
G00 F1500 Z0
G01 F600 Z-0.100
G01 F600 X68.663 Y70.845
G01 F600 X68.519 Y70.781
G01 F600 X68.392 Y70.688
G01 F600 X68.287 Y70.572
G01 F600 X68.208 Y70.435
G01 F600 X68.159 Y70.286
G01 F600 X68.143 Y70.129
G01 F600 X68.159 Y69.973
G01 F600 X68.208 Y69.823
G01 F600 X68.287 Y69.687
G01 F600 X68.392 Y69.570
G01 F600 X68.519 Y69.478
G01 F600 X68.641 Y69.424
G01 F600 X68.641 Y67.843
G01 F600 X45.430 Y67.843
G01 F600 X45.418 Y67.880
G01 F600 X45.343 Y68.009
G01 F600 X45.243 Y68.120
G01 F600 X45.122 Y68.208
G01 F600 X44.986 Y68.269
G01 F600 X44.840 Y68.300
G01 F600 X44.690 Y68.300
G01 F600 X44.544 Y68.269
G01 F600 X44.408 Y68.208
G01 F600 X44.287 Y68.120
G01 F600 X44.187 Y68.009
G01 F600 X44.113 Y67.880
G01 F600 X44.067 Y67.738
G01 F600 X44.051 Y67.589
G01 F600 X44.067 Y67.441
G01 F600 X44.113 Y67.299
G01 F600 X44.187 Y67.170
G01 F600 X44.287 Y67.059
G01 F600 X44.408 Y66.971
G01 F600 X44.544 Y66.910
G01 F600 X44.690 Y66.879
G01 F600 X44.840 Y66.879
G01 F600 X44.986 Y66.910
G01 F600 X45.122 Y66.971
G01 F600 X45.243 Y67.059
G01 F600 X45.343 Y67.170
G01 F600 X45.418 Y67.299
G01 F600 X45.430 Y67.336
G01 F600 X92.361 Y67.336
G01 F600 X92.373 Y67.299
G01 F600 X92.447 Y67.170
G01 F600 X92.547 Y67.059
G01 F600 X92.668 Y66.971
G01 F600 X92.804 Y66.910
G01 F600 X92.950 Y66.879
G01 F600 X93.100 Y66.879
G01 F600 X93.246 Y66.910
G01 F600 X93.382 Y66.971
G01 F600 X93.503 Y67.059
G01 F600 X93.603 Y67.170
G01 F600 X93.678 Y67.299
G01 F600 X93.724 Y67.441
G01 F600 X93.739 Y67.589
G01 F600 X93.724 Y67.738
G01 F600 X93.678 Y67.880
G01 F600 X93.603 Y68.009
G01 F600 X93.503 Y68.120
G01 F600 X93.382 Y68.208
G01 F600 X93.246 Y68.269
G01 F600 X93.100 Y68.300
G01 F600 X92.950 Y68.300
G01 F600 X92.804 Y68.269
G01 F600 X92.668 Y68.208
G01 F600 X92.547 Y68.120
G01 F600 X92.447 Y68.009
G01 F600 X92.373 Y67.880
G01 F600 X92.361 Y67.843
G01 F600 X69.149 Y67.843
G01 F600 X69.149 Y69.424
G01 F600 X69.271 Y69.478
G01 F600 X69.398 Y69.570
G01 F600 X69.504 Y69.687
G01 F600 X69.582 Y69.823
G01 F600 X69.631 Y69.973
G01 F600 X69.647 Y70.129
G01 F600 X69.631 Y70.286
G01 F600 X69.582 Y70.435
G01 F600 X69.504 Y70.572
G01 F600 X69.398 Y70.688
G01 F600 X69.271 Y70.781
G01 F600 X69.128 Y70.845
G01 F600 X68.974 Y70.878
G01 F600 X68.817 Y70.878
G00 F3000 Z2.000
G00 F3000 X75.166 Y70.878
G00 F1500 Z0
G01 F600 Z-0.100
G01 F600 X75.013 Y70.845
G01 F600 X74.869 Y70.781
G01 F600 X74.742 Y70.688
G01 F600 X74.636 Y70.572
G01 F600 X74.558 Y70.435
G01 F600 X74.509 Y70.286
G01 F600 X74.493 Y70.129
G01 F600 X74.509 Y69.973
G01 F600 X74.558 Y69.823
G01 F600 X74.636 Y69.687
G01 F600 X74.742 Y69.570
G01 F600 X74.869 Y69.478
G01 F600 X75.013 Y69.414
G01 F600 X75.166 Y69.381
G01 F600 X75.324 Y69.381
G01 F600 X75.478 Y69.414
G01 F600 X75.621 Y69.478
G01 F600 X75.749 Y69.570
G01 F600 X75.854 Y69.687
G01 F600 X75.932 Y69.823
G01 F600 X75.981 Y69.973
G01 F600 X75.997 Y70.129
G01 F600 X75.981 Y70.286
G01 F600 X75.932 Y70.435
G01 F600 X75.854 Y70.572
G01 F600 X75.749 Y70.688
G01 F600 X75.621 Y70.781
G01 F600 X75.478 Y70.845
G01 F600 X75.324 Y70.878
G01 F600 X75.166 Y70.878
G00 F3000 Z2.000
G00 F3000 X5.317 Y70.878
G00 F1500 Z0
G01 F600 Z-0.100
G01 F600 X5.163 Y70.845
G01 F600 X5.019 Y70.781
G01 F600 X4.892 Y70.688
G01 F600 X4.787 Y70.572
G01 F600 X4.708 Y70.435
G01 F600 X4.659 Y70.286
G01 F600 X4.643 Y70.129
G01 F600 X4.659 Y69.973
G01 F600 X4.708 Y69.823
G01 F600 X4.787 Y69.687
G01 F600 X4.892 Y69.570
G01 F600 X5.019 Y69.478
G01 F600 X5.163 Y69.414
G01 F600 X5.317 Y69.381
G01 F600 X5.474 Y69.381
G01 F600 X5.628 Y69.414
G01 F600 X5.771 Y69.478
G01 F600 X5.899 Y69.570
G01 F600 X6.004 Y69.687
G01 F600 X6.082 Y69.823
G01 F600 X6.131 Y69.973
G01 F600 X6.147 Y70.129
G01 F600 X6.131 Y70.286
G01 F600 X6.082 Y70.435
G01 F600 X6.004 Y70.572
G01 F600 X5.899 Y70.688
G01 F600 X5.771 Y70.781
G01 F600 X5.628 Y70.845
G01 F600 X5.474 Y70.878
G01 F600 X5.317 Y70.878
G00 F3000 Z2.000
G00 F3000 X2.776 Y70.878
G00 F1500 Z0
G01 F600 Z-0.100
G01 F600 X2.623 Y70.845
G01 F600 X2.479 Y70.781
G01 F600 X2.352 Y70.688
G01 F600 X2.247 Y70.572
G01 F600 X2.168 Y70.435
G01 F600 X2.151 Y70.383
G01 F600 X1.558 Y70.383
G01 F600 X1.506 Y70.371
G01 F600 X1.458 Y70.350
G01 F600 X1.415 Y70.319
G01 F600 X1.379 Y70.279
G01 F600 X1.353 Y70.233
G01 F600 X1.336 Y70.182
G01 F600 X1.331 Y70.135
G01 F600 X1.331 Y57.424
G01 F600 X1.336 Y57.377
G01 F600 X1.353 Y57.326
G01 F600 X1.379 Y57.280
G01 F600 X1.415 Y57.240
G01 F600 X1.458 Y57.209
G01 F600 X1.506 Y57.187
G01 F600 X1.558 Y57.176
G01 F600 X2.098 Y57.176
G01 F600 X2.121 Y57.103
G01 F600 X2.205 Y56.957
G01 F600 X2.318 Y56.833
G01 F600 X2.454 Y56.734
G01 F600 X2.607 Y56.666
G01 F600 X2.771 Y56.631
G01 F600 X2.939 Y56.631
G01 F600 X3.103 Y56.666
G01 F600 X3.257 Y56.734
G01 F600 X3.392 Y56.833
G01 F600 X3.505 Y56.957
G01 F600 X3.589 Y57.103
G01 F600 X3.613 Y57.176
G01 F600 X4.638 Y57.176
G01 F600 X4.661 Y57.103
G01 F600 X4.745 Y56.957
G01 F600 X4.858 Y56.833
G01 F600 X4.994 Y56.734
G01 F600 X5.147 Y56.666
G01 F600 X5.311 Y56.631
G01 F600 X5.479 Y56.631
G01 F600 X5.643 Y56.666
G01 F600 X5.797 Y56.734
G01 F600 X5.932 Y56.833
G01 F600 X6.045 Y56.957
G01 F600 X6.129 Y57.103
G01 F600 X6.152 Y57.176
G01 F600 X7.178 Y57.176
G01 F600 X7.201 Y57.103
G01 F600 X7.285 Y56.957
G01 F600 X7.398 Y56.833
G01 F600 X7.534 Y56.734
G01 F600 X7.687 Y56.666
G01 F600 X7.851 Y56.631
G01 F600 X8.019 Y56.631
G01 F600 X8.183 Y56.666
G01 F600 X8.337 Y56.734
G01 F600 X8.472 Y56.833
G01 F600 X8.585 Y56.957
G01 F600 X8.669 Y57.103
G01 F600 X8.693 Y57.176
G01 F600 X9.718 Y57.176
G01 F600 X9.741 Y57.103
G01 F600 X9.825 Y56.957
G01 F600 X9.938 Y56.833
G01 F600 X10.074 Y56.734
G01 F600 X10.227 Y56.666
G01 F600 X10.391 Y56.631
G01 F600 X10.559 Y56.631
G01 F600 X10.723 Y56.666
G01 F600 X10.877 Y56.734
G01 F600 X11.012 Y56.833
G01 F600 X11.125 Y56.957
G01 F600 X11.209 Y57.103
G01 F600 X11.232 Y57.176
G01 F600 X12.258 Y57.176
G01 F600 X12.281 Y57.103
G01 F600 X12.365 Y56.957
G01 F600 X12.478 Y56.833
G01 F600 X12.614 Y56.734
G01 F600 X12.767 Y56.666
G01 F600 X12.931 Y56.631
G01 F600 X13.099 Y56.631
G01 F600 X13.263 Y56.666
G01 F600 X13.417 Y56.734
G01 F600 X13.552 Y56.833
G01 F600 X13.665 Y56.957
G01 F600 X13.749 Y57.103
G01 F600 X13.773 Y57.176
G01 F600 X14.798 Y57.176
G01 F600 X14.821 Y57.103
G01 F600 X14.905 Y56.957
G01 F600 X15.018 Y56.833
G01 F600 X15.154 Y56.734
G01 F600 X15.307 Y56.666
G01 F600 X15.471 Y56.631
G01 F600 X15.639 Y56.631
G01 F600 X15.803 Y56.666
G01 F600 X15.957 Y56.734
G01 F600 X16.092 Y56.833
G01 F600 X16.205 Y56.957
G01 F600 X16.289 Y57.103
G01 F600 X16.313 Y57.176
G01 F600 X17.338 Y57.176
G01 F600 X17.361 Y57.103
G01 F600 X17.445 Y56.957
G01 F600 X17.558 Y56.833
G01 F600 X17.694 Y56.734
G01 F600 X17.847 Y56.666
G01 F600 X18.011 Y56.631
G01 F600 X18.179 Y56.631
G01 F600 X18.343 Y56.666
G01 F600 X18.497 Y56.734
G01 F600 X18.632 Y56.833
G01 F600 X18.745 Y56.957
G01 F600 X18.829 Y57.103
G01 F600 X18.852 Y57.176
G01 F600 X19.878 Y57.176
G01 F600 X19.901 Y57.103
G01 F600 X19.985 Y56.957
G01 F600 X20.098 Y56.833
G01 F600 X20.234 Y56.734
G01 F600 X20.387 Y56.666
G01 F600 X20.551 Y56.631
G01 F600 X20.719 Y56.631
G01 F600 X20.883 Y56.666
G01 F600 X21.037 Y56.734
G01 F600 X21.172 Y56.833
G01 F600 X21.285 Y56.957
G01 F600 X21.369 Y57.103
G01 F600 X21.421 Y57.262
G01 F600 X21.438 Y57.429
G01 F600 X21.421 Y57.596
G01 F600 X21.369 Y57.756
G01 F600 X21.285 Y57.901
G01 F600 X21.172 Y58.026
G01 F600 X21.037 Y58.125
G01 F600 X20.883 Y58.193
G01 F600 X20.719 Y58.228
G01 F600 X20.551 Y58.228
G01 F600 X20.387 Y58.193
G01 F600 X20.234 Y58.125
G01 F600 X20.098 Y58.026
G01 F600 X19.985 Y57.901
G01 F600 X19.901 Y57.756
G01 F600 X19.878 Y57.683
G01 F600 X18.852 Y57.683
G01 F600 X18.829 Y57.756
G01 F600 X18.745 Y57.901
G01 F600 X18.632 Y58.026
G01 F600 X18.497 Y58.125
G01 F600 X18.343 Y58.193
G01 F600 X18.179 Y58.228
G01 F600 X18.011 Y58.228
G01 F600 X17.847 Y58.193
G01 F600 X17.694 Y58.125
G01 F600 X17.558 Y58.026
G01 F600 X17.445 Y57.901
G01 F600 X17.361 Y57.756
G01 F600 X17.338 Y57.683
G01 F600 X16.313 Y57.683
G01 F600 X16.289 Y57.756
G01 F600 X16.205 Y57.901
G01 F600 X16.092 Y58.026
G01 F600 X15.957 Y58.125
G01 F600 X15.803 Y58.193
G01 F600 X15.639 Y58.228
G01 F600 X15.471 Y58.228
G01 F600 X15.307 Y58.193
G01 F600 X15.154 Y58.125
G01 F600 X15.018 Y58.026
G01 F600 X14.905 Y57.901
G01 F600 X14.821 Y57.756
G01 F600 X14.798 Y57.683
G01 F600 X13.773 Y57.683
G01 F600 X13.749 Y57.756
G01 F600 X13.665 Y57.901
G01 F600 X13.552 Y58.026
G01 F600 X13.417 Y58.125
G01 F600 X13.263 Y58.193
G01 F600 X13.099 Y58.228
G01 F600 X12.931 Y58.228
G01 F600 X12.767 Y58.193
G01 F600 X12.614 Y58.125
G01 F600 X12.478 Y58.026
G01 F600 X12.365 Y57.901
G01 F600 X12.281 Y57.756
G01 F600 X12.258 Y57.683
G01 F600 X11.232 Y57.683
G01 F600 X11.209 Y57.756
G01 F600 X11.125 Y57.901
G01 F600 X11.012 Y58.026
G01 F600 X10.877 Y58.125
G01 F600 X10.723 Y58.193
G01 F600 X10.559 Y58.228
G01 F600 X10.391 Y58.228
G01 F600 X10.227 Y58.193
G01 F600 X10.074 Y58.125
G01 F600 X9.938 Y58.026
G01 F600 X9.825 Y57.901
G01 F600 X9.741 Y57.756
G01 F600 X9.718 Y57.683
G01 F600 X8.693 Y57.683
G01 F600 X8.669 Y57.756
G01 F600 X8.585 Y57.901
G01 F600 X8.472 Y58.026
G01 F600 X8.337 Y58.125
G01 F600 X8.183 Y58.193
G01 F600 X8.019 Y58.228
G01 F600 X7.851 Y58.228
G01 F600 X7.687 Y58.193
G01 F600 X7.534 Y58.125
G01 F600 X7.398 Y58.026
G01 F600 X7.285 Y57.901
G01 F600 X7.201 Y57.756
G01 F600 X7.178 Y57.683
G01 F600 X6.152 Y57.683
G01 F600 X6.129 Y57.756
G01 F600 X6.045 Y57.901
G01 F600 X5.932 Y58.026
G01 F600 X5.797 Y58.125
G01 F600 X5.643 Y58.193
G01 F600 X5.479 Y58.228
G01 F600 X5.311 Y58.228
G01 F600 X5.147 Y58.193
G01 F600 X4.994 Y58.125
G01 F600 X4.858 Y58.026
G01 F600 X4.745 Y57.901
G01 F600 X4.661 Y57.756
G01 F600 X4.638 Y57.683
G01 F600 X3.613 Y57.683
G01 F600 X3.589 Y57.756
G01 F600 X3.505 Y57.901
G01 F600 X3.392 Y58.026
G01 F600 X3.257 Y58.125
G01 F600 X3.103 Y58.193
G01 F600 X2.939 Y58.228
G01 F600 X2.771 Y58.228
G01 F600 X2.607 Y58.193
G01 F600 X2.454 Y58.125
G01 F600 X2.318 Y58.026
G01 F600 X2.205 Y57.901
G01 F600 X2.121 Y57.756
G01 F600 X2.098 Y57.683
G01 F600 X1.839 Y57.683
G01 F600 X1.839 Y69.876
G01 F600 X2.151 Y69.876
G01 F600 X2.168 Y69.823
G01 F600 X2.247 Y69.687
G01 F600 X2.352 Y69.570
G01 F600 X2.479 Y69.478
G01 F600 X2.623 Y69.414
G01 F600 X2.776 Y69.381
G01 F600 X2.934 Y69.381
G01 F600 X3.088 Y69.414
G01 F600 X3.231 Y69.478
G01 F600 X3.359 Y69.570
G01 F600 X3.464 Y69.687
G01 F600 X3.542 Y69.823
G01 F600 X3.591 Y69.973
G01 F600 X3.607 Y70.129
G01 F600 X3.591 Y70.286
G01 F600 X3.542 Y70.435
G01 F600 X3.464 Y70.572
G01 F600 X3.359 Y70.688
G01 F600 X3.231 Y70.781
G01 F600 X3.088 Y70.845
G01 F600 X2.934 Y70.878
G01 F600 X2.776 Y70.878
G00 F3000 Z2.000
G00 F3000 X10.396 Y70.878
G00 F1500 Z0
G01 F600 Z-0.100
G01 F600 X10.243 Y70.845
G01 F600 X10.099 Y70.781
G01 F600 X9.972 Y70.688
G01 F600 X9.867 Y70.572
G01 F600 X9.788 Y70.435
G01 F600 X9.739 Y70.286
G01 F600 X9.723 Y70.129
G01 F600 X9.739 Y69.973
G01 F600 X9.788 Y69.823
G01 F600 X9.867 Y69.687
G01 F600 X9.972 Y69.570
G01 F600 X10.099 Y69.478
G01 F600 X10.243 Y69.414
G01 F600 X10.396 Y69.381
G01 F600 X10.554 Y69.381
G01 F600 X10.708 Y69.414
G01 F600 X10.851 Y69.478
G01 F600 X10.979 Y69.570
G01 F600 X11.084 Y69.687
G01 F600 X11.162 Y69.823
G01 F600 X11.211 Y69.973
G01 F600 X11.227 Y70.129
G01 F600 X11.211 Y70.286
G01 F600 X11.162 Y70.435
G01 F600 X11.084 Y70.572
G01 F600 X10.979 Y70.688
G01 F600 X10.851 Y70.781
G01 F600 X10.708 Y70.845
G01 F600 X10.554 Y70.878
G01 F600 X10.396 Y70.878
G00 F3000 Z2.000
G00 F3000 X7.857 Y70.878
G00 F1500 Z0
G01 F600 Z-0.100
G01 F600 X7.703 Y70.845
G01 F600 X7.559 Y70.781
G01 F600 X7.432 Y70.688
G01 F600 X7.327 Y70.572
G01 F600 X7.248 Y70.435
G01 F600 X7.199 Y70.286
G01 F600 X7.183 Y70.129
G01 F600 X7.199 Y69.973
G01 F600 X7.248 Y69.823
G01 F600 X7.327 Y69.687
G01 F600 X7.432 Y69.570
G01 F600 X7.559 Y69.478
G01 F600 X7.703 Y69.414
G01 F600 X7.857 Y69.381
G01 F600 X8.014 Y69.381
G01 F600 X8.168 Y69.414
G01 F600 X8.311 Y69.478
G01 F600 X8.439 Y69.570
G01 F600 X8.544 Y69.687
G01 F600 X8.622 Y69.823
G01 F600 X8.671 Y69.973
G01 F600 X8.687 Y70.129
G01 F600 X8.671 Y70.286
G01 F600 X8.622 Y70.435
G01 F600 X8.544 Y70.572
G01 F600 X8.439 Y70.688
G01 F600 X8.311 Y70.781
G01 F600 X8.168 Y70.845
G01 F600 X8.014 Y70.878
G01 F600 X7.857 Y70.878
G00 F3000 Z2.000
G00 F3000 X31.987 Y70.878
G00 F1500 Z0
G01 F600 Z-0.100
G01 F600 X31.833 Y70.845
G01 F600 X31.689 Y70.781
G01 F600 X31.562 Y70.688
G01 F600 X31.457 Y70.572
G01 F600 X31.378 Y70.435
G01 F600 X31.329 Y70.286
G01 F600 X31.313 Y70.129
G01 F600 X31.329 Y69.973
G01 F600 X31.378 Y69.823
G01 F600 X31.457 Y69.687
G01 F600 X31.562 Y69.570
G01 F600 X31.689 Y69.478
G01 F600 X31.833 Y69.414
G01 F600 X31.987 Y69.381
G01 F600 X32.144 Y69.381
G01 F600 X32.298 Y69.414
G01 F600 X32.441 Y69.478
G01 F600 X32.569 Y69.570
G01 F600 X32.674 Y69.687
G01 F600 X32.752 Y69.823
G01 F600 X32.801 Y69.973
G01 F600 X32.817 Y70.129
G01 F600 X32.801 Y70.286
G01 F600 X32.752 Y70.435
G01 F600 X32.674 Y70.572
G01 F600 X32.569 Y70.688
G01 F600 X32.441 Y70.781
G01 F600 X32.298 Y70.845
G01 F600 X32.144 Y70.878
G01 F600 X31.987 Y70.878
G00 F3000 Z2.000
G00 F3000 X29.447 Y70.878
G00 F1500 Z0
G01 F600 Z-0.100
G01 F600 X29.293 Y70.845
G01 F600 X29.149 Y70.781
G01 F600 X29.022 Y70.688
G01 F600 X28.917 Y70.572
G01 F600 X28.838 Y70.435
G01 F600 X28.789 Y70.286
G01 F600 X28.773 Y70.129
G01 F600 X28.789 Y69.973
G01 F600 X28.838 Y69.823
G01 F600 X28.917 Y69.687
G01 F600 X29.022 Y69.570
G01 F600 X29.149 Y69.478
G01 F600 X29.293 Y69.414
G01 F600 X29.447 Y69.381
G01 F600 X29.604 Y69.381
G01 F600 X29.758 Y69.414
G01 F600 X29.901 Y69.478
G01 F600 X30.029 Y69.570
G01 F600 X30.134 Y69.687
G01 F600 X30.212 Y69.823
G01 F600 X30.261 Y69.973
G01 F600 X30.277 Y70.129
G01 F600 X30.261 Y70.286
G01 F600 X30.212 Y70.435
G01 F600 X30.134 Y70.572
G01 F600 X30.029 Y70.688
G01 F600 X29.901 Y70.781
G01 F600 X29.758 Y70.845
G01 F600 X29.604 Y70.878
G01 F600 X29.447 Y70.878
G00 F3000 Z2.000
G00 F3000 X37.067 Y70.878
G00 F1500 Z0
G01 F600 Z-0.100
G01 F600 X36.913 Y70.845
G01 F600 X36.769 Y70.781
G01 F600 X36.642 Y70.688
G01 F600 X36.537 Y70.572
G01 F600 X36.458 Y70.435
G01 F600 X36.409 Y70.286
G01 F600 X36.393 Y70.129
G01 F600 X36.409 Y69.973
G01 F600 X36.458 Y69.823
G01 F600 X36.537 Y69.687
G01 F600 X36.642 Y69.570
G01 F600 X36.769 Y69.478
G01 F600 X36.913 Y69.414
G01 F600 X37.067 Y69.381
G01 F600 X37.224 Y69.381
G01 F600 X37.378 Y69.414
G01 F600 X37.521 Y69.478
G01 F600 X37.648 Y69.570
G01 F600 X37.754 Y69.687
G01 F600 X37.832 Y69.823
G01 F600 X37.881 Y69.973
G01 F600 X37.897 Y70.129
G01 F600 X37.881 Y70.286
G01 F600 X37.832 Y70.435
G01 F600 X37.754 Y70.572
G01 F600 X37.648 Y70.688
G01 F600 X37.521 Y70.781
G01 F600 X37.378 Y70.845
G01 F600 X37.224 Y70.878
G01 F600 X37.067 Y70.878
G00 F3000 Z2.000
G00 F3000 X34.526 Y70.878
G00 F1500 Z0
G01 F600 Z-0.100
G01 F600 X34.373 Y70.845
G01 F600 X34.229 Y70.781
G01 F600 X34.102 Y70.688
G01 F600 X33.997 Y70.572
G01 F600 X33.918 Y70.435
G01 F600 X33.869 Y70.286
G01 F600 X33.853 Y70.129
G01 F600 X33.869 Y69.973
G01 F600 X33.918 Y69.823
G01 F600 X33.997 Y69.687
G01 F600 X34.102 Y69.570
G01 F600 X34.229 Y69.478
G01 F600 X34.373 Y69.414
G01 F600 X34.526 Y69.381
G01 F600 X34.684 Y69.381
G01 F600 X34.838 Y69.414
G01 F600 X34.981 Y69.478
G01 F600 X35.108 Y69.570
G01 F600 X35.214 Y69.687
G01 F600 X35.292 Y69.823
G01 F600 X35.341 Y69.973
G01 F600 X35.357 Y70.129
G01 F600 X35.341 Y70.286
G01 F600 X35.292 Y70.435
G01 F600 X35.214 Y70.572
G01 F600 X35.108 Y70.688
G01 F600 X34.981 Y70.781
G01 F600 X34.838 Y70.845
G01 F600 X34.684 Y70.878
G01 F600 X34.526 Y70.878
G00 F3000 Z2.000
G00 F3000 X12.937 Y70.878
G00 F1500 Z0
G01 F600 Z-0.100
G01 F600 X12.783 Y70.845
G01 F600 X12.639 Y70.781
G01 F600 X12.512 Y70.688
G01 F600 X12.407 Y70.572
G01 F600 X12.328 Y70.435
G01 F600 X12.279 Y70.286
G01 F600 X12.263 Y70.129
G01 F600 X12.279 Y69.973
G01 F600 X12.328 Y69.823
G01 F600 X12.407 Y69.687
G01 F600 X12.512 Y69.570
G01 F600 X12.639 Y69.478
G01 F600 X12.783 Y69.414
G01 F600 X12.937 Y69.381
G01 F600 X13.094 Y69.381
G01 F600 X13.248 Y69.414
G01 F600 X13.391 Y69.478
G01 F600 X13.519 Y69.570
G01 F600 X13.624 Y69.687
G01 F600 X13.702 Y69.823
G01 F600 X13.751 Y69.973
G01 F600 X13.767 Y70.129
G01 F600 X13.751 Y70.286
G01 F600 X13.702 Y70.435
G01 F600 X13.624 Y70.572
G01 F600 X13.519 Y70.688
G01 F600 X13.391 Y70.781
G01 F600 X13.248 Y70.845
G01 F600 X13.094 Y70.878
G01 F600 X12.937 Y70.878
G00 F3000 Z2.000
G00 F3000 X26.907 Y70.878
G00 F1500 Z0
G01 F600 Z-0.100
G01 F600 X26.753 Y70.845
G01 F600 X26.609 Y70.781
G01 F600 X26.482 Y70.688
G01 F600 X26.377 Y70.572
G01 F600 X26.298 Y70.435
G01 F600 X26.249 Y70.286
G01 F600 X26.233 Y70.129
G01 F600 X26.249 Y69.973
G01 F600 X26.298 Y69.823
G01 F600 X26.377 Y69.687
G01 F600 X26.482 Y69.570
G01 F600 X26.609 Y69.478
G01 F600 X26.753 Y69.414
G01 F600 X26.907 Y69.381
G01 F600 X27.064 Y69.381
G01 F600 X27.218 Y69.414
G01 F600 X27.361 Y69.478
G01 F600 X27.489 Y69.570
G01 F600 X27.594 Y69.687
G01 F600 X27.672 Y69.823
G01 F600 X27.721 Y69.973
G01 F600 X27.737 Y70.129
G01 F600 X27.721 Y70.286
G01 F600 X27.672 Y70.435
G01 F600 X27.594 Y70.572
G01 F600 X27.489 Y70.688
G01 F600 X27.361 Y70.781
G01 F600 X27.218 Y70.845
G01 F600 X27.064 Y70.878
G01 F600 X26.907 Y70.878
G00 F3000 Z2.000
G00 F3000 X18.017 Y70.878
G00 F1500 Z0
G01 F600 Z-0.100
G01 F600 X17.863 Y70.845
G01 F600 X17.719 Y70.781
G01 F600 X17.592 Y70.688
G01 F600 X17.486 Y70.572
G01 F600 X17.408 Y70.435
G01 F600 X17.359 Y70.286
G01 F600 X17.343 Y70.129
G01 F600 X17.359 Y69.973
G01 F600 X17.408 Y69.823
G01 F600 X17.486 Y69.687
G01 F600 X17.592 Y69.570
G01 F600 X17.719 Y69.478
G01 F600 X17.863 Y69.414
G01 F600 X18.017 Y69.381
G01 F600 X18.174 Y69.381
G01 F600 X18.328 Y69.414
G01 F600 X18.471 Y69.478
G01 F600 X18.599 Y69.570
G01 F600 X18.704 Y69.687
G01 F600 X18.782 Y69.823
G01 F600 X18.831 Y69.973
G01 F600 X18.847 Y70.129
G01 F600 X18.831 Y70.286
G01 F600 X18.782 Y70.435
G01 F600 X18.704 Y70.572
G01 F600 X18.599 Y70.688
G01 F600 X18.471 Y70.781
G01 F600 X18.328 Y70.845
G01 F600 X18.174 Y70.878
G01 F600 X18.017 Y70.878
G00 F3000 Z2.000
G00 F3000 X92.947 Y70.878
G00 F1500 Z0
G01 F600 Z-0.100
G01 F600 X92.793 Y70.845
G01 F600 X92.649 Y70.781
G01 F600 X92.522 Y70.688
G01 F600 X92.416 Y70.572
G01 F600 X92.338 Y70.435
G01 F600 X92.289 Y70.286
G01 F600 X92.273 Y70.129
G01 F600 X92.289 Y69.973
G01 F600 X92.338 Y69.823
G01 F600 X92.416 Y69.687
G01 F600 X92.522 Y69.570
G01 F600 X92.649 Y69.478
G01 F600 X92.793 Y69.414
G01 F600 X92.947 Y69.381
G01 F600 X93.104 Y69.381
G01 F600 X93.258 Y69.414
G01 F600 X93.401 Y69.478
G01 F600 X93.529 Y69.570
G01 F600 X93.634 Y69.687
G01 F600 X93.712 Y69.823
G01 F600 X93.761 Y69.973
G01 F600 X93.777 Y70.129
G01 F600 X93.761 Y70.286
G01 F600 X93.712 Y70.435
G01 F600 X93.634 Y70.572
G01 F600 X93.529 Y70.688
G01 F600 X93.401 Y70.781
G01 F600 X93.258 Y70.845
G01 F600 X93.104 Y70.878
G01 F600 X92.947 Y70.878
G00 F3000 Z2.000
G00 F3000 X90.407 Y70.878
G00 F1500 Z0
G01 F600 Z-0.100
G01 F600 X90.253 Y70.845
G01 F600 X90.109 Y70.781
G01 F600 X89.982 Y70.688
G01 F600 X89.877 Y70.572
G01 F600 X89.798 Y70.435
G01 F600 X89.749 Y70.286
G01 F600 X89.733 Y70.129
G01 F600 X89.749 Y69.973
G01 F600 X89.798 Y69.823
G01 F600 X89.877 Y69.687
G01 F600 X89.982 Y69.570
G01 F600 X90.109 Y69.478
G01 F600 X90.231 Y69.424
G01 F600 X90.231 Y68.854
G01 F600 X90.236 Y68.806
G01 F600 X90.252 Y68.756
G01 F600 X90.279 Y68.710
G01 F600 X90.315 Y68.670
G01 F600 X90.358 Y68.639
G01 F600 X90.406 Y68.617
G01 F600 X90.459 Y68.606
G01 F600 X95.311 Y68.606
G01 F600 X95.311 Y61.904
G01 F600 X95.208 Y61.858
G01 F600 X95.087 Y61.770
G01 F600 X94.987 Y61.659
G01 F600 X94.913 Y61.530
G01 F600 X94.867 Y61.388
G01 F600 X94.851 Y61.239
G01 F600 X94.867 Y61.091
G01 F600 X94.913 Y60.949
G01 F600 X94.987 Y60.820
G01 F600 X95.087 Y60.709
G01 F600 X95.208 Y60.621
G01 F600 X95.344 Y60.560
G01 F600 X95.490 Y60.529
G01 F600 X95.640 Y60.529
G01 F600 X95.786 Y60.560
G01 F600 X95.922 Y60.621
G01 F600 X96.043 Y60.709
G01 F600 X96.143 Y60.820
G01 F600 X96.218 Y60.949
G01 F600 X96.264 Y61.091
G01 F600 X96.279 Y61.239
G01 F600 X96.264 Y61.388
G01 F600 X96.218 Y61.530
G01 F600 X96.143 Y61.659
G01 F600 X96.043 Y61.770
G01 F600 X95.922 Y61.858
G01 F600 X95.819 Y61.904
G01 F600 X95.819 Y68.865
G01 F600 X95.814 Y68.912
G01 F600 X95.798 Y68.963
G01 F600 X95.771 Y69.009
G01 F600 X95.735 Y69.049
G01 F600 X95.692 Y69.080
G01 F600 X95.644 Y69.102
G01 F600 X95.592 Y69.113
G01 F600 X90.739 Y69.113
G01 F600 X90.739 Y69.424
G01 F600 X90.861 Y69.478
G01 F600 X90.989 Y69.570
G01 F600 X91.094 Y69.687
G01 F600 X91.172 Y69.823
G01 F600 X91.221 Y69.973
G01 F600 X91.237 Y70.129
G01 F600 X91.221 Y70.286
G01 F600 X91.172 Y70.435
G01 F600 X91.094 Y70.572
G01 F600 X90.989 Y70.688
G01 F600 X90.861 Y70.781
G01 F600 X90.718 Y70.845
G01 F600 X90.564 Y70.878
G01 F600 X90.407 Y70.878
G00 F3000 Z2.000
G00 F3000 X43.420 Y69.570
G00 F1500 Z0
G01 F600 Z-0.100
G01 F600 X43.274 Y69.539
G01 F600 X43.138 Y69.478
G01 F600 X43.017 Y69.390
G01 F600 X42.917 Y69.279
G01 F600 X42.843 Y69.150
G01 F600 X42.831 Y69.113
G01 F600 X7.909 Y69.113
G01 F600 X7.856 Y69.102
G01 F600 X7.808 Y69.080
G01 F600 X7.765 Y69.049
G01 F600 X7.729 Y69.009
G01 F600 X7.703 Y68.963
G01 F600 X7.686 Y68.912
G01 F600 X7.681 Y68.865
G01 F600 X7.681 Y63.215
G01 F600 X7.559 Y63.161
G01 F600 X7.432 Y63.068
G01 F600 X7.327 Y62.952
G01 F600 X7.248 Y62.815
G01 F600 X7.199 Y62.666
G01 F600 X7.183 Y62.509
G01 F600 X7.199 Y62.353
G01 F600 X7.248 Y62.203
G01 F600 X7.327 Y62.067
G01 F600 X7.432 Y61.950
G01 F600 X7.559 Y61.858
G01 F600 X7.703 Y61.794
G01 F600 X7.857 Y61.761
G01 F600 X8.014 Y61.761
G01 F600 X8.168 Y61.794
G01 F600 X8.311 Y61.858
G01 F600 X8.439 Y61.950
G01 F600 X8.544 Y62.067
G01 F600 X8.622 Y62.203
G01 F600 X8.671 Y62.353
G01 F600 X8.687 Y62.509
G01 F600 X8.671 Y62.666
G01 F600 X8.622 Y62.815
G01 F600 X8.544 Y62.952
G01 F600 X8.439 Y63.068
G01 F600 X8.311 Y63.161
G01 F600 X8.189 Y63.215
G01 F600 X8.189 Y68.606
G01 F600 X42.831 Y68.606
G01 F600 X42.843 Y68.569
G01 F600 X42.917 Y68.440
G01 F600 X43.017 Y68.329
G01 F600 X43.138 Y68.241
G01 F600 X43.274 Y68.180
G01 F600 X43.420 Y68.149
G01 F600 X43.570 Y68.149
G01 F600 X43.716 Y68.180
G01 F600 X43.852 Y68.241
G01 F600 X43.973 Y68.329
G01 F600 X44.073 Y68.440
G01 F600 X44.148 Y68.569
G01 F600 X44.194 Y68.711
G01 F600 X44.209 Y68.859
G01 F600 X44.194 Y69.008
G01 F600 X44.148 Y69.150
G01 F600 X44.073 Y69.279
G01 F600 X43.973 Y69.390
G01 F600 X43.852 Y69.478
G01 F600 X43.716 Y69.539
G01 F600 X43.570 Y69.570
G01 F600 X43.420 Y69.570
G00 F3000 Z2.000
G00 F3000 X18.020 Y68.300
G00 F1500 Z0
G01 F600 Z-0.100
G01 F600 X17.874 Y68.269
G01 F600 X17.738 Y68.208
G01 F600 X17.617 Y68.120
G01 F600 X17.517 Y68.009
G01 F600 X17.443 Y67.880
G01 F600 X17.396 Y67.738
G01 F600 X17.381 Y67.589
G01 F600 X17.396 Y67.441
G01 F600 X17.443 Y67.299
G01 F600 X17.517 Y67.170
G01 F600 X17.617 Y67.059
G01 F600 X17.738 Y66.971
G01 F600 X17.874 Y66.910
G01 F600 X18.020 Y66.879
G01 F600 X18.170 Y66.879
G01 F600 X18.316 Y66.910
G01 F600 X18.452 Y66.971
G01 F600 X18.573 Y67.059
G01 F600 X18.673 Y67.170
G01 F600 X18.748 Y67.299
G01 F600 X18.760 Y67.336
G01 F600 X41.561 Y67.336
G01 F600 X41.573 Y67.299
G01 F600 X41.647 Y67.170
G01 F600 X41.747 Y67.059
G01 F600 X41.868 Y66.971
G01 F600 X42.004 Y66.910
G01 F600 X42.150 Y66.879
G01 F600 X42.300 Y66.879
G01 F600 X42.446 Y66.910
G01 F600 X42.582 Y66.971
G01 F600 X42.703 Y67.059
G01 F600 X42.803 Y67.170
G01 F600 X42.878 Y67.299
G01 F600 X42.924 Y67.441
G01 F600 X42.939 Y67.589
G01 F600 X42.924 Y67.738
G01 F600 X42.878 Y67.880
G01 F600 X42.803 Y68.009
G01 F600 X42.703 Y68.120
G01 F600 X42.582 Y68.208
G01 F600 X42.446 Y68.269
G01 F600 X42.300 Y68.300
G01 F600 X42.150 Y68.300
G01 F600 X42.004 Y68.269
G01 F600 X41.868 Y68.208
G01 F600 X41.747 Y68.120
G01 F600 X41.647 Y68.009
G01 F600 X41.573 Y67.880
G01 F600 X41.561 Y67.843
G01 F600 X18.760 Y67.843
G01 F600 X18.748 Y67.880
G01 F600 X18.673 Y68.009
G01 F600 X18.573 Y68.120
G01 F600 X18.452 Y68.208
G01 F600 X18.316 Y68.269
G01 F600 X18.170 Y68.300
G01 F600 X18.020 Y68.300
G00 F3000 Z2.000
G00 F3000 X66.280 Y67.030
G00 F1500 Z0
G01 F600 Z-0.100
G01 F600 X66.134 Y66.999
G01 F600 X65.998 Y66.938
G01 F600 X65.877 Y66.850
G01 F600 X65.777 Y66.739
G01 F600 X65.703 Y66.610
G01 F600 X65.657 Y66.468
G01 F600 X65.641 Y66.319
G01 F600 X65.657 Y66.171
G01 F600 X65.703 Y66.029
G01 F600 X65.777 Y65.900
G01 F600 X65.877 Y65.789
G01 F600 X65.998 Y65.701
G01 F600 X66.134 Y65.640
G01 F600 X66.280 Y65.609
G01 F600 X66.430 Y65.609
G01 F600 X66.576 Y65.640
G01 F600 X66.712 Y65.701
G01 F600 X66.833 Y65.789
G01 F600 X66.933 Y65.900
G01 F600 X67.008 Y66.029
G01 F600 X67.020 Y66.066
G01 F600 X89.821 Y66.066
G01 F600 X89.833 Y66.029
G01 F600 X89.907 Y65.900
G01 F600 X90.007 Y65.789
G01 F600 X90.128 Y65.701
G01 F600 X90.264 Y65.640
G01 F600 X90.410 Y65.609
G01 F600 X90.560 Y65.609
G01 F600 X90.706 Y65.640
G01 F600 X90.842 Y65.701
G01 F600 X90.963 Y65.789
G01 F600 X91.063 Y65.900
G01 F600 X91.138 Y66.029
G01 F600 X91.184 Y66.171
G01 F600 X91.199 Y66.319
G01 F600 X91.184 Y66.468
G01 F600 X91.138 Y66.610
G01 F600 X91.063 Y66.739
G01 F600 X90.963 Y66.850
G01 F600 X90.842 Y66.938
G01 F600 X90.706 Y66.999
G01 F600 X90.560 Y67.030
G01 F600 X90.410 Y67.030
G01 F600 X90.264 Y66.999
G01 F600 X90.128 Y66.938
G01 F600 X90.007 Y66.850
G01 F600 X89.907 Y66.739
G01 F600 X89.833 Y66.610
G01 F600 X89.821 Y66.573
G01 F600 X67.020 Y66.573
G01 F600 X67.008 Y66.610
G01 F600 X66.933 Y66.739
G01 F600 X66.833 Y66.850
G01 F600 X66.712 Y66.938
G01 F600 X66.576 Y66.999
G01 F600 X66.430 Y67.030
G01 F600 X66.280 Y67.030
G00 F3000 Z2.000
G00 F3000 X63.740 Y65.760
G00 F1500 Z0
G01 F600 Z-0.100
G01 F600 X63.594 Y65.729
G01 F600 X63.458 Y65.668
G01 F600 X63.337 Y65.580
G01 F600 X63.237 Y65.469
G01 F600 X63.163 Y65.340
G01 F600 X63.151 Y65.303
G01 F600 X32.038 Y65.303
G01 F600 X31.986 Y65.291
G01 F600 X31.938 Y65.270
G01 F600 X31.895 Y65.239
G01 F600 X31.859 Y65.199
G01 F600 X31.833 Y65.153
G01 F600 X31.816 Y65.102
G01 F600 X31.811 Y65.055
G01 F600 X31.811 Y63.215
G01 F600 X31.689 Y63.161
G01 F600 X31.562 Y63.068
G01 F600 X31.457 Y62.952
G01 F600 X31.378 Y62.815
G01 F600 X31.329 Y62.666
G01 F600 X31.313 Y62.509
G01 F600 X31.329 Y62.353
G01 F600 X31.378 Y62.203
G01 F600 X31.457 Y62.067
G01 F600 X31.562 Y61.950
G01 F600 X31.689 Y61.858
G01 F600 X31.833 Y61.794
G01 F600 X31.987 Y61.761
G01 F600 X32.144 Y61.761
G01 F600 X32.298 Y61.794
G01 F600 X32.441 Y61.858
G01 F600 X32.569 Y61.950
G01 F600 X32.674 Y62.067
G01 F600 X32.752 Y62.203
G01 F600 X32.801 Y62.353
G01 F600 X32.817 Y62.509
G01 F600 X32.801 Y62.666
G01 F600 X32.752 Y62.815
G01 F600 X32.674 Y62.952
G01 F600 X32.569 Y63.068
G01 F600 X32.441 Y63.161
G01 F600 X32.319 Y63.215
G01 F600 X32.319 Y64.796
G01 F600 X63.151 Y64.796
G01 F600 X63.163 Y64.759
G01 F600 X63.237 Y64.630
G01 F600 X63.337 Y64.519
G01 F600 X63.458 Y64.431
G01 F600 X63.594 Y64.370
G01 F600 X63.740 Y64.339
G01 F600 X63.890 Y64.339
G01 F600 X64.036 Y64.370
G01 F600 X64.172 Y64.431
G01 F600 X64.293 Y64.519
G01 F600 X64.393 Y64.630
G01 F600 X64.468 Y64.759
G01 F600 X64.514 Y64.901
G01 F600 X64.529 Y65.049
G01 F600 X64.514 Y65.198
G01 F600 X64.468 Y65.340
G01 F600 X64.393 Y65.469
G01 F600 X64.293 Y65.580
G01 F600 X64.172 Y65.668
G01 F600 X64.036 Y65.729
G01 F600 X63.890 Y65.760
G01 F600 X63.740 Y65.760
G00 F3000 Z2.000
G00 F3000 X89.140 Y64.490
G00 F1500 Z0
G01 F600 Z-0.100
G01 F600 X88.994 Y64.459
G01 F600 X88.858 Y64.398
G01 F600 X88.737 Y64.310
G01 F600 X88.637 Y64.199
G01 F600 X88.563 Y64.070
G01 F600 X88.551 Y64.033
G01 F600 X56.169 Y64.033
G01 F600 X56.116 Y64.022
G01 F600 X56.068 Y64.000
G01 F600 X56.025 Y63.969
G01 F600 X55.989 Y63.929
G01 F600 X55.963 Y63.883
G01 F600 X55.946 Y63.832
G01 F600 X55.941 Y63.785
G01 F600 X55.941 Y63.215
G01 F600 X55.819 Y63.161
G01 F600 X55.692 Y63.068
G01 F600 X55.587 Y62.952
G01 F600 X55.508 Y62.815
G01 F600 X55.459 Y62.666
G01 F600 X55.443 Y62.509
G01 F600 X55.459 Y62.353
G01 F600 X55.508 Y62.203
G01 F600 X55.587 Y62.067
G01 F600 X55.692 Y61.950
G01 F600 X55.819 Y61.858
G01 F600 X55.963 Y61.794
G01 F600 X56.117 Y61.761
G01 F600 X56.274 Y61.761
G01 F600 X56.428 Y61.794
G01 F600 X56.571 Y61.858
G01 F600 X56.699 Y61.950
G01 F600 X56.804 Y62.067
G01 F600 X56.882 Y62.203
G01 F600 X56.931 Y62.353
G01 F600 X56.947 Y62.509
G01 F600 X56.931 Y62.666
G01 F600 X56.882 Y62.815
G01 F600 X56.804 Y62.952
G01 F600 X56.699 Y63.068
G01 F600 X56.571 Y63.161
G01 F600 X56.449 Y63.215
G01 F600 X56.449 Y63.526
G01 F600 X88.551 Y63.526
G01 F600 X88.563 Y63.489
G01 F600 X88.637 Y63.360
G01 F600 X88.737 Y63.249
G01 F600 X88.858 Y63.161
G01 F600 X88.994 Y63.100
G01 F600 X89.140 Y63.069
G01 F600 X89.290 Y63.069
G01 F600 X89.436 Y63.100
G01 F600 X89.572 Y63.161
G01 F600 X89.693 Y63.249
G01 F600 X89.793 Y63.360
G01 F600 X89.868 Y63.489
G01 F600 X89.914 Y63.631
G01 F600 X89.929 Y63.779
G01 F600 X89.914 Y63.928
G01 F600 X89.868 Y64.070
G01 F600 X89.793 Y64.199
G01 F600 X89.693 Y64.310
G01 F600 X89.572 Y64.398
G01 F600 X89.436 Y64.459
G01 F600 X89.290 Y64.490
G01 F600 X89.140 Y64.490
G00 F3000 Z2.000
G00 F3000 X91.680 Y64.490
G00 F1500 Z0
G01 F600 Z-0.100
G01 F600 X91.534 Y64.459
G01 F600 X91.398 Y64.398
G01 F600 X91.277 Y64.310
G01 F600 X91.177 Y64.199
G01 F600 X91.103 Y64.070
G01 F600 X91.056 Y63.928
G01 F600 X91.041 Y63.779
G01 F600 X91.056 Y63.631
G01 F600 X91.103 Y63.489
G01 F600 X91.177 Y63.360
G01 F600 X91.277 Y63.249
G01 F600 X91.398 Y63.161
G01 F600 X91.501 Y63.115
G01 F600 X91.501 Y56.824
G01 F600 X91.398 Y56.778
G01 F600 X91.277 Y56.690
G01 F600 X91.177 Y56.579
G01 F600 X91.103 Y56.450
G01 F600 X91.056 Y56.308
G01 F600 X91.041 Y56.159
G01 F600 X91.056 Y56.011
G01 F600 X91.103 Y55.869
G01 F600 X91.177 Y55.740
G01 F600 X91.277 Y55.629
G01 F600 X91.398 Y55.541
G01 F600 X91.534 Y55.480
G01 F600 X91.680 Y55.449
G01 F600 X91.830 Y55.449
G01 F600 X91.976 Y55.480
G01 F600 X92.112 Y55.541
G01 F600 X92.233 Y55.629
G01 F600 X92.333 Y55.740
G01 F600 X92.407 Y55.869
G01 F600 X92.454 Y56.011
G01 F600 X92.469 Y56.159
G01 F600 X92.454 Y56.308
G01 F600 X92.407 Y56.450
G01 F600 X92.333 Y56.579
G01 F600 X92.233 Y56.690
G01 F600 X92.112 Y56.778
G01 F600 X92.009 Y56.824
G01 F600 X92.009 Y63.115
G01 F600 X92.112 Y63.161
G01 F600 X92.233 Y63.249
G01 F600 X92.333 Y63.360
G01 F600 X92.407 Y63.489
G01 F600 X92.454 Y63.631
G01 F600 X92.469 Y63.779
G01 F600 X92.454 Y63.928
G01 F600 X92.407 Y64.070
G01 F600 X92.333 Y64.199
G01 F600 X92.233 Y64.310
G01 F600 X92.112 Y64.398
G01 F600 X91.976 Y64.459
G01 F600 X91.830 Y64.490
G01 F600 X91.680 Y64.490
G00 F3000 Z2.000
G00 F3000 X23.090 Y63.321
G00 F1500 Z0
G01 F600 Z-0.100
G01 F600 X22.923 Y63.285
G01 F600 X22.767 Y63.216
G01 F600 X22.629 Y63.116
G01 F600 X22.515 Y62.989
G01 F600 X22.430 Y62.841
G01 F600 X22.404 Y62.763
G01 F600 X21.339 Y62.763
G01 F600 X21.322 Y62.815
G01 F600 X21.244 Y62.952
G01 F600 X21.139 Y63.068
G01 F600 X21.011 Y63.161
G01 F600 X20.868 Y63.225
G01 F600 X20.714 Y63.258
G01 F600 X20.556 Y63.258
G01 F600 X20.403 Y63.225
G01 F600 X20.259 Y63.161
G01 F600 X20.132 Y63.068
G01 F600 X20.027 Y62.952
G01 F600 X19.948 Y62.815
G01 F600 X19.899 Y62.666
G01 F600 X19.883 Y62.509
G01 F600 X19.899 Y62.353
G01 F600 X19.948 Y62.203
G01 F600 X20.027 Y62.067
G01 F600 X20.132 Y61.950
G01 F600 X20.259 Y61.858
G01 F600 X20.403 Y61.794
G01 F600 X20.556 Y61.761
G01 F600 X20.714 Y61.761
G01 F600 X20.868 Y61.794
G01 F600 X21.011 Y61.858
G01 F600 X21.139 Y61.950
G01 F600 X21.244 Y62.067
G01 F600 X21.322 Y62.203
G01 F600 X21.339 Y62.256
G01 F600 X22.404 Y62.256
G01 F600 X22.430 Y62.178
G01 F600 X22.515 Y62.030
G01 F600 X22.629 Y61.903
G01 F600 X22.767 Y61.803
G01 F600 X22.923 Y61.734
G01 F600 X23.090 Y61.698
G01 F600 X23.260 Y61.698
G01 F600 X23.427 Y61.734
G01 F600 X23.583 Y61.803
G01 F600 X23.721 Y61.903
G01 F600 X23.835 Y62.030
G01 F600 X23.920 Y62.178
G01 F600 X23.973 Y62.340
G01 F600 X23.991 Y62.509
G01 F600 X23.973 Y62.679
G01 F600 X23.920 Y62.841
G01 F600 X23.835 Y62.989
G01 F600 X23.721 Y63.116
G01 F600 X23.583 Y63.216
G01 F600 X23.427 Y63.285
G01 F600 X23.260 Y63.321
G01 F600 X23.090 Y63.321
G00 F3000 Z2.000
G00 F3000 X50.363 Y63.261
G00 F1500 Z0
G01 F600 Z-0.100
G01 F600 X50.363 Y61.758
G01 F600 X51.867 Y61.758
G01 F600 X51.867 Y63.261
G01 F600 X50.363 Y63.261
G00 F3000 Z2.000
G00 F3000 X74.493 Y63.261
G00 F1500 Z0
G01 F600 Z-0.100
G01 F600 X74.493 Y61.758
G01 F600 X75.997 Y61.758
G01 F600 X75.997 Y63.261
G01 F600 X74.493 Y63.261
G00 F3000 Z2.000
G00 F3000 X2.103 Y63.261
G00 F1500 Z0
G01 F600 Z-0.100
G01 F600 X2.103 Y61.758
G01 F600 X3.607 Y61.758
G01 F600 X3.607 Y63.261
G01 F600 X2.103 Y63.261
G00 F3000 Z2.000
G00 F3000 X26.233 Y63.261
G00 F1500 Z0
G01 F600 Z-0.100
G01 F600 X26.233 Y61.758
G01 F600 X27.737 Y61.758
G01 F600 X27.737 Y63.261
G01 F600 X26.233 Y63.261
G00 F3000 Z2.000
G00 F3000 X53.577 Y63.258
G00 F1500 Z0
G01 F600 Z-0.100
G01 F600 X53.423 Y63.225
G01 F600 X53.279 Y63.161
G01 F600 X53.152 Y63.068
G01 F600 X53.047 Y62.952
G01 F600 X52.968 Y62.815
G01 F600 X52.919 Y62.666
G01 F600 X52.903 Y62.509
G01 F600 X52.919 Y62.353
G01 F600 X52.968 Y62.203
G01 F600 X53.047 Y62.067
G01 F600 X53.152 Y61.950
G01 F600 X53.279 Y61.858
G01 F600 X53.423 Y61.794
G01 F600 X53.577 Y61.761
G01 F600 X53.734 Y61.761
G01 F600 X53.888 Y61.794
G01 F600 X54.031 Y61.858
G01 F600 X54.159 Y61.950
G01 F600 X54.264 Y62.067
G01 F600 X54.342 Y62.203
G01 F600 X54.391 Y62.353
G01 F600 X54.407 Y62.509
G01 F600 X54.391 Y62.666
G01 F600 X54.342 Y62.815
G01 F600 X54.264 Y62.952
G01 F600 X54.159 Y63.068
G01 F600 X54.031 Y63.161
G01 F600 X53.888 Y63.225
G01 F600 X53.734 Y63.258
G01 F600 X53.577 Y63.258
G00 F3000 Z2.000
G00 F3000 X61.197 Y63.258
G00 F1500 Z0
G01 F600 Z-0.100
G01 F600 X61.043 Y63.225
G01 F600 X60.899 Y63.161
G01 F600 X60.772 Y63.068
G01 F600 X60.667 Y62.952
G01 F600 X60.588 Y62.815
G01 F600 X60.539 Y62.666
G01 F600 X60.523 Y62.509
G01 F600 X60.539 Y62.353
G01 F600 X60.588 Y62.203
G01 F600 X60.667 Y62.067
G01 F600 X60.772 Y61.950
G01 F600 X60.899 Y61.858
G01 F600 X61.043 Y61.794
G01 F600 X61.197 Y61.761
G01 F600 X61.354 Y61.761
G01 F600 X61.508 Y61.794
G01 F600 X61.651 Y61.858
G01 F600 X61.779 Y61.950
G01 F600 X61.884 Y62.067
G01 F600 X61.962 Y62.203
G01 F600 X62.011 Y62.353
G01 F600 X62.027 Y62.509
G01 F600 X62.011 Y62.666
G01 F600 X61.962 Y62.815
G01 F600 X61.884 Y62.952
G01 F600 X61.779 Y63.068
G01 F600 X61.651 Y63.161
G01 F600 X61.508 Y63.225
G01 F600 X61.354 Y63.258
G01 F600 X61.197 Y63.258
G00 F3000 Z2.000
G00 F3000 X58.657 Y63.258
G00 F1500 Z0
G01 F600 Z-0.100
G01 F600 X58.503 Y63.225
G01 F600 X58.359 Y63.161
G01 F600 X58.232 Y63.068
G01 F600 X58.127 Y62.952
G01 F600 X58.048 Y62.815
G01 F600 X57.999 Y62.666
G01 F600 X57.983 Y62.509
G01 F600 X57.999 Y62.353
G01 F600 X58.048 Y62.203
G01 F600 X58.127 Y62.067
G01 F600 X58.232 Y61.950
G01 F600 X58.359 Y61.858
G01 F600 X58.503 Y61.794
G01 F600 X58.657 Y61.761
G01 F600 X58.814 Y61.761
G01 F600 X58.968 Y61.794
G01 F600 X59.111 Y61.858
G01 F600 X59.239 Y61.950
G01 F600 X59.344 Y62.067
G01 F600 X59.422 Y62.203
G01 F600 X59.471 Y62.353
G01 F600 X59.487 Y62.509
G01 F600 X59.471 Y62.666
G01 F600 X59.422 Y62.815
G01 F600 X59.344 Y62.952
G01 F600 X59.239 Y63.068
G01 F600 X59.111 Y63.161
G01 F600 X58.968 Y63.225
G01 F600 X58.814 Y63.258
G01 F600 X58.657 Y63.258
G00 F3000 Z2.000
G00 F3000 X42.147 Y63.258
G00 F1500 Z0
G01 F600 Z-0.100
G01 F600 X41.993 Y63.225
G01 F600 X41.849 Y63.161
G01 F600 X41.722 Y63.068
G01 F600 X41.617 Y62.952
G01 F600 X41.538 Y62.815
G01 F600 X41.489 Y62.666
G01 F600 X41.473 Y62.509
G01 F600 X41.489 Y62.353
G01 F600 X41.538 Y62.203
G01 F600 X41.617 Y62.067
G01 F600 X41.722 Y61.950
G01 F600 X41.849 Y61.858
G01 F600 X41.993 Y61.794
G01 F600 X42.147 Y61.761
G01 F600 X42.304 Y61.761
G01 F600 X42.458 Y61.794
G01 F600 X42.601 Y61.858
G01 F600 X42.729 Y61.950
G01 F600 X42.834 Y62.067
G01 F600 X42.912 Y62.203
G01 F600 X42.961 Y62.353
G01 F600 X42.977 Y62.509
G01 F600 X42.961 Y62.666
G01 F600 X42.912 Y62.815
G01 F600 X42.834 Y62.952
G01 F600 X42.729 Y63.068
G01 F600 X42.601 Y63.161
G01 F600 X42.458 Y63.225
G01 F600 X42.304 Y63.258
G01 F600 X42.147 Y63.258
G00 F3000 Z2.000
G00 F3000 X39.607 Y63.258
G00 F1500 Z0
G01 F600 Z-0.100
G01 F600 X39.453 Y63.225
G01 F600 X39.309 Y63.161
G01 F600 X39.182 Y63.068
G01 F600 X39.077 Y62.952
G01 F600 X38.998 Y62.815
G01 F600 X38.949 Y62.666
G01 F600 X38.933 Y62.509
G01 F600 X38.949 Y62.353
G01 F600 X38.998 Y62.203
G01 F600 X39.077 Y62.067
G01 F600 X39.182 Y61.950
G01 F600 X39.309 Y61.858
G01 F600 X39.453 Y61.794
G01 F600 X39.607 Y61.761
G01 F600 X39.764 Y61.761
G01 F600 X39.918 Y61.794
G01 F600 X40.061 Y61.858
G01 F600 X40.189 Y61.950
G01 F600 X40.294 Y62.067
G01 F600 X40.372 Y62.203
G01 F600 X40.421 Y62.353
G01 F600 X40.437 Y62.509
G01 F600 X40.421 Y62.666
G01 F600 X40.372 Y62.815
G01 F600 X40.294 Y62.952
G01 F600 X40.189 Y63.068
G01 F600 X40.061 Y63.161
G01 F600 X39.918 Y63.225
G01 F600 X39.764 Y63.258
G01 F600 X39.607 Y63.258
G00 F3000 Z2.000
G00 F3000 X44.687 Y63.258
G00 F1500 Z0
G01 F600 Z-0.100
G01 F600 X44.533 Y63.225
G01 F600 X44.389 Y63.161
G01 F600 X44.262 Y63.068
G01 F600 X44.157 Y62.952
G01 F600 X44.078 Y62.815
G01 F600 X44.029 Y62.666
G01 F600 X44.013 Y62.509
G01 F600 X44.029 Y62.353
G01 F600 X44.078 Y62.203
G01 F600 X44.157 Y62.067
G01 F600 X44.262 Y61.950
G01 F600 X44.389 Y61.858
G01 F600 X44.533 Y61.794
G01 F600 X44.687 Y61.761
G01 F600 X44.844 Y61.761
G01 F600 X44.998 Y61.794
G01 F600 X45.141 Y61.858
G01 F600 X45.269 Y61.950
G01 F600 X45.374 Y62.067
G01 F600 X45.452 Y62.203
G01 F600 X45.501 Y62.353
G01 F600 X45.517 Y62.509
G01 F600 X45.501 Y62.666
G01 F600 X45.452 Y62.815
G01 F600 X45.374 Y62.952
G01 F600 X45.269 Y63.068
G01 F600 X45.141 Y63.161
G01 F600 X44.998 Y63.225
G01 F600 X44.844 Y63.258
G01 F600 X44.687 Y63.258
G00 F3000 Z2.000
G00 F3000 X82.787 Y63.258
G00 F1500 Z0
G01 F600 Z-0.100
G01 F600 X82.633 Y63.225
G01 F600 X82.489 Y63.161
G01 F600 X82.362 Y63.068
G01 F600 X82.257 Y62.952
G01 F600 X82.178 Y62.815
G01 F600 X82.129 Y62.666
G01 F600 X82.113 Y62.509
G01 F600 X82.129 Y62.353
G01 F600 X82.178 Y62.203
G01 F600 X82.257 Y62.067
G01 F600 X82.362 Y61.950
G01 F600 X82.489 Y61.858
G01 F600 X82.633 Y61.794
G01 F600 X82.787 Y61.761
G01 F600 X82.944 Y61.761
G01 F600 X83.098 Y61.794
G01 F600 X83.241 Y61.858
G01 F600 X83.368 Y61.950
G01 F600 X83.474 Y62.067
G01 F600 X83.552 Y62.203
G01 F600 X83.601 Y62.353
G01 F600 X83.617 Y62.509
G01 F600 X83.601 Y62.666
G01 F600 X83.552 Y62.815
G01 F600 X83.474 Y62.952
G01 F600 X83.368 Y63.068
G01 F600 X83.241 Y63.161
G01 F600 X83.098 Y63.225
G01 F600 X82.944 Y63.258
G01 F600 X82.787 Y63.258
G00 F3000 Z2.000
G00 F3000 X80.246 Y63.258
G00 F1500 Z0
G01 F600 Z-0.100
G01 F600 X80.093 Y63.225
G01 F600 X79.949 Y63.161
G01 F600 X79.822 Y63.068
G01 F600 X79.717 Y62.952
G01 F600 X79.638 Y62.815
G01 F600 X79.589 Y62.666
G01 F600 X79.573 Y62.509
G01 F600 X79.589 Y62.353
G01 F600 X79.638 Y62.203
G01 F600 X79.717 Y62.067
G01 F600 X79.822 Y61.950
G01 F600 X79.949 Y61.858
G01 F600 X80.071 Y61.804
G01 F600 X80.071 Y61.493
G01 F600 X20.030 Y61.493
G01 F600 X20.018 Y61.530
G01 F600 X19.943 Y61.659
G01 F600 X19.843 Y61.770
G01 F600 X19.722 Y61.858
G01 F600 X19.586 Y61.919
G01 F600 X19.440 Y61.950
G01 F600 X19.290 Y61.950
G01 F600 X19.144 Y61.919
G01 F600 X19.008 Y61.858
G01 F600 X18.887 Y61.770
G01 F600 X18.787 Y61.659
G01 F600 X18.713 Y61.530
G01 F600 X18.666 Y61.388
G01 F600 X18.651 Y61.239
G01 F600 X18.666 Y61.091
G01 F600 X18.713 Y60.949
G01 F600 X18.787 Y60.820
G01 F600 X18.887 Y60.709
G01 F600 X19.008 Y60.621
G01 F600 X19.144 Y60.560
G01 F600 X19.290 Y60.529
G01 F600 X19.440 Y60.529
G01 F600 X19.586 Y60.560
G01 F600 X19.722 Y60.621
G01 F600 X19.843 Y60.709
G01 F600 X19.943 Y60.820
G01 F600 X20.018 Y60.949
G01 F600 X20.030 Y60.986
G01 F600 X80.352 Y60.986
G01 F600 X80.404 Y60.997
G01 F600 X80.452 Y61.019
G01 F600 X80.495 Y61.050
G01 F600 X80.531 Y61.090
G01 F600 X80.558 Y61.136
G01 F600 X80.574 Y61.187
G01 F600 X80.579 Y61.234
G01 F600 X80.579 Y61.804
G01 F600 X80.701 Y61.858
G01 F600 X80.829 Y61.950
G01 F600 X80.934 Y62.067
G01 F600 X81.012 Y62.203
G01 F600 X81.061 Y62.353
G01 F600 X81.077 Y62.509
G01 F600 X81.061 Y62.666
G01 F600 X81.012 Y62.815
G01 F600 X80.934 Y62.952
G01 F600 X80.829 Y63.068
G01 F600 X80.701 Y63.161
G01 F600 X80.558 Y63.225
G01 F600 X80.404 Y63.258
G01 F600 X80.246 Y63.258
G00 F3000 Z2.000
G00 F3000 X87.867 Y63.258
G00 F1500 Z0
G01 F600 Z-0.100
G01 F600 X87.713 Y63.225
G01 F600 X87.569 Y63.161
G01 F600 X87.442 Y63.068
G01 F600 X87.337 Y62.952
G01 F600 X87.258 Y62.815
G01 F600 X87.209 Y62.666
G01 F600 X87.193 Y62.509
G01 F600 X87.209 Y62.353
G01 F600 X87.258 Y62.203
G01 F600 X87.337 Y62.067
G01 F600 X87.442 Y61.950
G01 F600 X87.569 Y61.858
G01 F600 X87.713 Y61.794
G01 F600 X87.867 Y61.761
G01 F600 X88.024 Y61.761
G01 F600 X88.178 Y61.794
G01 F600 X88.321 Y61.858
G01 F600 X88.449 Y61.950
G01 F600 X88.554 Y62.067
G01 F600 X88.632 Y62.203
G01 F600 X88.681 Y62.353
G01 F600 X88.697 Y62.509
G01 F600 X88.681 Y62.666
G01 F600 X88.632 Y62.815
G01 F600 X88.554 Y62.952
G01 F600 X88.449 Y63.068
G01 F600 X88.321 Y63.161
G01 F600 X88.178 Y63.225
G01 F600 X88.024 Y63.258
G01 F600 X87.867 Y63.258
G00 F3000 Z2.000
G00 F3000 X85.327 Y63.258
G00 F1500 Z0
G01 F600 Z-0.100
G01 F600 X85.173 Y63.225
G01 F600 X85.029 Y63.161
G01 F600 X84.902 Y63.068
G01 F600 X84.797 Y62.952
G01 F600 X84.718 Y62.815
G01 F600 X84.669 Y62.666
G01 F600 X84.653 Y62.509
G01 F600 X84.669 Y62.353
G01 F600 X84.718 Y62.203
G01 F600 X84.797 Y62.067
G01 F600 X84.902 Y61.950
G01 F600 X85.029 Y61.858
G01 F600 X85.173 Y61.794
G01 F600 X85.327 Y61.761
G01 F600 X85.484 Y61.761
G01 F600 X85.638 Y61.794
G01 F600 X85.781 Y61.858
G01 F600 X85.909 Y61.950
G01 F600 X86.014 Y62.067
G01 F600 X86.092 Y62.203
G01 F600 X86.141 Y62.353
G01 F600 X86.157 Y62.509
G01 F600 X86.141 Y62.666
G01 F600 X86.092 Y62.815
G01 F600 X86.014 Y62.952
G01 F600 X85.909 Y63.068
G01 F600 X85.781 Y63.161
G01 F600 X85.638 Y63.225
G01 F600 X85.484 Y63.258
G01 F600 X85.327 Y63.258
G00 F3000 Z2.000
G00 F3000 X66.276 Y63.258
G00 F1500 Z0
G01 F600 Z-0.100
G01 F600 X66.123 Y63.225
G01 F600 X65.979 Y63.161
G01 F600 X65.852 Y63.068
G01 F600 X65.746 Y62.952
G01 F600 X65.668 Y62.815
G01 F600 X65.619 Y62.666
G01 F600 X65.603 Y62.509
G01 F600 X65.619 Y62.353
G01 F600 X65.668 Y62.203
G01 F600 X65.746 Y62.067
G01 F600 X65.852 Y61.950
G01 F600 X65.979 Y61.858
G01 F600 X66.123 Y61.794
G01 F600 X66.276 Y61.761
G01 F600 X66.434 Y61.761
G01 F600 X66.588 Y61.794
G01 F600 X66.731 Y61.858
G01 F600 X66.859 Y61.950
G01 F600 X66.964 Y62.067
G01 F600 X67.042 Y62.203
G01 F600 X67.091 Y62.353
G01 F600 X67.107 Y62.509
G01 F600 X67.091 Y62.666
G01 F600 X67.042 Y62.815
G01 F600 X66.964 Y62.952
G01 F600 X66.859 Y63.068
G01 F600 X66.731 Y63.161
G01 F600 X66.588 Y63.225
G01 F600 X66.434 Y63.258
G01 F600 X66.276 Y63.258
G00 F3000 Z2.000
G00 F3000 X63.737 Y63.258
G00 F1500 Z0
G01 F600 Z-0.100
G01 F600 X63.583 Y63.225
G01 F600 X63.439 Y63.161
G01 F600 X63.312 Y63.068
G01 F600 X63.207 Y62.952
G01 F600 X63.128 Y62.815
G01 F600 X63.079 Y62.666
G01 F600 X63.063 Y62.509
G01 F600 X63.079 Y62.353
G01 F600 X63.128 Y62.203
G01 F600 X63.207 Y62.067
G01 F600 X63.312 Y61.950
G01 F600 X63.439 Y61.858
G01 F600 X63.583 Y61.794
G01 F600 X63.737 Y61.761
G01 F600 X63.894 Y61.761
G01 F600 X64.048 Y61.794
G01 F600 X64.191 Y61.858
G01 F600 X64.319 Y61.950
G01 F600 X64.424 Y62.067
G01 F600 X64.502 Y62.203
G01 F600 X64.551 Y62.353
G01 F600 X64.567 Y62.509
G01 F600 X64.551 Y62.666
G01 F600 X64.502 Y62.815
G01 F600 X64.424 Y62.952
G01 F600 X64.319 Y63.068
G01 F600 X64.191 Y63.161
G01 F600 X64.048 Y63.225
G01 F600 X63.894 Y63.258
G01 F600 X63.737 Y63.258
G00 F3000 Z2.000
G00 F3000 X77.707 Y63.258
G00 F1500 Z0
G01 F600 Z-0.100
G01 F600 X77.553 Y63.225
G01 F600 X77.409 Y63.161
G01 F600 X77.282 Y63.068
G01 F600 X77.177 Y62.952
G01 F600 X77.098 Y62.815
G01 F600 X77.049 Y62.666
G01 F600 X77.033 Y62.509
G01 F600 X77.049 Y62.353
G01 F600 X77.098 Y62.203
G01 F600 X77.177 Y62.067
G01 F600 X77.282 Y61.950
G01 F600 X77.409 Y61.858
G01 F600 X77.553 Y61.794
G01 F600 X77.707 Y61.761
G01 F600 X77.864 Y61.761
G01 F600 X78.018 Y61.794
G01 F600 X78.161 Y61.858
G01 F600 X78.288 Y61.950
G01 F600 X78.394 Y62.067
G01 F600 X78.472 Y62.203
G01 F600 X78.521 Y62.353
G01 F600 X78.537 Y62.509
G01 F600 X78.521 Y62.666
G01 F600 X78.472 Y62.815
G01 F600 X78.394 Y62.952
G01 F600 X78.288 Y63.068
G01 F600 X78.161 Y63.161
G01 F600 X78.018 Y63.225
G01 F600 X77.864 Y63.258
G01 F600 X77.707 Y63.258
G00 F3000 Z2.000
G00 F3000 X68.817 Y63.258
G00 F1500 Z0
G01 F600 Z-0.100
G01 F600 X68.663 Y63.225
G01 F600 X68.519 Y63.161
G01 F600 X68.392 Y63.068
G01 F600 X68.287 Y62.952
G01 F600 X68.208 Y62.815
G01 F600 X68.159 Y62.666
G01 F600 X68.143 Y62.509
G01 F600 X68.159 Y62.353
G01 F600 X68.208 Y62.203
G01 F600 X68.287 Y62.067
G01 F600 X68.392 Y61.950
G01 F600 X68.519 Y61.858
G01 F600 X68.663 Y61.794
G01 F600 X68.817 Y61.761
G01 F600 X68.974 Y61.761
G01 F600 X69.128 Y61.794
G01 F600 X69.271 Y61.858
G01 F600 X69.398 Y61.950
G01 F600 X69.504 Y62.067
G01 F600 X69.582 Y62.203
G01 F600 X69.631 Y62.353
G01 F600 X69.647 Y62.509
G01 F600 X69.631 Y62.666
G01 F600 X69.582 Y62.815
G01 F600 X69.504 Y62.952
G01 F600 X69.398 Y63.068
G01 F600 X69.271 Y63.161
G01 F600 X69.128 Y63.225
G01 F600 X68.974 Y63.258
G01 F600 X68.817 Y63.258
G00 F3000 Z2.000
G00 F3000 X5.317 Y63.258
G00 F1500 Z0
G01 F600 Z-0.100
G01 F600 X5.163 Y63.225
G01 F600 X5.019 Y63.161
G01 F600 X4.892 Y63.068
G01 F600 X4.787 Y62.952
G01 F600 X4.708 Y62.815
G01 F600 X4.659 Y62.666
G01 F600 X4.643 Y62.509
G01 F600 X4.659 Y62.353
G01 F600 X4.708 Y62.203
G01 F600 X4.787 Y62.067
G01 F600 X4.892 Y61.950
G01 F600 X5.019 Y61.858
G01 F600 X5.163 Y61.794
G01 F600 X5.317 Y61.761
G01 F600 X5.474 Y61.761
G01 F600 X5.628 Y61.794
G01 F600 X5.771 Y61.858
G01 F600 X5.899 Y61.950
G01 F600 X6.004 Y62.067
G01 F600 X6.082 Y62.203
G01 F600 X6.131 Y62.353
G01 F600 X6.147 Y62.509
G01 F600 X6.131 Y62.666
G01 F600 X6.082 Y62.815
G01 F600 X6.004 Y62.952
G01 F600 X5.899 Y63.068
G01 F600 X5.771 Y63.161
G01 F600 X5.628 Y63.225
G01 F600 X5.474 Y63.258
G01 F600 X5.317 Y63.258
G00 F3000 Z2.000
G00 F3000 X10.396 Y63.258
G00 F1500 Z0
G01 F600 Z-0.100
G01 F600 X10.243 Y63.225
G01 F600 X10.099 Y63.161
G01 F600 X9.972 Y63.068
G01 F600 X9.867 Y62.952
G01 F600 X9.788 Y62.815
G01 F600 X9.739 Y62.666
G01 F600 X9.723 Y62.509
G01 F600 X9.739 Y62.353
G01 F600 X9.788 Y62.203
G01 F600 X9.867 Y62.067
G01 F600 X9.972 Y61.950
G01 F600 X10.099 Y61.858
G01 F600 X10.243 Y61.794
G01 F600 X10.396 Y61.761
G01 F600 X10.554 Y61.761
G01 F600 X10.708 Y61.794
G01 F600 X10.851 Y61.858
G01 F600 X10.979 Y61.950
G01 F600 X11.084 Y62.067
G01 F600 X11.162 Y62.203
G01 F600 X11.211 Y62.353
G01 F600 X11.227 Y62.509
G01 F600 X11.211 Y62.666
G01 F600 X11.162 Y62.815
G01 F600 X11.084 Y62.952
G01 F600 X10.979 Y63.068
G01 F600 X10.851 Y63.161
G01 F600 X10.708 Y63.225
G01 F600 X10.554 Y63.258
G01 F600 X10.396 Y63.258
G00 F3000 Z2.000
G00 F3000 X29.447 Y63.258
G00 F1500 Z0
G01 F600 Z-0.100
G01 F600 X29.293 Y63.225
G01 F600 X29.149 Y63.161
G01 F600 X29.022 Y63.068
G01 F600 X28.917 Y62.952
G01 F600 X28.838 Y62.815
G01 F600 X28.789 Y62.666
G01 F600 X28.773 Y62.509
G01 F600 X28.789 Y62.353
G01 F600 X28.838 Y62.203
G01 F600 X28.917 Y62.067
G01 F600 X29.022 Y61.950
G01 F600 X29.149 Y61.858
G01 F600 X29.293 Y61.794
G01 F600 X29.447 Y61.761
G01 F600 X29.604 Y61.761
G01 F600 X29.758 Y61.794
G01 F600 X29.901 Y61.858
G01 F600 X30.029 Y61.950
G01 F600 X30.134 Y62.067
G01 F600 X30.212 Y62.203
G01 F600 X30.261 Y62.353
G01 F600 X30.277 Y62.509
G01 F600 X30.261 Y62.666
G01 F600 X30.212 Y62.815
G01 F600 X30.134 Y62.952
G01 F600 X30.029 Y63.068
G01 F600 X29.901 Y63.161
G01 F600 X29.758 Y63.225
G01 F600 X29.604 Y63.258
G01 F600 X29.447 Y63.258
G00 F3000 Z2.000
G00 F3000 X37.067 Y63.258
G00 F1500 Z0
G01 F600 Z-0.100
G01 F600 X36.913 Y63.225
G01 F600 X36.769 Y63.161
G01 F600 X36.642 Y63.068
G01 F600 X36.537 Y62.952
G01 F600 X36.458 Y62.815
G01 F600 X36.409 Y62.666
G01 F600 X36.393 Y62.509
G01 F600 X36.409 Y62.353
G01 F600 X36.458 Y62.203
G01 F600 X36.537 Y62.067
G01 F600 X36.642 Y61.950
G01 F600 X36.769 Y61.858
G01 F600 X36.913 Y61.794
G01 F600 X37.067 Y61.761
G01 F600 X37.224 Y61.761
G01 F600 X37.378 Y61.794
G01 F600 X37.521 Y61.858
G01 F600 X37.648 Y61.950
G01 F600 X37.754 Y62.067
G01 F600 X37.832 Y62.203
G01 F600 X37.881 Y62.353
G01 F600 X37.897 Y62.509
G01 F600 X37.881 Y62.666
G01 F600 X37.832 Y62.815
G01 F600 X37.754 Y62.952
G01 F600 X37.648 Y63.068
G01 F600 X37.521 Y63.161
G01 F600 X37.378 Y63.225
G01 F600 X37.224 Y63.258
G01 F600 X37.067 Y63.258
G00 F3000 Z2.000
G00 F3000 X34.526 Y63.258
G00 F1500 Z0
G01 F600 Z-0.100
G01 F600 X34.373 Y63.225
G01 F600 X34.229 Y63.161
G01 F600 X34.102 Y63.068
G01 F600 X33.997 Y62.952
G01 F600 X33.918 Y62.815
G01 F600 X33.869 Y62.666
G01 F600 X33.853 Y62.509
G01 F600 X33.869 Y62.353
G01 F600 X33.918 Y62.203
G01 F600 X33.997 Y62.067
G01 F600 X34.102 Y61.950
G01 F600 X34.229 Y61.858
G01 F600 X34.373 Y61.794
G01 F600 X34.526 Y61.761
G01 F600 X34.684 Y61.761
G01 F600 X34.838 Y61.794
G01 F600 X34.981 Y61.858
G01 F600 X35.108 Y61.950
G01 F600 X35.214 Y62.067
G01 F600 X35.292 Y62.203
G01 F600 X35.341 Y62.353
G01 F600 X35.357 Y62.509
G01 F600 X35.341 Y62.666
G01 F600 X35.292 Y62.815
G01 F600 X35.214 Y62.952
G01 F600 X35.108 Y63.068
G01 F600 X34.981 Y63.161
G01 F600 X34.838 Y63.225
G01 F600 X34.684 Y63.258
G01 F600 X34.526 Y63.258
G00 F3000 Z2.000
G00 F3000 X15.477 Y63.258
G00 F1500 Z0
G01 F600 Z-0.100
G01 F600 X15.323 Y63.225
G01 F600 X15.179 Y63.161
G01 F600 X15.052 Y63.068
G01 F600 X14.947 Y62.952
G01 F600 X14.868 Y62.815
G01 F600 X14.819 Y62.666
G01 F600 X14.803 Y62.509
G01 F600 X14.819 Y62.353
G01 F600 X14.868 Y62.203
G01 F600 X14.947 Y62.067
G01 F600 X15.052 Y61.950
G01 F600 X15.179 Y61.858
G01 F600 X15.323 Y61.794
G01 F600 X15.477 Y61.761
G01 F600 X15.634 Y61.761
G01 F600 X15.788 Y61.794
G01 F600 X15.931 Y61.858
G01 F600 X16.059 Y61.950
G01 F600 X16.164 Y62.067
G01 F600 X16.242 Y62.203
G01 F600 X16.291 Y62.353
G01 F600 X16.307 Y62.509
G01 F600 X16.291 Y62.666
G01 F600 X16.242 Y62.815
G01 F600 X16.164 Y62.952
G01 F600 X16.059 Y63.068
G01 F600 X15.931 Y63.161
G01 F600 X15.788 Y63.225
G01 F600 X15.634 Y63.258
G01 F600 X15.477 Y63.258
G00 F3000 Z2.000
G00 F3000 X12.937 Y63.258
G00 F1500 Z0
G01 F600 Z-0.100
G01 F600 X12.783 Y63.225
G01 F600 X12.639 Y63.161
G01 F600 X12.512 Y63.068
G01 F600 X12.407 Y62.952
G01 F600 X12.328 Y62.815
G01 F600 X12.279 Y62.666
G01 F600 X12.263 Y62.509
G01 F600 X12.279 Y62.353
G01 F600 X12.328 Y62.203
G01 F600 X12.407 Y62.067
G01 F600 X12.512 Y61.950
G01 F600 X12.639 Y61.858
G01 F600 X12.783 Y61.794
G01 F600 X12.937 Y61.761
G01 F600 X13.094 Y61.761
G01 F600 X13.248 Y61.794
G01 F600 X13.391 Y61.858
G01 F600 X13.519 Y61.950
G01 F600 X13.624 Y62.067
G01 F600 X13.702 Y62.203
G01 F600 X13.751 Y62.353
G01 F600 X13.767 Y62.509
G01 F600 X13.751 Y62.666
G01 F600 X13.702 Y62.815
G01 F600 X13.624 Y62.952
G01 F600 X13.519 Y63.068
G01 F600 X13.391 Y63.161
G01 F600 X13.248 Y63.225
G01 F600 X13.094 Y63.258
G01 F600 X12.937 Y63.258
G00 F3000 Z2.000
G00 F3000 X18.017 Y63.258
G00 F1500 Z0
G01 F600 Z-0.100
G01 F600 X17.863 Y63.225
G01 F600 X17.719 Y63.161
G01 F600 X17.592 Y63.068
G01 F600 X17.486 Y62.952
G01 F600 X17.408 Y62.815
G01 F600 X17.359 Y62.666
G01 F600 X17.343 Y62.509
G01 F600 X17.359 Y62.353
G01 F600 X17.408 Y62.203
G01 F600 X17.486 Y62.067
G01 F600 X17.592 Y61.950
G01 F600 X17.719 Y61.858
G01 F600 X17.841 Y61.804
G01 F600 X17.841 Y58.694
G01 F600 X17.846 Y58.647
G01 F600 X17.863 Y58.596
G01 F600 X17.889 Y58.550
G01 F600 X17.925 Y58.510
G01 F600 X17.968 Y58.479
G01 F600 X18.016 Y58.457
G01 F600 X18.069 Y58.446
G01 F600 X21.651 Y58.446
G01 F600 X21.651 Y55.143
G01 F600 X21.393 Y55.143
G01 F600 X21.369 Y55.216
G01 F600 X21.285 Y55.361
G01 F600 X21.172 Y55.486
G01 F600 X21.037 Y55.585
G01 F600 X20.883 Y55.653
G01 F600 X20.719 Y55.688
G01 F600 X20.551 Y55.688
G01 F600 X20.387 Y55.653
G01 F600 X20.234 Y55.585
G01 F600 X20.098 Y55.486
G01 F600 X19.985 Y55.361
G01 F600 X19.901 Y55.216
G01 F600 X19.850 Y55.056
G01 F600 X19.832 Y54.889
G01 F600 X19.850 Y54.722
G01 F600 X19.901 Y54.563
G01 F600 X19.985 Y54.417
G01 F600 X20.098 Y54.293
G01 F600 X20.234 Y54.194
G01 F600 X20.387 Y54.126
G01 F600 X20.551 Y54.091
G01 F600 X20.719 Y54.091
G01 F600 X20.883 Y54.126
G01 F600 X21.037 Y54.194
G01 F600 X21.172 Y54.293
G01 F600 X21.285 Y54.417
G01 F600 X21.369 Y54.563
G01 F600 X21.393 Y54.636
G01 F600 X21.932 Y54.636
G01 F600 X21.984 Y54.647
G01 F600 X22.032 Y54.669
G01 F600 X22.075 Y54.700
G01 F600 X22.111 Y54.740
G01 F600 X22.138 Y54.786
G01 F600 X22.154 Y54.837
G01 F600 X22.159 Y54.884
G01 F600 X22.159 Y58.705
G01 F600 X22.154 Y58.752
G01 F600 X22.138 Y58.803
G01 F600 X22.111 Y58.849
G01 F600 X22.075 Y58.889
G01 F600 X22.032 Y58.920
G01 F600 X21.984 Y58.942
G01 F600 X21.932 Y58.953
G01 F600 X18.349 Y58.953
G01 F600 X18.349 Y61.804
G01 F600 X18.471 Y61.858
G01 F600 X18.599 Y61.950
G01 F600 X18.704 Y62.067
G01 F600 X18.782 Y62.203
G01 F600 X18.831 Y62.353
G01 F600 X18.847 Y62.509
G01 F600 X18.831 Y62.666
G01 F600 X18.782 Y62.815
G01 F600 X18.704 Y62.952
G01 F600 X18.599 Y63.068
G01 F600 X18.471 Y63.161
G01 F600 X18.328 Y63.225
G01 F600 X18.174 Y63.258
G01 F600 X18.017 Y63.258
G00 F3000 Z2.000
G00 F3000 X92.947 Y63.258
G00 F1500 Z0
G01 F600 Z-0.100
G01 F600 X92.793 Y63.225
G01 F600 X92.649 Y63.161
G01 F600 X92.522 Y63.068
G01 F600 X92.416 Y62.952
G01 F600 X92.338 Y62.815
G01 F600 X92.289 Y62.666
G01 F600 X92.273 Y62.509
G01 F600 X92.289 Y62.353
G01 F600 X92.338 Y62.203
G01 F600 X92.416 Y62.067
G01 F600 X92.522 Y61.950
G01 F600 X92.649 Y61.858
G01 F600 X92.793 Y61.794
G01 F600 X92.947 Y61.761
G01 F600 X93.104 Y61.761
G01 F600 X93.258 Y61.794
G01 F600 X93.401 Y61.858
G01 F600 X93.529 Y61.950
G01 F600 X93.634 Y62.067
G01 F600 X93.712 Y62.203
G01 F600 X93.761 Y62.353
G01 F600 X93.777 Y62.509
G01 F600 X93.761 Y62.666
G01 F600 X93.712 Y62.815
G01 F600 X93.634 Y62.952
G01 F600 X93.529 Y63.068
G01 F600 X93.401 Y63.161
G01 F600 X93.258 Y63.225
G01 F600 X93.104 Y63.258
G01 F600 X92.947 Y63.258
G00 F3000 Z2.000
G00 F3000 X90.407 Y63.258
G00 F1500 Z0
G01 F600 Z-0.100
G01 F600 X90.253 Y63.225
G01 F600 X90.109 Y63.161
G01 F600 X89.982 Y63.068
G01 F600 X89.877 Y62.952
G01 F600 X89.798 Y62.815
G01 F600 X89.749 Y62.666
G01 F600 X89.733 Y62.509
G01 F600 X89.749 Y62.353
G01 F600 X89.798 Y62.203
G01 F600 X89.877 Y62.067
G01 F600 X89.982 Y61.950
G01 F600 X90.109 Y61.858
G01 F600 X90.253 Y61.794
G01 F600 X90.407 Y61.761
G01 F600 X90.564 Y61.761
G01 F600 X90.718 Y61.794
G01 F600 X90.861 Y61.858
G01 F600 X90.989 Y61.950
G01 F600 X91.094 Y62.067
G01 F600 X91.172 Y62.203
G01 F600 X91.221 Y62.353
G01 F600 X91.237 Y62.509
G01 F600 X91.221 Y62.666
G01 F600 X91.172 Y62.815
G01 F600 X91.094 Y62.952
G01 F600 X90.989 Y63.068
G01 F600 X90.861 Y63.161
G01 F600 X90.718 Y63.225
G01 F600 X90.564 Y63.258
G01 F600 X90.407 Y63.258
G00 F3000 Z2.000
G00 F3000 X20.550 Y60.781
G00 F1500 Z0
G01 F600 Z-0.100
G01 F600 X20.383 Y60.745
G01 F600 X20.227 Y60.676
G01 F600 X20.089 Y60.576
G01 F600 X19.975 Y60.449
G01 F600 X19.890 Y60.301
G01 F600 X19.837 Y60.139
G01 F600 X19.819 Y59.969
G01 F600 X19.837 Y59.800
G01 F600 X19.890 Y59.638
G01 F600 X19.975 Y59.490
G01 F600 X20.089 Y59.363
G01 F600 X20.227 Y59.263
G01 F600 X20.383 Y59.194
G01 F600 X20.550 Y59.158
G01 F600 X20.720 Y59.158
G01 F600 X20.887 Y59.194
G01 F600 X21.043 Y59.263
G01 F600 X21.181 Y59.363
G01 F600 X21.295 Y59.490
G01 F600 X21.380 Y59.638
G01 F600 X21.406 Y59.716
G01 F600 X28.001 Y59.716
G01 F600 X28.001 Y55.143
G01 F600 X27.742 Y55.143
G01 F600 X27.719 Y55.216
G01 F600 X27.635 Y55.361
G01 F600 X27.522 Y55.486
G01 F600 X27.387 Y55.585
G01 F600 X27.233 Y55.653
G01 F600 X27.069 Y55.688
G01 F600 X26.901 Y55.688
G01 F600 X26.737 Y55.653
G01 F600 X26.584 Y55.585
G01 F600 X26.448 Y55.486
G01 F600 X26.335 Y55.361
G01 F600 X26.251 Y55.216
G01 F600 X26.200 Y55.056
G01 F600 X26.182 Y54.889
G01 F600 X26.200 Y54.722
G01 F600 X26.251 Y54.563
G01 F600 X26.335 Y54.417
G01 F600 X26.448 Y54.293
G01 F600 X26.584 Y54.194
G01 F600 X26.737 Y54.126
G01 F600 X26.901 Y54.091
G01 F600 X27.069 Y54.091
G01 F600 X27.233 Y54.126
G01 F600 X27.387 Y54.194
G01 F600 X27.522 Y54.293
G01 F600 X27.635 Y54.417
G01 F600 X27.719 Y54.563
G01 F600 X27.742 Y54.636
G01 F600 X28.768 Y54.636
G01 F600 X28.791 Y54.563
G01 F600 X28.875 Y54.417
G01 F600 X28.988 Y54.293
G01 F600 X29.124 Y54.194
G01 F600 X29.277 Y54.126
G01 F600 X29.441 Y54.091
G01 F600 X29.609 Y54.091
G01 F600 X29.773 Y54.126
G01 F600 X29.927 Y54.194
G01 F600 X30.062 Y54.293
G01 F600 X30.175 Y54.417
G01 F600 X30.259 Y54.563
G01 F600 X30.283 Y54.636
G01 F600 X31.308 Y54.636
G01 F600 X31.331 Y54.563
G01 F600 X31.415 Y54.417
G01 F600 X31.528 Y54.293
G01 F600 X31.664 Y54.194
G01 F600 X31.817 Y54.126
G01 F600 X31.981 Y54.091
G01 F600 X32.149 Y54.091
G01 F600 X32.313 Y54.126
G01 F600 X32.467 Y54.194
G01 F600 X32.602 Y54.293
G01 F600 X32.715 Y54.417
G01 F600 X32.799 Y54.563
G01 F600 X32.823 Y54.636
G01 F600 X33.848 Y54.636
G01 F600 X33.871 Y54.563
G01 F600 X33.955 Y54.417
G01 F600 X34.068 Y54.293
G01 F600 X34.204 Y54.194
G01 F600 X34.357 Y54.126
G01 F600 X34.521 Y54.091
G01 F600 X34.689 Y54.091
G01 F600 X34.853 Y54.126
G01 F600 X35.007 Y54.194
G01 F600 X35.142 Y54.293
G01 F600 X35.255 Y54.417
G01 F600 X35.339 Y54.563
G01 F600 X35.363 Y54.636
G01 F600 X36.388 Y54.636
G01 F600 X36.411 Y54.563
G01 F600 X36.495 Y54.417
G01 F600 X36.608 Y54.293
G01 F600 X36.744 Y54.194
G01 F600 X36.897 Y54.126
G01 F600 X37.061 Y54.091
G01 F600 X37.229 Y54.091
G01 F600 X37.393 Y54.126
G01 F600 X37.547 Y54.194
G01 F600 X37.682 Y54.293
G01 F600 X37.795 Y54.417
G01 F600 X37.879 Y54.563
G01 F600 X37.903 Y54.636
G01 F600 X38.928 Y54.636
G01 F600 X38.951 Y54.563
G01 F600 X39.035 Y54.417
G01 F600 X39.148 Y54.293
G01 F600 X39.284 Y54.194
G01 F600 X39.437 Y54.126
G01 F600 X39.601 Y54.091
G01 F600 X39.769 Y54.091
G01 F600 X39.933 Y54.126
G01 F600 X40.087 Y54.194
G01 F600 X40.222 Y54.293
G01 F600 X40.335 Y54.417
G01 F600 X40.419 Y54.563
G01 F600 X40.443 Y54.636
G01 F600 X41.468 Y54.636
G01 F600 X41.491 Y54.563
G01 F600 X41.575 Y54.417
G01 F600 X41.688 Y54.293
G01 F600 X41.824 Y54.194
G01 F600 X41.977 Y54.126
G01 F600 X42.141 Y54.091
G01 F600 X42.309 Y54.091
G01 F600 X42.473 Y54.126
G01 F600 X42.627 Y54.194
G01 F600 X42.762 Y54.293
G01 F600 X42.875 Y54.417
G01 F600 X42.959 Y54.563
G01 F600 X42.983 Y54.636
G01 F600 X44.008 Y54.636
G01 F600 X44.031 Y54.563
G01 F600 X44.115 Y54.417
G01 F600 X44.228 Y54.293
G01 F600 X44.364 Y54.194
G01 F600 X44.517 Y54.126
G01 F600 X44.681 Y54.091
G01 F600 X44.849 Y54.091
G01 F600 X45.013 Y54.126
G01 F600 X45.167 Y54.194
G01 F600 X45.302 Y54.293
G01 F600 X45.415 Y54.417
G01 F600 X45.499 Y54.563
G01 F600 X45.523 Y54.636
G01 F600 X47.804 Y54.636
G01 F600 X47.830 Y54.558
G01 F600 X47.915 Y54.410
G01 F600 X48.029 Y54.283
G01 F600 X48.167 Y54.183
G01 F600 X48.323 Y54.114
G01 F600 X48.490 Y54.078
G01 F600 X48.660 Y54.078
G01 F600 X48.827 Y54.114
G01 F600 X48.983 Y54.183
G01 F600 X49.121 Y54.283
G01 F600 X49.235 Y54.410
G01 F600 X49.320 Y54.558
G01 F600 X49.346 Y54.636
G01 F600 X50.358 Y54.636
G01 F600 X50.381 Y54.563
G01 F600 X50.465 Y54.417
G01 F600 X50.578 Y54.293
G01 F600 X50.714 Y54.194
G01 F600 X50.867 Y54.126
G01 F600 X51.031 Y54.091
G01 F600 X51.199 Y54.091
G01 F600 X51.363 Y54.126
G01 F600 X51.517 Y54.194
G01 F600 X51.652 Y54.293
G01 F600 X51.765 Y54.417
G01 F600 X51.849 Y54.563
G01 F600 X51.873 Y54.636
G01 F600 X52.898 Y54.636
G01 F600 X52.921 Y54.563
G01 F600 X53.005 Y54.417
G01 F600 X53.118 Y54.293
G01 F600 X53.254 Y54.194
G01 F600 X53.407 Y54.126
G01 F600 X53.571 Y54.091
G01 F600 X53.739 Y54.091
G01 F600 X53.903 Y54.126
G01 F600 X54.057 Y54.194
G01 F600 X54.192 Y54.293
G01 F600 X54.305 Y54.417
G01 F600 X54.389 Y54.563
G01 F600 X54.413 Y54.636
G01 F600 X55.438 Y54.636
G01 F600 X55.461 Y54.563
G01 F600 X55.545 Y54.417
G01 F600 X55.658 Y54.293
G01 F600 X55.794 Y54.194
G01 F600 X55.947 Y54.126
G01 F600 X56.111 Y54.091
G01 F600 X56.279 Y54.091
G01 F600 X56.443 Y54.126
G01 F600 X56.597 Y54.194
G01 F600 X56.732 Y54.293
G01 F600 X56.845 Y54.417
G01 F600 X56.929 Y54.563
G01 F600 X56.953 Y54.636
G01 F600 X57.978 Y54.636
G01 F600 X58.001 Y54.563
G01 F600 X58.085 Y54.417
G01 F600 X58.198 Y54.293
G01 F600 X58.334 Y54.194
G01 F600 X58.487 Y54.126
G01 F600 X58.651 Y54.091
G01 F600 X58.819 Y54.091
G01 F600 X58.983 Y54.126
G01 F600 X59.137 Y54.194
G01 F600 X59.272 Y54.293
G01 F600 X59.385 Y54.417
G01 F600 X59.469 Y54.563
G01 F600 X59.492 Y54.636
G01 F600 X60.518 Y54.636
G01 F600 X60.541 Y54.563
G01 F600 X60.625 Y54.417
G01 F600 X60.738 Y54.293
G01 F600 X60.874 Y54.194
G01 F600 X61.027 Y54.126
G01 F600 X61.191 Y54.091
G01 F600 X61.359 Y54.091
G01 F600 X61.523 Y54.126
G01 F600 X61.677 Y54.194
G01 F600 X61.812 Y54.293
G01 F600 X61.925 Y54.417
G01 F600 X62.009 Y54.563
G01 F600 X62.033 Y54.636
G01 F600 X63.058 Y54.636
G01 F600 X63.081 Y54.563
G01 F600 X63.165 Y54.417
G01 F600 X63.278 Y54.293
G01 F600 X63.414 Y54.194
G01 F600 X63.567 Y54.126
G01 F600 X63.731 Y54.091
G01 F600 X63.899 Y54.091
G01 F600 X64.063 Y54.126
G01 F600 X64.217 Y54.194
G01 F600 X64.352 Y54.293
G01 F600 X64.465 Y54.417
G01 F600 X64.549 Y54.563
G01 F600 X64.573 Y54.636
G01 F600 X65.598 Y54.636
G01 F600 X65.621 Y54.563
G01 F600 X65.705 Y54.417
G01 F600 X65.818 Y54.293
G01 F600 X65.954 Y54.194
G01 F600 X66.107 Y54.126
G01 F600 X66.271 Y54.091
G01 F600 X66.439 Y54.091
G01 F600 X66.603 Y54.126
G01 F600 X66.757 Y54.194
G01 F600 X66.892 Y54.293
G01 F600 X67.005 Y54.417
G01 F600 X67.089 Y54.563
G01 F600 X67.112 Y54.636
G01 F600 X68.138 Y54.636
G01 F600 X68.161 Y54.563
G01 F600 X68.245 Y54.417
G01 F600 X68.358 Y54.293
G01 F600 X68.494 Y54.194
G01 F600 X68.647 Y54.126
G01 F600 X68.811 Y54.091
G01 F600 X68.979 Y54.091
G01 F600 X69.143 Y54.126
G01 F600 X69.297 Y54.194
G01 F600 X69.432 Y54.293
G01 F600 X69.545 Y54.417
G01 F600 X69.629 Y54.563
G01 F600 X69.681 Y54.722
G01 F600 X69.698 Y54.889
G01 F600 X69.681 Y55.056
G01 F600 X69.629 Y55.216
G01 F600 X69.545 Y55.361
G01 F600 X69.432 Y55.486
G01 F600 X69.297 Y55.585
G01 F600 X69.143 Y55.653
G01 F600 X68.979 Y55.688
G01 F600 X68.811 Y55.688
G01 F600 X68.647 Y55.653
G01 F600 X68.494 Y55.585
G01 F600 X68.358 Y55.486
G01 F600 X68.245 Y55.361
G01 F600 X68.161 Y55.216
G01 F600 X68.138 Y55.143
G01 F600 X67.879 Y55.143
G01 F600 X67.879 Y58.446
G01 F600 X71.934 Y58.446
G01 F600 X71.960 Y58.368
G01 F600 X72.045 Y58.220
G01 F600 X72.159 Y58.093
G01 F600 X72.297 Y57.993
G01 F600 X72.453 Y57.924
G01 F600 X72.620 Y57.888
G01 F600 X72.790 Y57.888
G01 F600 X72.957 Y57.924
G01 F600 X73.113 Y57.993
G01 F600 X73.251 Y58.093
G01 F600 X73.365 Y58.220
G01 F600 X73.450 Y58.368
G01 F600 X73.503 Y58.530
G01 F600 X73.521 Y58.699
G01 F600 X73.503 Y58.869
G01 F600 X73.450 Y59.031
G01 F600 X73.365 Y59.179
G01 F600 X73.251 Y59.306
G01 F600 X73.113 Y59.406
G01 F600 X72.957 Y59.475
G01 F600 X72.790 Y59.511
G01 F600 X72.620 Y59.511
G01 F600 X72.453 Y59.475
G01 F600 X72.297 Y59.406
G01 F600 X72.159 Y59.306
G01 F600 X72.045 Y59.179
G01 F600 X71.960 Y59.031
G01 F600 X71.934 Y58.953
G01 F600 X67.599 Y58.953
G01 F600 X67.546 Y58.942
G01 F600 X67.498 Y58.920
G01 F600 X67.455 Y58.889
G01 F600 X67.419 Y58.849
G01 F600 X67.392 Y58.803
G01 F600 X67.376 Y58.752
G01 F600 X67.371 Y58.705
G01 F600 X67.371 Y55.143
G01 F600 X67.112 Y55.143
G01 F600 X67.089 Y55.216
G01 F600 X67.005 Y55.361
G01 F600 X66.892 Y55.486
G01 F600 X66.757 Y55.585
G01 F600 X66.603 Y55.653
G01 F600 X66.439 Y55.688
G01 F600 X66.271 Y55.688
G01 F600 X66.107 Y55.653
G01 F600 X65.954 Y55.585
G01 F600 X65.818 Y55.486
G01 F600 X65.705 Y55.361
G01 F600 X65.621 Y55.216
G01 F600 X65.598 Y55.143
G01 F600 X64.573 Y55.143
G01 F600 X64.549 Y55.216
G01 F600 X64.465 Y55.361
G01 F600 X64.352 Y55.486
G01 F600 X64.217 Y55.585
G01 F600 X64.063 Y55.653
G01 F600 X63.899 Y55.688
G01 F600 X63.731 Y55.688
G01 F600 X63.567 Y55.653
G01 F600 X63.414 Y55.585
G01 F600 X63.278 Y55.486
G01 F600 X63.165 Y55.361
G01 F600 X63.081 Y55.216
G01 F600 X63.058 Y55.143
G01 F600 X62.033 Y55.143
G01 F600 X62.009 Y55.216
G01 F600 X61.925 Y55.361
G01 F600 X61.812 Y55.486
G01 F600 X61.677 Y55.585
G01 F600 X61.523 Y55.653
G01 F600 X61.359 Y55.688
G01 F600 X61.191 Y55.688
G01 F600 X61.027 Y55.653
G01 F600 X60.874 Y55.585
G01 F600 X60.738 Y55.486
G01 F600 X60.625 Y55.361
G01 F600 X60.541 Y55.216
G01 F600 X60.518 Y55.143
G01 F600 X59.492 Y55.143
G01 F600 X59.469 Y55.216
G01 F600 X59.385 Y55.361
G01 F600 X59.272 Y55.486
G01 F600 X59.137 Y55.585
G01 F600 X58.983 Y55.653
G01 F600 X58.819 Y55.688
G01 F600 X58.651 Y55.688
G01 F600 X58.487 Y55.653
G01 F600 X58.334 Y55.585
G01 F600 X58.198 Y55.486
G01 F600 X58.085 Y55.361
G01 F600 X58.001 Y55.216
G01 F600 X57.978 Y55.143
G01 F600 X56.953 Y55.143
G01 F600 X56.929 Y55.216
G01 F600 X56.845 Y55.361
G01 F600 X56.732 Y55.486
G01 F600 X56.597 Y55.585
G01 F600 X56.443 Y55.653
G01 F600 X56.279 Y55.688
G01 F600 X56.111 Y55.688
G01 F600 X55.947 Y55.653
G01 F600 X55.794 Y55.585
G01 F600 X55.658 Y55.486
G01 F600 X55.545 Y55.361
G01 F600 X55.461 Y55.216
G01 F600 X55.438 Y55.143
G01 F600 X54.413 Y55.143
G01 F600 X54.389 Y55.216
G01 F600 X54.305 Y55.361
G01 F600 X54.192 Y55.486
G01 F600 X54.057 Y55.585
G01 F600 X53.903 Y55.653
G01 F600 X53.739 Y55.688
G01 F600 X53.571 Y55.688
G01 F600 X53.407 Y55.653
G01 F600 X53.254 Y55.585
G01 F600 X53.118 Y55.486
G01 F600 X53.005 Y55.361
G01 F600 X52.921 Y55.216
G01 F600 X52.898 Y55.143
G01 F600 X51.873 Y55.143
G01 F600 X51.849 Y55.216
G01 F600 X51.765 Y55.361
G01 F600 X51.652 Y55.486
G01 F600 X51.517 Y55.585
G01 F600 X51.363 Y55.653
G01 F600 X51.199 Y55.688
G01 F600 X51.031 Y55.688
G01 F600 X50.867 Y55.653
G01 F600 X50.714 Y55.585
G01 F600 X50.578 Y55.486
G01 F600 X50.465 Y55.361
G01 F600 X50.381 Y55.216
G01 F600 X50.358 Y55.143
G01 F600 X49.346 Y55.143
G01 F600 X49.320 Y55.221
G01 F600 X49.235 Y55.369
G01 F600 X49.121 Y55.496
G01 F600 X48.983 Y55.596
G01 F600 X48.827 Y55.665
G01 F600 X48.660 Y55.701
G01 F600 X48.490 Y55.701
G01 F600 X48.323 Y55.665
G01 F600 X48.167 Y55.596
G01 F600 X48.029 Y55.496
G01 F600 X47.915 Y55.369
G01 F600 X47.830 Y55.221
G01 F600 X47.804 Y55.143
G01 F600 X45.523 Y55.143
G01 F600 X45.499 Y55.216
G01 F600 X45.415 Y55.361
G01 F600 X45.302 Y55.486
G01 F600 X45.167 Y55.585
G01 F600 X45.013 Y55.653
G01 F600 X44.849 Y55.688
G01 F600 X44.681 Y55.688
G01 F600 X44.517 Y55.653
G01 F600 X44.364 Y55.585
G01 F600 X44.228 Y55.486
G01 F600 X44.115 Y55.361
G01 F600 X44.031 Y55.216
G01 F600 X44.008 Y55.143
G01 F600 X42.983 Y55.143
G01 F600 X42.959 Y55.216
G01 F600 X42.875 Y55.361
G01 F600 X42.762 Y55.486
G01 F600 X42.627 Y55.585
G01 F600 X42.473 Y55.653
G01 F600 X42.309 Y55.688
G01 F600 X42.141 Y55.688
G01 F600 X41.977 Y55.653
G01 F600 X41.824 Y55.585
G01 F600 X41.688 Y55.486
G01 F600 X41.575 Y55.361
G01 F600 X41.491 Y55.216
G01 F600 X41.468 Y55.143
G01 F600 X40.443 Y55.143
G01 F600 X40.419 Y55.216
G01 F600 X40.335 Y55.361
G01 F600 X40.222 Y55.486
G01 F600 X40.087 Y55.585
G01 F600 X39.933 Y55.653
G01 F600 X39.769 Y55.688
G01 F600 X39.601 Y55.688
G01 F600 X39.437 Y55.653
G01 F600 X39.284 Y55.585
G01 F600 X39.148 Y55.486
G01 F600 X39.035 Y55.361
G01 F600 X38.951 Y55.216
G01 F600 X38.928 Y55.143
G01 F600 X37.903 Y55.143
G01 F600 X37.879 Y55.216
G01 F600 X37.795 Y55.361
G01 F600 X37.682 Y55.486
G01 F600 X37.547 Y55.585
G01 F600 X37.393 Y55.653
G01 F600 X37.229 Y55.688
G01 F600 X37.061 Y55.688
G01 F600 X36.897 Y55.653
G01 F600 X36.744 Y55.585
G01 F600 X36.608 Y55.486
G01 F600 X36.495 Y55.361
G01 F600 X36.411 Y55.216
G01 F600 X36.388 Y55.143
G01 F600 X35.363 Y55.143
G01 F600 X35.339 Y55.216
G01 F600 X35.255 Y55.361
G01 F600 X35.142 Y55.486
G01 F600 X35.007 Y55.585
G01 F600 X34.853 Y55.653
G01 F600 X34.689 Y55.688
G01 F600 X34.521 Y55.688
G01 F600 X34.357 Y55.653
G01 F600 X34.204 Y55.585
G01 F600 X34.068 Y55.486
G01 F600 X33.955 Y55.361
G01 F600 X33.871 Y55.216
G01 F600 X33.848 Y55.143
G01 F600 X32.823 Y55.143
G01 F600 X32.799 Y55.216
G01 F600 X32.715 Y55.361
G01 F600 X32.602 Y55.486
G01 F600 X32.467 Y55.585
G01 F600 X32.313 Y55.653
G01 F600 X32.149 Y55.688
G01 F600 X31.981 Y55.688
G01 F600 X31.817 Y55.653
G01 F600 X31.664 Y55.585
G01 F600 X31.528 Y55.486
G01 F600 X31.415 Y55.361
G01 F600 X31.331 Y55.216
G01 F600 X31.308 Y55.143
G01 F600 X30.283 Y55.143
G01 F600 X30.259 Y55.216
G01 F600 X30.175 Y55.361
G01 F600 X30.062 Y55.486
G01 F600 X29.927 Y55.585
G01 F600 X29.773 Y55.653
G01 F600 X29.609 Y55.688
G01 F600 X29.441 Y55.688
G01 F600 X29.277 Y55.653
G01 F600 X29.124 Y55.585
G01 F600 X28.988 Y55.486
G01 F600 X28.875 Y55.361
G01 F600 X28.791 Y55.216
G01 F600 X28.768 Y55.143
G01 F600 X28.509 Y55.143
G01 F600 X28.509 Y59.975
G01 F600 X28.504 Y60.022
G01 F600 X28.488 Y60.073
G01 F600 X28.461 Y60.119
G01 F600 X28.425 Y60.159
G01 F600 X28.382 Y60.190
G01 F600 X28.334 Y60.212
G01 F600 X28.282 Y60.223
G01 F600 X21.406 Y60.223
G01 F600 X21.380 Y60.301
G01 F600 X21.295 Y60.449
G01 F600 X21.181 Y60.576
G01 F600 X21.043 Y60.676
G01 F600 X20.887 Y60.745
G01 F600 X20.720 Y60.781
G01 F600 X20.550 Y60.781
G00 F3000 Z2.000
G00 F3000 X92.941 Y58.228
G00 F1500 Z0
G01 F600 Z-0.100
G01 F600 X92.777 Y58.193
G01 F600 X92.624 Y58.125
G01 F600 X92.488 Y58.026
G01 F600 X92.375 Y57.901
G01 F600 X92.291 Y57.756
G01 F600 X92.240 Y57.596
G01 F600 X92.222 Y57.429
G01 F600 X92.240 Y57.262
G01 F600 X92.291 Y57.103
G01 F600 X92.375 Y56.957
G01 F600 X92.488 Y56.833
G01 F600 X92.624 Y56.734
G01 F600 X92.777 Y56.666
G01 F600 X92.941 Y56.631
G01 F600 X93.109 Y56.631
G01 F600 X93.273 Y56.666
G01 F600 X93.427 Y56.734
G01 F600 X93.562 Y56.833
G01 F600 X93.675 Y56.957
G01 F600 X93.759 Y57.103
G01 F600 X93.782 Y57.176
G01 F600 X95.311 Y57.176
G01 F600 X95.311 Y51.434
G01 F600 X93.828 Y51.434
G01 F600 X93.828 Y51.983
G01 F600 X92.223 Y51.983
G01 F600 X92.223 Y50.379
G01 F600 X93.828 Y50.379
G01 F600 X93.828 Y50.928
G01 F600 X95.592 Y50.928
G01 F600 X95.644 Y50.939
G01 F600 X95.692 Y50.961
G01 F600 X95.735 Y50.992
G01 F600 X95.771 Y51.031
G01 F600 X95.798 Y51.078
G01 F600 X95.814 Y51.128
G01 F600 X95.819 Y51.175
G01 F600 X95.819 Y57.435
G01 F600 X95.814 Y57.482
G01 F600 X95.798 Y57.533
G01 F600 X95.771 Y57.579
G01 F600 X95.735 Y57.619
G01 F600 X95.692 Y57.650
G01 F600 X95.644 Y57.672
G01 F600 X95.592 Y57.683
G01 F600 X93.782 Y57.683
G01 F600 X93.759 Y57.756
G01 F600 X93.675 Y57.901
G01 F600 X93.562 Y58.026
G01 F600 X93.427 Y58.125
G01 F600 X93.273 Y58.193
G01 F600 X93.109 Y58.228
G01 F600 X92.941 Y58.228
G00 F3000 Z2.000
G00 F3000 X90.401 Y58.228
G00 F1500 Z0
G01 F600 Z-0.100
G01 F600 X90.237 Y58.193
G01 F600 X90.084 Y58.125
G01 F600 X89.948 Y58.026
G01 F600 X89.835 Y57.901
G01 F600 X89.751 Y57.756
G01 F600 X89.700 Y57.596
G01 F600 X89.682 Y57.429
G01 F600 X89.700 Y57.262
G01 F600 X89.751 Y57.103
G01 F600 X89.835 Y56.957
G01 F600 X89.948 Y56.833
G01 F600 X90.084 Y56.734
G01 F600 X90.237 Y56.666
G01 F600 X90.401 Y56.631
G01 F600 X90.569 Y56.631
G01 F600 X90.733 Y56.666
G01 F600 X90.887 Y56.734
G01 F600 X91.022 Y56.833
G01 F600 X91.135 Y56.957
G01 F600 X91.219 Y57.103
G01 F600 X91.271 Y57.262
G01 F600 X91.288 Y57.429
G01 F600 X91.271 Y57.596
G01 F600 X91.219 Y57.756
G01 F600 X91.135 Y57.901
G01 F600 X91.022 Y58.026
G01 F600 X90.887 Y58.125
G01 F600 X90.733 Y58.193
G01 F600 X90.569 Y58.228
G01 F600 X90.401 Y58.228
G00 F3000 Z2.000
G00 F3000 X68.811 Y58.228
G00 F1500 Z0
G01 F600 Z-0.100
G01 F600 X68.647 Y58.193
G01 F600 X68.494 Y58.125
G01 F600 X68.358 Y58.026
G01 F600 X68.245 Y57.901
G01 F600 X68.161 Y57.756
G01 F600 X68.110 Y57.596
G01 F600 X68.092 Y57.429
G01 F600 X68.110 Y57.262
G01 F600 X68.161 Y57.103
G01 F600 X68.245 Y56.957
G01 F600 X68.358 Y56.833
G01 F600 X68.494 Y56.734
G01 F600 X68.647 Y56.666
G01 F600 X68.811 Y56.631
G01 F600 X68.979 Y56.631
G01 F600 X69.143 Y56.666
G01 F600 X69.297 Y56.734
G01 F600 X69.432 Y56.833
G01 F600 X69.545 Y56.957
G01 F600 X69.629 Y57.103
G01 F600 X69.653 Y57.176
G01 F600 X71.181 Y57.176
G01 F600 X71.181 Y51.434
G01 F600 X69.698 Y51.434
G01 F600 X69.698 Y51.983
G01 F600 X68.093 Y51.983
G01 F600 X68.093 Y50.379
G01 F600 X69.698 Y50.379
G01 F600 X69.698 Y50.928
G01 F600 X71.462 Y50.928
G01 F600 X71.514 Y50.939
G01 F600 X71.562 Y50.961
G01 F600 X71.605 Y50.992
G01 F600 X71.641 Y51.031
G01 F600 X71.668 Y51.078
G01 F600 X71.684 Y51.128
G01 F600 X71.689 Y51.175
G01 F600 X71.689 Y57.435
G01 F600 X71.684 Y57.482
G01 F600 X71.668 Y57.533
G01 F600 X71.641 Y57.579
G01 F600 X71.605 Y57.619
G01 F600 X71.562 Y57.650
G01 F600 X71.514 Y57.672
G01 F600 X71.462 Y57.683
G01 F600 X69.653 Y57.683
G01 F600 X69.629 Y57.756
G01 F600 X69.545 Y57.901
G01 F600 X69.432 Y58.026
G01 F600 X69.297 Y58.125
G01 F600 X69.143 Y58.193
G01 F600 X68.979 Y58.228
G01 F600 X68.811 Y58.228
G00 F3000 Z2.000
G00 F3000 X66.271 Y58.228
G00 F1500 Z0
G01 F600 Z-0.100
G01 F600 X66.107 Y58.193
G01 F600 X65.954 Y58.125
G01 F600 X65.818 Y58.026
G01 F600 X65.705 Y57.901
G01 F600 X65.621 Y57.756
G01 F600 X65.570 Y57.596
G01 F600 X65.552 Y57.429
G01 F600 X65.570 Y57.262
G01 F600 X65.621 Y57.103
G01 F600 X65.705 Y56.957
G01 F600 X65.818 Y56.833
G01 F600 X65.954 Y56.734
G01 F600 X66.107 Y56.666
G01 F600 X66.271 Y56.631
G01 F600 X66.439 Y56.631
G01 F600 X66.603 Y56.666
G01 F600 X66.757 Y56.734
G01 F600 X66.892 Y56.833
G01 F600 X67.005 Y56.957
G01 F600 X67.089 Y57.103
G01 F600 X67.141 Y57.262
G01 F600 X67.158 Y57.429
G01 F600 X67.141 Y57.596
G01 F600 X67.089 Y57.756
G01 F600 X67.005 Y57.901
G01 F600 X66.892 Y58.026
G01 F600 X66.757 Y58.125
G01 F600 X66.603 Y58.193
G01 F600 X66.439 Y58.228
G01 F600 X66.271 Y58.228
G00 F3000 Z2.000
G00 F3000 X75.161 Y58.228
G00 F1500 Z0
G01 F600 Z-0.100
G01 F600 X74.997 Y58.193
G01 F600 X74.844 Y58.125
G01 F600 X74.708 Y58.026
G01 F600 X74.595 Y57.901
G01 F600 X74.511 Y57.756
G01 F600 X74.460 Y57.596
G01 F600 X74.442 Y57.429
G01 F600 X74.460 Y57.262
G01 F600 X74.511 Y57.103
G01 F600 X74.595 Y56.957
G01 F600 X74.708 Y56.833
G01 F600 X74.844 Y56.734
G01 F600 X74.997 Y56.666
G01 F600 X75.161 Y56.631
G01 F600 X75.329 Y56.631
G01 F600 X75.493 Y56.666
G01 F600 X75.647 Y56.734
G01 F600 X75.782 Y56.833
G01 F600 X75.895 Y56.957
G01 F600 X75.979 Y57.103
G01 F600 X76.031 Y57.262
G01 F600 X76.048 Y57.429
G01 F600 X76.031 Y57.596
G01 F600 X75.979 Y57.756
G01 F600 X75.895 Y57.901
G01 F600 X75.782 Y58.026
G01 F600 X75.647 Y58.125
G01 F600 X75.493 Y58.193
G01 F600 X75.329 Y58.228
G01 F600 X75.161 Y58.228
G00 F3000 Z2.000
G00 F3000 X61.191 Y58.228
G00 F1500 Z0
G01 F600 Z-0.100
G01 F600 X61.027 Y58.193
G01 F600 X60.874 Y58.125
G01 F600 X60.738 Y58.026
G01 F600 X60.625 Y57.901
G01 F600 X60.541 Y57.756
G01 F600 X60.490 Y57.596
G01 F600 X60.472 Y57.429
G01 F600 X60.490 Y57.262
G01 F600 X60.541 Y57.103
G01 F600 X60.625 Y56.957
G01 F600 X60.738 Y56.833
G01 F600 X60.874 Y56.734
G01 F600 X61.027 Y56.666
G01 F600 X61.191 Y56.631
G01 F600 X61.359 Y56.631
G01 F600 X61.523 Y56.666
G01 F600 X61.677 Y56.734
G01 F600 X61.812 Y56.833
G01 F600 X61.925 Y56.957
G01 F600 X62.009 Y57.103
G01 F600 X62.061 Y57.262
G01 F600 X62.078 Y57.429
G01 F600 X62.061 Y57.596
G01 F600 X62.009 Y57.756
G01 F600 X61.925 Y57.901
G01 F600 X61.812 Y58.026
G01 F600 X61.677 Y58.125
G01 F600 X61.523 Y58.193
G01 F600 X61.359 Y58.228
G01 F600 X61.191 Y58.228
G00 F3000 Z2.000
G00 F3000 X63.731 Y58.228
G00 F1500 Z0
G01 F600 Z-0.100
G01 F600 X63.567 Y58.193
G01 F600 X63.414 Y58.125
G01 F600 X63.278 Y58.026
G01 F600 X63.165 Y57.901
G01 F600 X63.081 Y57.756
G01 F600 X63.030 Y57.596
G01 F600 X63.012 Y57.429
G01 F600 X63.030 Y57.262
G01 F600 X63.081 Y57.103
G01 F600 X63.165 Y56.957
G01 F600 X63.278 Y56.833
G01 F600 X63.414 Y56.734
G01 F600 X63.567 Y56.666
G01 F600 X63.731 Y56.631
G01 F600 X63.899 Y56.631
G01 F600 X64.063 Y56.666
G01 F600 X64.217 Y56.734
G01 F600 X64.352 Y56.833
G01 F600 X64.465 Y56.957
G01 F600 X64.549 Y57.103
G01 F600 X64.601 Y57.262
G01 F600 X64.618 Y57.429
G01 F600 X64.601 Y57.596
G01 F600 X64.549 Y57.756
G01 F600 X64.465 Y57.901
G01 F600 X64.352 Y58.026
G01 F600 X64.217 Y58.125
G01 F600 X64.063 Y58.193
G01 F600 X63.899 Y58.228
G01 F600 X63.731 Y58.228
G00 F3000 Z2.000
G00 F3000 X85.321 Y58.228
G00 F1500 Z0
G01 F600 Z-0.100
G01 F600 X85.157 Y58.193
G01 F600 X85.004 Y58.125
G01 F600 X84.868 Y58.026
G01 F600 X84.755 Y57.901
G01 F600 X84.671 Y57.756
G01 F600 X84.620 Y57.596
G01 F600 X84.602 Y57.429
G01 F600 X84.620 Y57.262
G01 F600 X84.671 Y57.103
G01 F600 X84.755 Y56.957
G01 F600 X84.868 Y56.833
G01 F600 X85.004 Y56.734
G01 F600 X85.157 Y56.666
G01 F600 X85.321 Y56.631
G01 F600 X85.489 Y56.631
G01 F600 X85.653 Y56.666
G01 F600 X85.807 Y56.734
G01 F600 X85.942 Y56.833
G01 F600 X86.055 Y56.957
G01 F600 X86.139 Y57.103
G01 F600 X86.191 Y57.262
G01 F600 X86.208 Y57.429
G01 F600 X86.191 Y57.596
G01 F600 X86.139 Y57.756
G01 F600 X86.055 Y57.901
G01 F600 X85.942 Y58.026
G01 F600 X85.807 Y58.125
G01 F600 X85.653 Y58.193
G01 F600 X85.489 Y58.228
G01 F600 X85.321 Y58.228
G00 F3000 Z2.000
G00 F3000 X87.861 Y58.228
G00 F1500 Z0
G01 F600 Z-0.100
G01 F600 X87.697 Y58.193
G01 F600 X87.544 Y58.125
G01 F600 X87.408 Y58.026
G01 F600 X87.295 Y57.901
G01 F600 X87.211 Y57.756
G01 F600 X87.160 Y57.596
G01 F600 X87.142 Y57.429
G01 F600 X87.160 Y57.262
G01 F600 X87.211 Y57.103
G01 F600 X87.295 Y56.957
G01 F600 X87.408 Y56.833
G01 F600 X87.544 Y56.734
G01 F600 X87.697 Y56.666
G01 F600 X87.861 Y56.631
G01 F600 X88.029 Y56.631
G01 F600 X88.193 Y56.666
G01 F600 X88.347 Y56.734
G01 F600 X88.482 Y56.833
G01 F600 X88.595 Y56.957
G01 F600 X88.679 Y57.103
G01 F600 X88.731 Y57.262
G01 F600 X88.748 Y57.429
G01 F600 X88.731 Y57.596
G01 F600 X88.679 Y57.756
G01 F600 X88.595 Y57.901
G01 F600 X88.482 Y58.026
G01 F600 X88.347 Y58.125
G01 F600 X88.193 Y58.193
G01 F600 X88.029 Y58.228
G01 F600 X87.861 Y58.228
G00 F3000 Z2.000
G00 F3000 X77.701 Y58.228
G00 F1500 Z0
G01 F600 Z-0.100
G01 F600 X77.537 Y58.193
G01 F600 X77.384 Y58.125
G01 F600 X77.248 Y58.026
G01 F600 X77.135 Y57.901
G01 F600 X77.051 Y57.756
G01 F600 X77.000 Y57.596
G01 F600 X76.982 Y57.429
G01 F600 X77.000 Y57.262
G01 F600 X77.051 Y57.103
G01 F600 X77.135 Y56.957
G01 F600 X77.248 Y56.833
G01 F600 X77.384 Y56.734
G01 F600 X77.537 Y56.666
G01 F600 X77.701 Y56.631
G01 F600 X77.869 Y56.631
G01 F600 X78.033 Y56.666
G01 F600 X78.187 Y56.734
G01 F600 X78.322 Y56.833
G01 F600 X78.435 Y56.957
G01 F600 X78.519 Y57.103
G01 F600 X78.571 Y57.262
G01 F600 X78.588 Y57.429
G01 F600 X78.571 Y57.596
G01 F600 X78.519 Y57.756
G01 F600 X78.435 Y57.901
G01 F600 X78.322 Y58.026
G01 F600 X78.187 Y58.125
G01 F600 X78.033 Y58.193
G01 F600 X77.869 Y58.228
G01 F600 X77.701 Y58.228
G00 F3000 Z2.000
G00 F3000 X82.781 Y58.228
G00 F1500 Z0
G01 F600 Z-0.100
G01 F600 X82.617 Y58.193
G01 F600 X82.464 Y58.125
G01 F600 X82.328 Y58.026
G01 F600 X82.215 Y57.901
G01 F600 X82.131 Y57.756
G01 F600 X82.080 Y57.596
G01 F600 X82.062 Y57.429
G01 F600 X82.080 Y57.262
G01 F600 X82.131 Y57.103
G01 F600 X82.215 Y56.957
G01 F600 X82.328 Y56.833
G01 F600 X82.464 Y56.734
G01 F600 X82.617 Y56.666
G01 F600 X82.781 Y56.631
G01 F600 X82.949 Y56.631
G01 F600 X83.113 Y56.666
G01 F600 X83.267 Y56.734
G01 F600 X83.402 Y56.833
G01 F600 X83.515 Y56.957
G01 F600 X83.599 Y57.103
G01 F600 X83.651 Y57.262
G01 F600 X83.668 Y57.429
G01 F600 X83.651 Y57.596
G01 F600 X83.599 Y57.756
G01 F600 X83.515 Y57.901
G01 F600 X83.402 Y58.026
G01 F600 X83.267 Y58.125
G01 F600 X83.113 Y58.193
G01 F600 X82.949 Y58.228
G01 F600 X82.781 Y58.228
G00 F3000 Z2.000
G00 F3000 X80.241 Y58.228
G00 F1500 Z0
G01 F600 Z-0.100
G01 F600 X80.077 Y58.193
G01 F600 X79.924 Y58.125
G01 F600 X79.788 Y58.026
G01 F600 X79.675 Y57.901
G01 F600 X79.591 Y57.756
G01 F600 X79.540 Y57.596
G01 F600 X79.522 Y57.429
G01 F600 X79.540 Y57.262
G01 F600 X79.591 Y57.103
G01 F600 X79.675 Y56.957
G01 F600 X79.788 Y56.833
G01 F600 X79.924 Y56.734
G01 F600 X80.077 Y56.666
G01 F600 X80.241 Y56.631
G01 F600 X80.409 Y56.631
G01 F600 X80.573 Y56.666
G01 F600 X80.727 Y56.734
G01 F600 X80.862 Y56.833
G01 F600 X80.975 Y56.957
G01 F600 X81.059 Y57.103
G01 F600 X81.111 Y57.262
G01 F600 X81.128 Y57.429
G01 F600 X81.111 Y57.596
G01 F600 X81.059 Y57.756
G01 F600 X80.975 Y57.901
G01 F600 X80.862 Y58.026
G01 F600 X80.727 Y58.125
G01 F600 X80.573 Y58.193
G01 F600 X80.409 Y58.228
G01 F600 X80.241 Y58.228
G00 F3000 Z2.000
G00 F3000 X37.061 Y58.228
G00 F1500 Z0
G01 F600 Z-0.100
G01 F600 X36.897 Y58.193
G01 F600 X36.744 Y58.125
G01 F600 X36.608 Y58.026
G01 F600 X36.495 Y57.901
G01 F600 X36.411 Y57.756
G01 F600 X36.360 Y57.596
G01 F600 X36.342 Y57.429
G01 F600 X36.360 Y57.262
G01 F600 X36.411 Y57.103
G01 F600 X36.495 Y56.957
G01 F600 X36.608 Y56.833
G01 F600 X36.744 Y56.734
G01 F600 X36.897 Y56.666
G01 F600 X37.061 Y56.631
G01 F600 X37.229 Y56.631
G01 F600 X37.393 Y56.666
G01 F600 X37.547 Y56.734
G01 F600 X37.682 Y56.833
G01 F600 X37.795 Y56.957
G01 F600 X37.879 Y57.103
G01 F600 X37.931 Y57.262
G01 F600 X37.948 Y57.429
G01 F600 X37.931 Y57.596
G01 F600 X37.879 Y57.756
G01 F600 X37.795 Y57.901
G01 F600 X37.682 Y58.026
G01 F600 X37.547 Y58.125
G01 F600 X37.393 Y58.193
G01 F600 X37.229 Y58.228
G01 F600 X37.061 Y58.228
G00 F3000 Z2.000
G00 F3000 X39.601 Y58.228
G00 F1500 Z0
G01 F600 Z-0.100
G01 F600 X39.437 Y58.193
G01 F600 X39.284 Y58.125
G01 F600 X39.148 Y58.026
G01 F600 X39.035 Y57.901
G01 F600 X38.951 Y57.756
G01 F600 X38.900 Y57.596
G01 F600 X38.882 Y57.429
G01 F600 X38.900 Y57.262
G01 F600 X38.951 Y57.103
G01 F600 X39.035 Y56.957
G01 F600 X39.148 Y56.833
G01 F600 X39.284 Y56.734
G01 F600 X39.437 Y56.666
G01 F600 X39.601 Y56.631
G01 F600 X39.769 Y56.631
G01 F600 X39.933 Y56.666
G01 F600 X40.087 Y56.734
G01 F600 X40.222 Y56.833
G01 F600 X40.335 Y56.957
G01 F600 X40.419 Y57.103
G01 F600 X40.471 Y57.262
G01 F600 X40.488 Y57.429
G01 F600 X40.471 Y57.596
G01 F600 X40.419 Y57.756
G01 F600 X40.335 Y57.901
G01 F600 X40.222 Y58.026
G01 F600 X40.087 Y58.125
G01 F600 X39.933 Y58.193
G01 F600 X39.769 Y58.228
G01 F600 X39.601 Y58.228
G00 F3000 Z2.000
G00 F3000 X29.441 Y58.228
G00 F1500 Z0
G01 F600 Z-0.100
G01 F600 X29.277 Y58.193
G01 F600 X29.124 Y58.125
G01 F600 X28.988 Y58.026
G01 F600 X28.875 Y57.901
G01 F600 X28.791 Y57.756
G01 F600 X28.740 Y57.596
G01 F600 X28.722 Y57.429
G01 F600 X28.740 Y57.262
G01 F600 X28.791 Y57.103
G01 F600 X28.875 Y56.957
G01 F600 X28.988 Y56.833
G01 F600 X29.124 Y56.734
G01 F600 X29.277 Y56.666
G01 F600 X29.441 Y56.631
G01 F600 X29.609 Y56.631
G01 F600 X29.773 Y56.666
G01 F600 X29.927 Y56.734
G01 F600 X30.062 Y56.833
G01 F600 X30.175 Y56.957
G01 F600 X30.259 Y57.103
G01 F600 X30.311 Y57.262
G01 F600 X30.328 Y57.429
G01 F600 X30.311 Y57.596
G01 F600 X30.259 Y57.756
G01 F600 X30.175 Y57.901
G01 F600 X30.062 Y58.026
G01 F600 X29.927 Y58.125
G01 F600 X29.773 Y58.193
G01 F600 X29.609 Y58.228
G01 F600 X29.441 Y58.228
G00 F3000 Z2.000
G00 F3000 X34.521 Y58.228
G00 F1500 Z0
G01 F600 Z-0.100
G01 F600 X34.357 Y58.193
G01 F600 X34.204 Y58.125
G01 F600 X34.068 Y58.026
G01 F600 X33.955 Y57.901
G01 F600 X33.871 Y57.756
G01 F600 X33.820 Y57.596
G01 F600 X33.802 Y57.429
G01 F600 X33.820 Y57.262
G01 F600 X33.871 Y57.103
G01 F600 X33.955 Y56.957
G01 F600 X34.068 Y56.833
G01 F600 X34.204 Y56.734
G01 F600 X34.357 Y56.666
G01 F600 X34.521 Y56.631
G01 F600 X34.689 Y56.631
G01 F600 X34.853 Y56.666
G01 F600 X35.007 Y56.734
G01 F600 X35.142 Y56.833
G01 F600 X35.255 Y56.957
G01 F600 X35.339 Y57.103
G01 F600 X35.391 Y57.262
G01 F600 X35.408 Y57.429
G01 F600 X35.391 Y57.596
G01 F600 X35.339 Y57.756
G01 F600 X35.255 Y57.901
G01 F600 X35.142 Y58.026
G01 F600 X35.007 Y58.125
G01 F600 X34.853 Y58.193
G01 F600 X34.689 Y58.228
G01 F600 X34.521 Y58.228
G00 F3000 Z2.000
G00 F3000 X31.981 Y58.228
G00 F1500 Z0
G01 F600 Z-0.100
G01 F600 X31.817 Y58.193
G01 F600 X31.664 Y58.125
G01 F600 X31.528 Y58.026
G01 F600 X31.415 Y57.901
G01 F600 X31.331 Y57.756
G01 F600 X31.280 Y57.596
G01 F600 X31.262 Y57.429
G01 F600 X31.280 Y57.262
G01 F600 X31.331 Y57.103
G01 F600 X31.415 Y56.957
G01 F600 X31.528 Y56.833
G01 F600 X31.664 Y56.734
G01 F600 X31.817 Y56.666
G01 F600 X31.981 Y56.631
G01 F600 X32.149 Y56.631
G01 F600 X32.313 Y56.666
G01 F600 X32.467 Y56.734
G01 F600 X32.602 Y56.833
G01 F600 X32.715 Y56.957
G01 F600 X32.799 Y57.103
G01 F600 X32.851 Y57.262
G01 F600 X32.868 Y57.429
G01 F600 X32.851 Y57.596
G01 F600 X32.799 Y57.756
G01 F600 X32.715 Y57.901
G01 F600 X32.602 Y58.026
G01 F600 X32.467 Y58.125
G01 F600 X32.313 Y58.193
G01 F600 X32.149 Y58.228
G01 F600 X31.981 Y58.228
G00 F3000 Z2.000
G00 F3000 X53.571 Y58.228
G00 F1500 Z0
G01 F600 Z-0.100
G01 F600 X53.407 Y58.193
G01 F600 X53.254 Y58.125
G01 F600 X53.118 Y58.026
G01 F600 X53.005 Y57.901
G01 F600 X52.921 Y57.756
G01 F600 X52.870 Y57.596
G01 F600 X52.852 Y57.429
G01 F600 X52.870 Y57.262
G01 F600 X52.921 Y57.103
G01 F600 X53.005 Y56.957
G01 F600 X53.118 Y56.833
G01 F600 X53.254 Y56.734
G01 F600 X53.407 Y56.666
G01 F600 X53.571 Y56.631
G01 F600 X53.739 Y56.631
G01 F600 X53.903 Y56.666
G01 F600 X54.057 Y56.734
G01 F600 X54.192 Y56.833
G01 F600 X54.305 Y56.957
G01 F600 X54.389 Y57.103
G01 F600 X54.441 Y57.262
G01 F600 X54.458 Y57.429
G01 F600 X54.441 Y57.596
G01 F600 X54.389 Y57.756
G01 F600 X54.305 Y57.901
G01 F600 X54.192 Y58.026
G01 F600 X54.057 Y58.125
G01 F600 X53.903 Y58.193
G01 F600 X53.739 Y58.228
G01 F600 X53.571 Y58.228
G00 F3000 Z2.000
G00 F3000 X58.651 Y58.228
G00 F1500 Z0
G01 F600 Z-0.100
G01 F600 X58.487 Y58.193
G01 F600 X58.334 Y58.125
