( PCB drills )
( Generated by Rapid-PCB.com )
( Material Size)
( X= 100.000, Y= 75.000, Z= 1.580)
()
G00
G17
G21
G40
G49
G54
G80
G90
G94
G00 F3000 Z2.000
M03 S9000
G00 F3000 X6.670 Y15.531
G00 F1500 Z0
G01 F60 Z-2.000
G00 F3000 Z2.000
G00 F3000 X8.969 Y10.000
G00 F1500 Z0
G01 F60 Z-2.000
G00 F3000 Z2.000
G00 F3000 X18.100 Y9.181
G00 F1500 Z0
G01 F60 Z-2.000
G00 F3000 Z2.000
G00 F3000 X18.100 Y67.601
G00 F1500 Z0
G01 F60 Z-2.000
G00 F3000 Z2.000
G00 F3000 X19.370 Y23.151
G00 F1500 Z0
G01 F60 Z-2.000
G00 F3000 Z2.000
G00 F3000 X19.370 Y61.251
G00 F1500 Z0
G01 F60 Z-2.000
G00 F3000 Z2.000
G00 F3000 X20.640 Y14.261
G00 F1500 Z0
G01 F60 Z-2.000
G00 F3000 Z2.000
G00 F3000 X20.640 Y24.421
G00 F1500 Z0
G01 F60 Z-2.000
G00 F3000 Z2.000
G00 F3000 X24.450 Y4.101
G00 F1500 Z0
G01 F60 Z-2.000
G00 F3000 Z2.000
G00 F3000 X24.450 Y19.341
G00 F1500 Z0
G01 F60 Z-2.000
G00 F3000 Z2.000
G00 F3000 X30.800 Y12.991
G00 F1500 Z0
G01 F60 Z-2.000
G00 F3000 Z2.000
G00 F3000 X39.690 Y15.531
G00 F1500 Z0
G01 F60 Z-2.000
G00 F3000 Z2.000
G00 F3000 X42.230 Y7.911
G00 F1500 Z0
G01 F60 Z-2.000
G00 F3000 Z2.000
G00 F3000 X42.230 Y67.601
G00 F1500 Z0
G01 F60 Z-2.000
G00 F3000 Z2.000
G00 F3000 X43.500 Y68.871
G00 F1500 Z0
G01 F60 Z-2.000
G00 F3000 Z2.000
G00 F3000 X44.770 Y9.181
G00 F1500 Z0
G01 F60 Z-2.000
G00 F3000 Z2.000
G00 F3000 X44.770 Y14.261
G00 F1500 Z0
G01 F60 Z-2.000
G00 F3000 Z2.000
G00 F3000 X44.770 Y67.601
G00 F1500 Z0
G01 F60 Z-2.000
G00 F3000 Z2.000
G00 F3000 X47.310 Y10.451
G00 F1500 Z0
G01 F60 Z-2.000
G00 F3000 Z2.000
G00 F3000 X47.310 Y12.991
G00 F1500 Z0
G01 F60 Z-2.000
G00 F3000 Z2.000
G00 F3000 X48.580 Y4.101
G00 F1500 Z0
G01 F60 Z-2.000
G00 F3000 Z2.000
G00 F3000 X48.580 Y26.961
G00 F1500 Z0
G01 F60 Z-2.000
G00 F3000 Z2.000
G00 F3000 X54.930 Y14.261
G00 F1500 Z0
G01 F60 Z-2.000
G00 F3000 Z2.000
G00 F3000 X63.820 Y65.061
G00 F1500 Z0
G01 F60 Z-2.000
G00 F3000 Z2.000
G00 F3000 X66.360 Y7.911
G00 F1500 Z0
G01 F60 Z-2.000
G00 F3000 Z2.000
G00 F3000 X66.360 Y15.531
G00 F1500 Z0
G01 F60 Z-2.000
G00 F3000 Z2.000
G00 F3000 X66.360 Y66.331
G00 F1500 Z0
G01 F60 Z-2.000
G00 F3000 Z2.000
G00 F3000 X67.630 Y23.151
G00 F1500 Z0
G01 F60 Z-2.000
G00 F3000 Z2.000
G00 F3000 X67.630 Y34.581
G00 F1500 Z0
G01 F60 Z-2.000
G00 F3000 Z2.000
G00 F3000 X68.900 Y9.181
G00 F1500 Z0
G01 F60 Z-2.000
G00 F3000 Z2.000
G00 F3000 X70.170 Y10.451
G00 F1500 Z0
G01 F60 Z-2.000
G00 F3000 Z2.000
G00 F3000 X70.170 Y23.151
G00 F1500 Z0
G01 F60 Z-2.000
G00 F3000 Z2.000
G00 F3000 X71.440 Y19.341
G00 F1500 Z0
G01 F60 Z-2.000
G00 F3000 Z2.000
G00 F3000 X72.710 Y4.101
G00 F1500 Z0
G01 F60 Z-2.000
G00 F3000 Z2.000
G00 F3000 X85.410 Y7.911
G00 F1500 Z0
G01 F60 Z-2.000
G00 F3000 Z2.000
G00 F3000 X86.680 Y23.151
G00 F1500 Z0
G01 F60 Z-2.000
G00 F3000 Z2.000
G00 F3000 X87.950 Y14.261
G00 F1500 Z0
G01 F60 Z-2.000
G00 F3000 Z2.000
G00 F3000 X87.950 Y24.421
G00 F1500 Z0
G01 F60 Z-2.000
G00 F3000 Z2.000
G00 F3000 X89.220 Y63.791
G00 F1500 Z0
G01 F60 Z-2.000
G00 F3000 Z2.000
G00 F3000 X90.490 Y15.531
G00 F1500 Z0
G01 F60 Z-2.000
G00 F3000 Z2.000
G00 F3000 X90.490 Y66.331
G00 F1500 Z0
G01 F60 Z-2.000
G00 F3000 Z2.000
G00 F3000 X91.760 Y32.041
G00 F1500 Z0
G01 F60 Z-2.000
G00 F3000 Z2.000
G00 F3000 X91.760 Y56.171
G00 F1500 Z0
G01 F60 Z-2.000
G00 F3000 Z2.000
G00 F3000 X91.760 Y63.791
G00 F1500 Z0
G01 F60 Z-2.000
G00 F3000 Z2.000
G00 F3000 X93.030 Y9.181
G00 F1500 Z0
G01 F60 Z-2.000
G00 F3000 Z2.000
G00 F3000 X93.030 Y67.601
G00 F1500 Z0
G01 F60 Z-2.000
G00 F3000 Z2.000
G00 F3000 X94.300 Y28.866
G00 F1500 Z0
G01 F60 Z-2.000
G00 F3000 Z2.000
G00 F3000 X95.570 Y33.311
G00 F1500 Z0
G01 F60 Z-2.000
G00 F3000 Z2.000
G00 F3000 X95.570 Y40.931
G00 F1500 Z0
G01 F60 Z-2.000
G00 F3000 Z2.000
G00 F3000 X95.570 Y61.251
G00 F1500 Z0
G01 F60 Z-2.000
G00 F3000 Z2.000
G00 F3000 X2.860 Y4.101
G00 F1500 Z0
G01 F60 Z-2.000
G00 F3000 Z2.000
G00 F3000 X2.860 Y11.721
G00 F1500 Z0
G01 F60 Z-2.000
G00 F3000 Z2.000
G00 F3000 X2.860 Y62.521
G00 F1500 Z0
G01 F60 Z-2.000
G00 F3000 Z2.000
G00 F3000 X2.860 Y70.141
G00 F1500 Z0
G01 F60 Z-2.000
G00 F3000 Z2.000
G00 F3000 X5.400 Y4.101
G00 F1500 Z0
G01 F60 Z-2.000
G00 F3000 Z2.000
G00 F3000 X5.400 Y11.721
G00 F1500 Z0
G01 F60 Z-2.000
G00 F3000 Z2.000
G00 F3000 X5.400 Y62.521
G00 F1500 Z0
G01 F60 Z-2.000
G00 F3000 Z2.000
G00 F3000 X5.400 Y70.141
G00 F1500 Z0
G01 F60 Z-2.000
G00 F3000 Z2.000
G00 F3000 X7.940 Y4.101
G00 F1500 Z0
G01 F60 Z-2.000
G00 F3000 Z2.000
G00 F3000 X7.940 Y11.721
G00 F1500 Z0
G01 F60 Z-2.000
G00 F3000 Z2.000
G00 F3000 X7.940 Y62.521
G00 F1500 Z0
G01 F60 Z-2.000
G00 F3000 Z2.000
G00 F3000 X7.940 Y70.141
G00 F1500 Z0
G01 F60 Z-2.000
G00 F3000 Z2.000
G00 F3000 X10.480 Y4.101
G00 F1500 Z0
G01 F60 Z-2.000
G00 F3000 Z2.000
G00 F3000 X10.480 Y11.721
G00 F1500 Z0
G01 F60 Z-2.000
G00 F3000 Z2.000
G00 F3000 X10.480 Y62.521
G00 F1500 Z0
G01 F60 Z-2.000
G00 F3000 Z2.000
G00 F3000 X10.480 Y70.141
G00 F1500 Z0
G01 F60 Z-2.000
G00 F3000 Z2.000
G00 F3000 X13.020 Y4.101
G00 F1500 Z0
G01 F60 Z-2.000
G00 F3000 Z2.000
G00 F3000 X13.020 Y11.721
G00 F1500 Z0
G01 F60 Z-2.000
G00 F3000 Z2.000
G00 F3000 X13.020 Y62.521
G00 F1500 Z0
G01 F60 Z-2.000
G00 F3000 Z2.000
G00 F3000 X13.020 Y70.141
G00 F1500 Z0
G01 F60 Z-2.000
G00 F3000 Z2.000
G00 F3000 X15.560 Y4.101
G00 F1500 Z0
G01 F60 Z-2.000
G00 F3000 Z2.000
G00 F3000 X15.560 Y11.721
G00 F1500 Z0
G01 F60 Z-2.000
G00 F3000 Z2.000
G00 F3000 X15.560 Y62.521
G00 F1500 Z0
G01 F60 Z-2.000
G00 F3000 Z2.000
G00 F3000 X15.560 Y70.141
G00 F1500 Z0
G01 F60 Z-2.000
G00 F3000 Z2.000
G00 F3000 X18.100 Y4.101
G00 F1500 Z0
G01 F60 Z-2.000
G00 F3000 Z2.000
G00 F3000 X18.100 Y11.721
G00 F1500 Z0
G01 F60 Z-2.000
G00 F3000 Z2.000
G00 F3000 X18.100 Y62.521
G00 F1500 Z0
G01 F60 Z-2.000
G00 F3000 Z2.000
G00 F3000 X18.100 Y70.141
G00 F1500 Z0
G01 F60 Z-2.000
G00 F3000 Z2.000
G00 F3000 X20.640 Y4.101
G00 F1500 Z0
G01 F60 Z-2.000
G00 F3000 Z2.000
G00 F3000 X20.640 Y11.721
G00 F1500 Z0
G01 F60 Z-2.000
G00 F3000 Z2.000
G00 F3000 X20.640 Y62.521
G00 F1500 Z0
G01 F60 Z-2.000
G00 F3000 Z2.000
G00 F3000 X20.640 Y70.141
G00 F1500 Z0
G01 F60 Z-2.000
G00 F3000 Z2.000
G00 F3000 X26.990 Y4.101
G00 F1500 Z0
G01 F60 Z-2.000
G00 F3000 Z2.000
G00 F3000 X26.990 Y11.721
G00 F1500 Z0
G01 F60 Z-2.000
G00 F3000 Z2.000
G00 F3000 X26.990 Y62.521
G00 F1500 Z0
G01 F60 Z-2.000
G00 F3000 Z2.000
G00 F3000 X26.990 Y70.141
G00 F1500 Z0
G01 F60 Z-2.000
G00 F3000 Z2.000
G00 F3000 X29.530 Y4.101
G00 F1500 Z0
G01 F60 Z-2.000
G00 F3000 Z2.000
G00 F3000 X29.530 Y11.721
G00 F1500 Z0
G01 F60 Z-2.000
G00 F3000 Z2.000
G00 F3000 X29.530 Y62.521
G00 F1500 Z0
G01 F60 Z-2.000
G00 F3000 Z2.000
G00 F3000 X29.530 Y70.141
G00 F1500 Z0
G01 F60 Z-2.000
G00 F3000 Z2.000
G00 F3000 X32.070 Y4.101
G00 F1500 Z0
G01 F60 Z-2.000
G00 F3000 Z2.000
G00 F3000 X32.070 Y11.721
G00 F1500 Z0
G01 F60 Z-2.000
G00 F3000 Z2.000
G00 F3000 X32.070 Y62.521
G00 F1500 Z0
G01 F60 Z-2.000
G00 F3000 Z2.000
G00 F3000 X32.070 Y70.141
G00 F1500 Z0
G01 F60 Z-2.000
G00 F3000 Z2.000
G00 F3000 X34.610 Y4.101
G00 F1500 Z0
G01 F60 Z-2.000
G00 F3000 Z2.000
G00 F3000 X34.610 Y11.721
G00 F1500 Z0
G01 F60 Z-2.000
G00 F3000 Z2.000
G00 F3000 X34.610 Y62.521
G00 F1500 Z0
G01 F60 Z-2.000
G00 F3000 Z2.000
G00 F3000 X34.610 Y70.141
G00 F1500 Z0
G01 F60 Z-2.000
G00 F3000 Z2.000
G00 F3000 X37.150 Y4.101
G00 F1500 Z0
G01 F60 Z-2.000
G00 F3000 Z2.000
G00 F3000 X37.150 Y11.721
G00 F1500 Z0
G01 F60 Z-2.000
G00 F3000 Z2.000
G00 F3000 X37.150 Y62.521
G00 F1500 Z0
G01 F60 Z-2.000
G00 F3000 Z2.000
G00 F3000 X37.150 Y70.141
G00 F1500 Z0
G01 F60 Z-2.000
G00 F3000 Z2.000
G00 F3000 X39.690 Y4.101
G00 F1500 Z0
G01 F60 Z-2.000
G00 F3000 Z2.000
G00 F3000 X39.690 Y11.721
G00 F1500 Z0
G01 F60 Z-2.000
G00 F3000 Z2.000
G00 F3000 X39.690 Y62.521
G00 F1500 Z0
G01 F60 Z-2.000
G00 F3000 Z2.000
G00 F3000 X39.690 Y70.141
G00 F1500 Z0
G01 F60 Z-2.000
G00 F3000 Z2.000
G00 F3000 X42.230 Y4.101
G00 F1500 Z0
G01 F60 Z-2.000
G00 F3000 Z2.000
G00 F3000 X42.230 Y11.721
G00 F1500 Z0
G01 F60 Z-2.000
G00 F3000 Z2.000
G00 F3000 X42.230 Y62.521
G00 F1500 Z0
G01 F60 Z-2.000
G00 F3000 Z2.000
G00 F3000 X42.230 Y70.141
G00 F1500 Z0
G01 F60 Z-2.000
G00 F3000 Z2.000
G00 F3000 X44.770 Y4.101
G00 F1500 Z0
G01 F60 Z-2.000
G00 F3000 Z2.000
G00 F3000 X44.770 Y11.721
G00 F1500 Z0
G01 F60 Z-2.000
G00 F3000 Z2.000
G00 F3000 X44.770 Y62.521
G00 F1500 Z0
G01 F60 Z-2.000
G00 F3000 Z2.000
G00 F3000 X44.770 Y70.141
G00 F1500 Z0
G01 F60 Z-2.000
G00 F3000 Z2.000
G00 F3000 X51.120 Y4.101
G00 F1500 Z0
G01 F60 Z-2.000
G00 F3000 Z2.000
G00 F3000 X51.120 Y11.721
G00 F1500 Z0
G01 F60 Z-2.000
G00 F3000 Z2.000
G00 F3000 X51.120 Y62.521
G00 F1500 Z0
G01 F60 Z-2.000
G00 F3000 Z2.000
G00 F3000 X51.120 Y70.141
G00 F1500 Z0
G01 F60 Z-2.000
G00 F3000 Z2.000
G00 F3000 X53.660 Y4.101
G00 F1500 Z0
G01 F60 Z-2.000
G00 F3000 Z2.000
G00 F3000 X53.660 Y11.721
G00 F1500 Z0
G01 F60 Z-2.000
G00 F3000 Z2.000
G00 F3000 X53.660 Y62.521
G00 F1500 Z0
G01 F60 Z-2.000
G00 F3000 Z2.000
G00 F3000 X53.660 Y70.141
G00 F1500 Z0
G01 F60 Z-2.000
G00 F3000 Z2.000
G00 F3000 X56.200 Y4.101
G00 F1500 Z0
G01 F60 Z-2.000
G00 F3000 Z2.000
G00 F3000 X56.200 Y11.721
G00 F1500 Z0
G01 F60 Z-2.000
G00 F3000 Z2.000
G00 F3000 X56.200 Y62.521
G00 F1500 Z0
G01 F60 Z-2.000
G00 F3000 Z2.000
G00 F3000 X56.200 Y70.141
G00 F1500 Z0
G01 F60 Z-2.000
G00 F3000 Z2.000
G00 F3000 X58.740 Y4.101
G00 F1500 Z0
G01 F60 Z-2.000
G00 F3000 Z2.000
G00 F3000 X58.740 Y11.721
G00 F1500 Z0
G01 F60 Z-2.000
G00 F3000 Z2.000
G00 F3000 X58.740 Y62.521
G00 F1500 Z0
G01 F60 Z-2.000
G00 F3000 Z2.000
G00 F3000 X58.740 Y70.141
G00 F1500 Z0
G01 F60 Z-2.000
G00 F3000 Z2.000
G00 F3000 X61.280 Y4.101
G00 F1500 Z0
G01 F60 Z-2.000
G00 F3000 Z2.000
G00 F3000 X61.280 Y11.721
G00 F1500 Z0
G01 F60 Z-2.000
G00 F3000 Z2.000
G00 F3000 X61.280 Y62.521
G00 F1500 Z0
G01 F60 Z-2.000
G00 F3000 Z2.000
G00 F3000 X61.280 Y70.141
G00 F1500 Z0
G01 F60 Z-2.000
G00 F3000 Z2.000
G00 F3000 X63.820 Y4.101
G00 F1500 Z0
G01 F60 Z-2.000
G00 F3000 Z2.000
G00 F3000 X63.820 Y11.721
G00 F1500 Z0
G01 F60 Z-2.000
G00 F3000 Z2.000
G00 F3000 X63.820 Y62.521
G00 F1500 Z0
G01 F60 Z-2.000
G00 F3000 Z2.000
G00 F3000 X63.820 Y70.141
G00 F1500 Z0
G01 F60 Z-2.000
G00 F3000 Z2.000
G00 F3000 X66.360 Y4.101
G00 F1500 Z0
G01 F60 Z-2.000
G00 F3000 Z2.000
G00 F3000 X66.360 Y11.721
G00 F1500 Z0
G01 F60 Z-2.000
G00 F3000 Z2.000
G00 F3000 X66.360 Y62.521
G00 F1500 Z0
G01 F60 Z-2.000
G00 F3000 Z2.000
G00 F3000 X66.360 Y70.141
G00 F1500 Z0
G01 F60 Z-2.000
G00 F3000 Z2.000
G00 F3000 X68.900 Y4.101
G00 F1500 Z0
G01 F60 Z-2.000
G00 F3000 Z2.000
G00 F3000 X68.900 Y11.721
G00 F1500 Z0
G01 F60 Z-2.000
G00 F3000 Z2.000
G00 F3000 X68.900 Y62.521
G00 F1500 Z0
G01 F60 Z-2.000
G00 F3000 Z2.000
G00 F3000 X68.900 Y70.141
G00 F1500 Z0
G01 F60 Z-2.000
G00 F3000 Z2.000
G00 F3000 X75.250 Y4.101
G00 F1500 Z0
G01 F60 Z-2.000
G00 F3000 Z2.000
G00 F3000 X75.250 Y11.721
G00 F1500 Z0
G01 F60 Z-2.000
G00 F3000 Z2.000
G00 F3000 X75.250 Y62.521
G00 F1500 Z0
G01 F60 Z-2.000
G00 F3000 Z2.000
G00 F3000 X75.250 Y70.141
G00 F1500 Z0
G01 F60 Z-2.000
G00 F3000 Z2.000
G00 F3000 X77.790 Y4.101
G00 F1500 Z0
G01 F60 Z-2.000
G00 F3000 Z2.000
G00 F3000 X77.790 Y11.721
G00 F1500 Z0
G01 F60 Z-2.000
G00 F3000 Z2.000
G00 F3000 X77.790 Y62.521
G00 F1500 Z0
G01 F60 Z-2.000
G00 F3000 Z2.000
G00 F3000 X77.790 Y70.141
G00 F1500 Z0
G01 F60 Z-2.000
G00 F3000 Z2.000
G00 F3000 X80.330 Y4.101
G00 F1500 Z0
G01 F60 Z-2.000
G00 F3000 Z2.000
G00 F3000 X80.330 Y11.721
G00 F1500 Z0
G01 F60 Z-2.000
G00 F3000 Z2.000
G00 F3000 X80.330 Y62.521
G00 F1500 Z0
G01 F60 Z-2.000
G00 F3000 Z2.000
G00 F3000 X80.330 Y70.141
G00 F1500 Z0
G01 F60 Z-2.000
G00 F3000 Z2.000
G00 F3000 X82.870 Y4.101
G00 F1500 Z0
G01 F60 Z-2.000
G00 F3000 Z2.000
G00 F3000 X82.870 Y11.721
G00 F1500 Z0
G01 F60 Z-2.000
G00 F3000 Z2.000
G00 F3000 X82.870 Y62.521
G00 F1500 Z0
G01 F60 Z-2.000
G00 F3000 Z2.000
G00 F3000 X82.870 Y70.141
G00 F1500 Z0
G01 F60 Z-2.000
G00 F3000 Z2.000
G00 F3000 X85.410 Y4.101
G00 F1500 Z0
G01 F60 Z-2.000
G00 F3000 Z2.000
G00 F3000 X85.410 Y11.721
G00 F1500 Z0
G01 F60 Z-2.000
G00 F3000 Z2.000
G00 F3000 X85.410 Y62.521
G00 F1500 Z0
G01 F60 Z-2.000
G00 F3000 Z2.000
G00 F3000 X85.410 Y70.141
G00 F1500 Z0
G01 F60 Z-2.000
G00 F3000 Z2.000
G00 F3000 X87.950 Y4.101
G00 F1500 Z0
G01 F60 Z-2.000
G00 F3000 Z2.000
G00 F3000 X87.950 Y11.721
G00 F1500 Z0
G01 F60 Z-2.000
G00 F3000 Z2.000
G00 F3000 X87.950 Y62.521
G00 F1500 Z0
G01 F60 Z-2.000
G00 F3000 Z2.000
G00 F3000 X87.950 Y70.141
G00 F1500 Z0
G01 F60 Z-2.000
G00 F3000 Z2.000
G00 F3000 X90.490 Y4.101
G00 F1500 Z0
G01 F60 Z-2.000
G00 F3000 Z2.000
G00 F3000 X90.490 Y11.721
G00 F1500 Z0
G01 F60 Z-2.000
G00 F3000 Z2.000
G00 F3000 X90.490 Y62.521
G00 F1500 Z0
G01 F60 Z-2.000
G00 F3000 Z2.000
G00 F3000 X90.490 Y70.141
G00 F1500 Z0
G01 F60 Z-2.000
G00 F3000 Z2.000
G00 F3000 X93.030 Y4.101
G00 F1500 Z0
G01 F60 Z-2.000
G00 F3000 Z2.000
G00 F3000 X93.030 Y11.721
G00 F1500 Z0
G01 F60 Z-2.000
G00 F3000 Z2.000
G00 F3000 X93.030 Y62.521
G00 F1500 Z0
G01 F60 Z-2.000
G00 F3000 Z2.000
G00 F3000 X93.030 Y70.141
G00 F1500 Z0
G01 F60 Z-2.000
G00 F3000 Z2.000
G00 F3000 X4.130 Y18.071
G00 F1500 Z0
G01 F60 Z-2.000
G00 F3000 Z2.000
G00 F3000 X19.370 Y71.411
G00 F1500 Z0
G01 F60 Z-2.000
G00 F3000 Z2.000
G00 F3000 X20.640 Y6.641
G00 F1500 Z0
G01 F60 Z-2.000
G00 F3000 Z2.000
G00 F3000 X20.640 Y59.981
G00 F1500 Z0
G01 F60 Z-2.000
G00 F3000 Z2.000
G00 F3000 X23.180 Y11.721
G00 F1500 Z0
G01 F60 Z-2.000
G00 F3000 Z2.000
G00 F3000 X23.180 Y28.231
G00 F1500 Z0
G01 F60 Z-2.000
G00 F3000 Z2.000
G00 F3000 X23.180 Y62.521
G00 F1500 Z0
G01 F60 Z-2.000
G00 F3000 Z2.000
G00 F3000 X26.990 Y24.421
G00 F1500 Z0
G01 F60 Z-2.000
G00 F3000 Z2.000
G00 F3000 X44.770 Y6.641
G00 F1500 Z0
G01 F60 Z-2.000
G00 F3000 Z2.000
G00 F3000 X48.580 Y54.901
G00 F1500 Z0
G01 F60 Z-2.000
G00 F3000 Z2.000
G00 F3000 X68.900 Y6.641
G00 F1500 Z0
G01 F60 Z-2.000
G00 F3000 Z2.000
G00 F3000 X68.900 Y24.421
G00 F1500 Z0
G01 F60 Z-2.000
G00 F3000 Z2.000
G00 F3000 X72.710 Y54.901
G00 F1500 Z0
G01 F60 Z-2.000
G00 F3000 Z2.000
G00 F3000 X72.710 Y58.711
G00 F1500 Z0
G01 F60 Z-2.000
G00 F3000 Z2.000
G00 F3000 X89.220 Y20.611
G00 F1500 Z0
G01 F60 Z-2.000
G00 F3000 Z2.000
G00 F3000 X89.220 Y35.851
G00 F1500 Z0
G01 F60 Z-2.000
G00 F3000 Z2.000
G00 F3000 X94.300 Y35.851
G00 F1500 Z0
G01 F60 Z-2.000
G00 F3000 Z2.000
G00 F3000 X2.860 Y19.341
G00 F1500 Z0
G01 F60 Z-2.000
G00 F3000 Z2.000
G00 F3000 X2.860 Y21.881
G00 F1500 Z0
G01 F60 Z-2.000
G00 F3000 Z2.000
G00 F3000 X2.860 Y26.870
G00 F1500 Z0
G01 F60 Z-2.000
G00 F3000 Z2.000
G00 F3000 X2.860 Y38.391
G00 F1500 Z0
G01 F60 Z-2.000
G00 F3000 Z2.000
G00 F3000 X2.860 Y39.661
G00 F1500 Z0
G01 F60 Z-2.000
G00 F3000 Z2.000
G00 F3000 X2.860 Y51.183
G00 F1500 Z0
G01 F60 Z-2.000
G00 F3000 Z2.000
G00 F3000 X2.860 Y54.901
G00 F1500 Z0
G01 F60 Z-2.000
G00 F3000 Z2.000
G00 F3000 X2.860 Y57.441
G00 F1500 Z0
G01 F60 Z-2.000
G00 F3000 Z2.000
G00 F3000 X5.400 Y19.341
G00 F1500 Z0
G01 F60 Z-2.000
G00 F3000 Z2.000
G00 F3000 X5.400 Y21.881
G00 F1500 Z0
G01 F60 Z-2.000
G00 F3000 Z2.000
G00 F3000 X5.400 Y26.870
G00 F1500 Z0
G01 F60 Z-2.000
G00 F3000 Z2.000
G00 F3000 X5.400 Y38.391
G00 F1500 Z0
G01 F60 Z-2.000
G00 F3000 Z2.000
G00 F3000 X5.400 Y39.661
G00 F1500 Z0
G01 F60 Z-2.000
G00 F3000 Z2.000
G00 F3000 X5.400 Y51.183
G00 F1500 Z0
G01 F60 Z-2.000
G00 F3000 Z2.000
G00 F3000 X5.400 Y54.901
G00 F1500 Z0
G01 F60 Z-2.000
G00 F3000 Z2.000
G00 F3000 X5.400 Y57.441
G00 F1500 Z0
G01 F60 Z-2.000
G00 F3000 Z2.000
G00 F3000 X7.940 Y19.341
G00 F1500 Z0
G01 F60 Z-2.000
G00 F3000 Z2.000
G00 F3000 X7.940 Y21.881
G00 F1500 Z0
G01 F60 Z-2.000
G00 F3000 Z2.000
G00 F3000 X7.940 Y26.870
G00 F1500 Z0
G01 F60 Z-2.000
G00 F3000 Z2.000
G00 F3000 X7.940 Y38.391
G00 F1500 Z0
G01 F60 Z-2.000
G00 F3000 Z2.000
G00 F3000 X7.940 Y39.661
G00 F1500 Z0
G01 F60 Z-2.000
G00 F3000 Z2.000
G00 F3000 X7.940 Y51.183
G00 F1500 Z0
G01 F60 Z-2.000
G00 F3000 Z2.000
G00 F3000 X7.940 Y54.901
G00 F1500 Z0
G01 F60 Z-2.000
G00 F3000 Z2.000
G00 F3000 X7.940 Y57.441
G00 F1500 Z0
G01 F60 Z-2.000
G00 F3000 Z2.000
G00 F3000 X10.480 Y19.341
G00 F1500 Z0
G01 F60 Z-2.000
G00 F3000 Z2.000
G00 F3000 X10.480 Y21.881
G00 F1500 Z0
G01 F60 Z-2.000
G00 F3000 Z2.000
G00 F3000 X10.480 Y26.870
G00 F1500 Z0
G01 F60 Z-2.000
G00 F3000 Z2.000
G00 F3000 X10.480 Y38.391
G00 F1500 Z0
G01 F60 Z-2.000
G00 F3000 Z2.000
G00 F3000 X10.480 Y39.661
G00 F1500 Z0
G01 F60 Z-2.000
G00 F3000 Z2.000
G00 F3000 X10.480 Y51.183
G00 F1500 Z0
G01 F60 Z-2.000
G00 F3000 Z2.000
G00 F3000 X10.480 Y54.901
G00 F1500 Z0
G01 F60 Z-2.000
G00 F3000 Z2.000
G00 F3000 X10.480 Y57.441
G00 F1500 Z0
G01 F60 Z-2.000
G00 F3000 Z2.000
G00 F3000 X13.020 Y19.341
G00 F1500 Z0
G01 F60 Z-2.000
G00 F3000 Z2.000
G00 F3000 X13.020 Y21.881
G00 F1500 Z0
G01 F60 Z-2.000
G00 F3000 Z2.000
G00 F3000 X13.020 Y26.870
G00 F1500 Z0
G01 F60 Z-2.000
G00 F3000 Z2.000
G00 F3000 X13.020 Y38.391
G00 F1500 Z0
G01 F60 Z-2.000
G00 F3000 Z2.000
G00 F3000 X13.020 Y39.661
G00 F1500 Z0
G01 F60 Z-2.000
G00 F3000 Z2.000
G00 F3000 X13.020 Y51.183
G00 F1500 Z0
G01 F60 Z-2.000
G00 F3000 Z2.000
G00 F3000 X13.020 Y54.901
G00 F1500 Z0
G01 F60 Z-2.000
G00 F3000 Z2.000
G00 F3000 X13.020 Y57.441
G00 F1500 Z0
G01 F60 Z-2.000
G00 F3000 Z2.000
G00 F3000 X15.560 Y19.341
G00 F1500 Z0
G01 F60 Z-2.000
G00 F3000 Z2.000
G00 F3000 X15.560 Y21.881
G00 F1500 Z0
G01 F60 Z-2.000
G00 F3000 Z2.000
G00 F3000 X15.560 Y26.870
G00 F1500 Z0
G01 F60 Z-2.000
G00 F3000 Z2.000
G00 F3000 X15.560 Y38.391
G00 F1500 Z0
G01 F60 Z-2.000
G00 F3000 Z2.000
G00 F3000 X15.560 Y39.661
G00 F1500 Z0
G01 F60 Z-2.000
G00 F3000 Z2.000
G00 F3000 X15.560 Y51.183
G00 F1500 Z0
G01 F60 Z-2.000
G00 F3000 Z2.000
G00 F3000 X15.560 Y54.901
G00 F1500 Z0
G01 F60 Z-2.000
G00 F3000 Z2.000
G00 F3000 X15.560 Y57.441
G00 F1500 Z0
G01 F60 Z-2.000
G00 F3000 Z2.000
G00 F3000 X18.100 Y19.341
G00 F1500 Z0
G01 F60 Z-2.000
G00 F3000 Z2.000
G00 F3000 X18.100 Y21.881
G00 F1500 Z0
G01 F60 Z-2.000
G00 F3000 Z2.000
G00 F3000 X18.100 Y26.870
G00 F1500 Z0
G01 F60 Z-2.000
G00 F3000 Z2.000
G00 F3000 X18.100 Y38.391
G00 F1500 Z0
G01 F60 Z-2.000
G00 F3000 Z2.000
G00 F3000 X18.100 Y39.661
G00 F1500 Z0
G01 F60 Z-2.000
G00 F3000 Z2.000
G00 F3000 X18.100 Y51.183
G00 F1500 Z0
G01 F60 Z-2.000
G00 F3000 Z2.000
G00 F3000 X18.100 Y54.901
G00 F1500 Z0
G01 F60 Z-2.000
G00 F3000 Z2.000
G00 F3000 X18.100 Y57.441
G00 F1500 Z0
G01 F60 Z-2.000
G00 F3000 Z2.000
G00 F3000 X20.640 Y19.341
G00 F1500 Z0
G01 F60 Z-2.000
G00 F3000 Z2.000
G00 F3000 X20.640 Y21.881
G00 F1500 Z0
G01 F60 Z-2.000
G00 F3000 Z2.000
G00 F3000 X20.640 Y26.870
G00 F1500 Z0
G01 F60 Z-2.000
G00 F3000 Z2.000
G00 F3000 X20.640 Y38.391
G00 F1500 Z0
G01 F60 Z-2.000
G00 F3000 Z2.000
G00 F3000 X20.640 Y39.661
G00 F1500 Z0
G01 F60 Z-2.000
G00 F3000 Z2.000
G00 F3000 X20.640 Y51.183
G00 F1500 Z0
G01 F60 Z-2.000
G00 F3000 Z2.000
G00 F3000 X20.640 Y54.901
G00 F1500 Z0
G01 F60 Z-2.000
G00 F3000 Z2.000
G00 F3000 X20.640 Y57.441
G00 F1500 Z0
G01 F60 Z-2.000
G00 F3000 Z2.000
G00 F3000 X26.990 Y19.341
G00 F1500 Z0
G01 F60 Z-2.000
G00 F3000 Z2.000
G00 F3000 X26.990 Y21.881
G00 F1500 Z0
G01 F60 Z-2.000
G00 F3000 Z2.000
G00 F3000 X26.990 Y26.870
G00 F1500 Z0
G01 F60 Z-2.000
G00 F3000 Z2.000
G00 F3000 X26.990 Y38.391
G00 F1500 Z0
G01 F60 Z-2.000
G00 F3000 Z2.000
G00 F3000 X26.990 Y39.661
G00 F1500 Z0
G01 F60 Z-2.000
G00 F3000 Z2.000
G00 F3000 X26.990 Y51.183
G00 F1500 Z0
G01 F60 Z-2.000
G00 F3000 Z2.000
G00 F3000 X26.990 Y54.901
G00 F1500 Z0
G01 F60 Z-2.000
G00 F3000 Z2.000
G00 F3000 X26.990 Y57.441
G00 F1500 Z0
G01 F60 Z-2.000
G00 F3000 Z2.000
G00 F3000 X29.530 Y19.341
G00 F1500 Z0
G01 F60 Z-2.000
G00 F3000 Z2.000
G00 F3000 X29.530 Y21.881
G00 F1500 Z0
G01 F60 Z-2.000
G00 F3000 Z2.000
G00 F3000 X29.530 Y26.870
G00 F1500 Z0
G01 F60 Z-2.000
G00 F3000 Z2.000
G00 F3000 X29.530 Y38.391
G00 F1500 Z0
G01 F60 Z-2.000
G00 F3000 Z2.000
G00 F3000 X29.530 Y39.661
G00 F1500 Z0
G01 F60 Z-2.000
G00 F3000 Z2.000
G00 F3000 X29.530 Y51.183
G00 F1500 Z0
G01 F60 Z-2.000
G00 F3000 Z2.000
G00 F3000 X29.530 Y54.901
G00 F1500 Z0
G01 F60 Z-2.000
G00 F3000 Z2.000
G00 F3000 X29.530 Y57.441
G00 F1500 Z0
G01 F60 Z-2.000
G00 F3000 Z2.000
G00 F3000 X32.070 Y19.341
G00 F1500 Z0
G01 F60 Z-2.000
G00 F3000 Z2.000
G00 F3000 X32.070 Y21.881
G00 F1500 Z0
G01 F60 Z-2.000
G00 F3000 Z2.000
G00 F3000 X32.070 Y26.870
G00 F1500 Z0
G01 F60 Z-2.000
G00 F3000 Z2.000
G00 F3000 X32.070 Y38.391
G00 F1500 Z0
G01 F60 Z-2.000
G00 F3000 Z2.000
G00 F3000 X32.070 Y39.661
G00 F1500 Z0
G01 F60 Z-2.000
G00 F3000 Z2.000
G00 F3000 X32.070 Y51.183
G00 F1500 Z0
G01 F60 Z-2.000
G00 F3000 Z2.000
G00 F3000 X32.070 Y54.901
G00 F1500 Z0
G01 F60 Z-2.000
G00 F3000 Z2.000
G00 F3000 X32.070 Y57.441
G00 F1500 Z0
G01 F60 Z-2.000
G00 F3000 Z2.000
G00 F3000 X34.610 Y19.341
G00 F1500 Z0
G01 F60 Z-2.000
G00 F3000 Z2.000
G00 F3000 X34.610 Y21.881
G00 F1500 Z0
G01 F60 Z-2.000
G00 F3000 Z2.000
G00 F3000 X34.610 Y26.870
G00 F1500 Z0
G01 F60 Z-2.000
G00 F3000 Z2.000
G00 F3000 X34.610 Y38.391
G00 F1500 Z0
G01 F60 Z-2.000
G00 F3000 Z2.000
G00 F3000 X34.610 Y39.661
G00 F1500 Z0
G01 F60 Z-2.000
G00 F3000 Z2.000
G00 F3000 X34.610 Y51.183
G00 F1500 Z0
G01 F60 Z-2.000
G00 F3000 Z2.000
G00 F3000 X34.610 Y54.901
G00 F1500 Z0
G01 F60 Z-2.000
G00 F3000 Z2.000
G00 F3000 X34.610 Y57.441
G00 F1500 Z0
G01 F60 Z-2.000
G00 F3000 Z2.000
G00 F3000 X37.150 Y19.341
G00 F1500 Z0
G01 F60 Z-2.000
G00 F3000 Z2.000
G00 F3000 X37.150 Y21.881
G00 F1500 Z0
G01 F60 Z-2.000
G00 F3000 Z2.000
G00 F3000 X37.150 Y26.870
G00 F1500 Z0
G01 F60 Z-2.000
G00 F3000 Z2.000
G00 F3000 X37.150 Y38.391
G00 F1500 Z0
G01 F60 Z-2.000
G00 F3000 Z2.000
G00 F3000 X37.150 Y39.661
G00 F1500 Z0
G01 F60 Z-2.000
G00 F3000 Z2.000
G00 F3000 X37.150 Y51.183
G00 F1500 Z0
G01 F60 Z-2.000
G00 F3000 Z2.000
G00 F3000 X37.150 Y54.901
G00 F1500 Z0
G01 F60 Z-2.000
G00 F3000 Z2.000
G00 F3000 X37.150 Y57.441
G00 F1500 Z0
G01 F60 Z-2.000
G00 F3000 Z2.000
G00 F3000 X39.690 Y19.341
G00 F1500 Z0
G01 F60 Z-2.000
G00 F3000 Z2.000
G00 F3000 X39.690 Y21.881
G00 F1500 Z0
G01 F60 Z-2.000
G00 F3000 Z2.000
G00 F3000 X39.690 Y26.870
G00 F1500 Z0
G01 F60 Z-2.000
G00 F3000 Z2.000
G00 F3000 X39.690 Y38.391
G00 F1500 Z0
G01 F60 Z-2.000
G00 F3000 Z2.000
G00 F3000 X39.690 Y39.661
G00 F1500 Z0
G01 F60 Z-2.000
G00 F3000 Z2.000
G00 F3000 X39.690 Y51.183
G00 F1500 Z0
G01 F60 Z-2.000
G00 F3000 Z2.000
G00 F3000 X39.690 Y54.901
G00 F1500 Z0
G01 F60 Z-2.000
G00 F3000 Z2.000
G00 F3000 X39.690 Y57.441
G00 F1500 Z0
G01 F60 Z-2.000
G00 F3000 Z2.000
G00 F3000 X42.230 Y19.341
G00 F1500 Z0
G01 F60 Z-2.000
G00 F3000 Z2.000
G00 F3000 X42.230 Y21.881
G00 F1500 Z0
G01 F60 Z-2.000
G00 F3000 Z2.000
G00 F3000 X42.230 Y26.870
G00 F1500 Z0
G01 F60 Z-2.000
G00 F3000 Z2.000
G00 F3000 X42.230 Y38.391
G00 F1500 Z0
G01 F60 Z-2.000
G00 F3000 Z2.000
G00 F3000 X42.230 Y39.661
G00 F1500 Z0
G01 F60 Z-2.000
G00 F3000 Z2.000
G00 F3000 X42.230 Y51.183
G00 F1500 Z0
G01 F60 Z-2.000
G00 F3000 Z2.000
G00 F3000 X42.230 Y54.901
G00 F1500 Z0
G01 F60 Z-2.000
G00 F3000 Z2.000
G00 F3000 X42.230 Y57.441
G00 F1500 Z0
G01 F60 Z-2.000
G00 F3000 Z2.000
G00 F3000 X44.770 Y19.341
G00 F1500 Z0
G01 F60 Z-2.000
G00 F3000 Z2.000
G00 F3000 X44.770 Y21.881
G00 F1500 Z0
G01 F60 Z-2.000
G00 F3000 Z2.000
G00 F3000 X44.770 Y26.870
G00 F1500 Z0
G01 F60 Z-2.000
G00 F3000 Z2.000
G00 F3000 X44.770 Y38.391
G00 F1500 Z0
G01 F60 Z-2.000
G00 F3000 Z2.000
G00 F3000 X44.770 Y39.661
G00 F1500 Z0
G01 F60 Z-2.000
G00 F3000 Z2.000
G00 F3000 X44.770 Y51.183
G00 F1500 Z0
G01 F60 Z-2.000
G00 F3000 Z2.000
G00 F3000 X44.770 Y54.901
G00 F1500 Z0
G01 F60 Z-2.000
G00 F3000 Z2.000
G00 F3000 X44.770 Y57.441
G00 F1500 Z0
G01 F60 Z-2.000
G00 F3000 Z2.000
G00 F3000 X51.120 Y19.341
G00 F1500 Z0
G01 F60 Z-2.000
G00 F3000 Z2.000
G00 F3000 X51.120 Y21.881
G00 F1500 Z0
G01 F60 Z-2.000
G00 F3000 Z2.000
G00 F3000 X51.120 Y26.870
G00 F1500 Z0
G01 F60 Z-2.000
G00 F3000 Z2.000
G00 F3000 X51.120 Y38.391
G00 F1500 Z0
G01 F60 Z-2.000
G00 F3000 Z2.000
G00 F3000 X51.120 Y39.661
G00 F1500 Z0
G01 F60 Z-2.000
G00 F3000 Z2.000
G00 F3000 X51.120 Y51.183
G00 F1500 Z0
G01 F60 Z-2.000
G00 F3000 Z2.000
G00 F3000 X51.120 Y54.901
G00 F1500 Z0
G01 F60 Z-2.000
G00 F3000 Z2.000
G00 F3000 X51.120 Y57.441
G00 F1500 Z0
G01 F60 Z-2.000
G00 F3000 Z2.000
G00 F3000 X53.660 Y19.341
G00 F1500 Z0
G01 F60 Z-2.000
G00 F3000 Z2.000
G00 F3000 X53.660 Y21.881
G00 F1500 Z0
G01 F60 Z-2.000
G00 F3000 Z2.000
G00 F3000 X53.660 Y26.870
G00 F1500 Z0
G01 F60 Z-2.000
G00 F3000 Z2.000
G00 F3000 X53.660 Y38.391
G00 F1500 Z0
G01 F60 Z-2.000
G00 F3000 Z2.000
G00 F3000 X53.660 Y39.661
G00 F1500 Z0
G01 F60 Z-2.000
G00 F3000 Z2.000
G00 F3000 X53.660 Y51.183
G00 F1500 Z0
G01 F60 Z-2.000
G00 F3000 Z2.000
G00 F3000 X53.660 Y54.901
G00 F1500 Z0
G01 F60 Z-2.000
G00 F3000 Z2.000
G00 F3000 X53.660 Y57.441
G00 F1500 Z0
G01 F60 Z-2.000
G00 F3000 Z2.000
G00 F3000 X56.200 Y19.341
G00 F1500 Z0
G01 F60 Z-2.000
G00 F3000 Z2.000
G00 F3000 X56.200 Y21.881
G00 F1500 Z0
G01 F60 Z-2.000
G00 F3000 Z2.000
G00 F3000 X56.200 Y26.870
G00 F1500 Z0
G01 F60 Z-2.000
G00 F3000 Z2.000
G00 F3000 X56.200 Y38.391
G00 F1500 Z0
G01 F60 Z-2.000
G00 F3000 Z2.000
G00 F3000 X56.200 Y39.661
G00 F1500 Z0
G01 F60 Z-2.000
G00 F3000 Z2.000
G00 F3000 X56.200 Y51.183
G00 F1500 Z0
G01 F60 Z-2.000
G00 F3000 Z2.000
G00 F3000 X56.200 Y54.901
G00 F1500 Z0
G01 F60 Z-2.000
G00 F3000 Z2.000
G00 F3000 X56.200 Y57.441
G00 F1500 Z0
G01 F60 Z-2.000
G00 F3000 Z2.000
G00 F3000 X58.740 Y19.341
G00 F1500 Z0
G01 F60 Z-2.000
G00 F3000 Z2.000
G00 F3000 X58.740 Y21.881
G00 F1500 Z0
G01 F60 Z-2.000
G00 F3000 Z2.000
G00 F3000 X58.740 Y26.870
G00 F1500 Z0
G01 F60 Z-2.000
G00 F3000 Z2.000
G00 F3000 X58.740 Y38.391
G00 F1500 Z0
G01 F60 Z-2.000
G00 F3000 Z2.000
G00 F3000 X58.740 Y39.661
G00 F1500 Z0
G01 F60 Z-2.000
G00 F3000 Z2.000
G00 F3000 X58.740 Y51.183
G00 F1500 Z0
G01 F60 Z-2.000
G00 F3000 Z2.000
G00 F3000 X58.740 Y54.901
G00 F1500 Z0
G01 F60 Z-2.000
G00 F3000 Z2.000
G00 F3000 X58.740 Y57.441
G00 F1500 Z0
G01 F60 Z-2.000
G00 F3000 Z2.000
G00 F3000 X61.280 Y19.341
G00 F1500 Z0
G01 F60 Z-2.000
G00 F3000 Z2.000
G00 F3000 X61.280 Y21.881
G00 F1500 Z0
G01 F60 Z-2.000
G00 F3000 Z2.000
G00 F3000 X61.280 Y26.870
G00 F1500 Z0
G01 F60 Z-2.000
G00 F3000 Z2.000
G00 F3000 X61.280 Y38.391
G00 F1500 Z0
G01 F60 Z-2.000
G00 F3000 Z2.000
G00 F3000 X61.280 Y39.661
G00 F1500 Z0
G01 F60 Z-2.000
G00 F3000 Z2.000
G00 F3000 X61.280 Y51.183
G00 F1500 Z0
G01 F60 Z-2.000
G00 F3000 Z2.000
G00 F3000 X61.280 Y54.901
G00 F1500 Z0
G01 F60 Z-2.000
G00 F3000 Z2.000
G00 F3000 X61.280 Y57.441
G00 F1500 Z0
G01 F60 Z-2.000
G00 F3000 Z2.000
G00 F3000 X63.820 Y19.341
G00 F1500 Z0
G01 F60 Z-2.000
G00 F3000 Z2.000
G00 F3000 X63.820 Y21.881
G00 F1500 Z0
G01 F60 Z-2.000
G00 F3000 Z2.000
G00 F3000 X63.820 Y26.870
G00 F1500 Z0
G01 F60 Z-2.000
G00 F3000 Z2.000
G00 F3000 X63.820 Y38.391
G00 F1500 Z0
G01 F60 Z-2.000
G00 F3000 Z2.000
G00 F3000 X63.820 Y39.661
G00 F1500 Z0
G01 F60 Z-2.000
G00 F3000 Z2.000
G00 F3000 X63.820 Y51.183
G00 F1500 Z0
G01 F60 Z-2.000
G00 F3000 Z2.000
G00 F3000 X63.820 Y54.901
G00 F1500 Z0
G01 F60 Z-2.000
G00 F3000 Z2.000
G00 F3000 X63.820 Y57.441
G00 F1500 Z0
G01 F60 Z-2.000
G00 F3000 Z2.000
G00 F3000 X66.360 Y19.341
G00 F1500 Z0
G01 F60 Z-2.000
G00 F3000 Z2.000
G00 F3000 X66.360 Y21.881
G00 F1500 Z0
G01 F60 Z-2.000
G00 F3000 Z2.000
G00 F3000 X66.360 Y26.870
G00 F1500 Z0
G01 F60 Z-2.000
G00 F3000 Z2.000
G00 F3000 X66.360 Y38.391
G00 F1500 Z0
G01 F60 Z-2.000
G00 F3000 Z2.000
G00 F3000 X66.360 Y39.661
G00 F1500 Z0
G01 F60 Z-2.000
G00 F3000 Z2.000
G00 F3000 X66.360 Y51.183
G00 F1500 Z0
G01 F60 Z-2.000
G00 F3000 Z2.000
G00 F3000 X66.360 Y54.901
G00 F1500 Z0
G01 F60 Z-2.000
G00 F3000 Z2.000
G00 F3000 X66.360 Y57.441
G00 F1500 Z0
G01 F60 Z-2.000
G00 F3000 Z2.000
G00 F3000 X68.900 Y19.341
G00 F1500 Z0
G01 F60 Z-2.000
G00 F3000 Z2.000
G00 F3000 X68.900 Y21.881
G00 F1500 Z0
G01 F60 Z-2.000
G00 F3000 Z2.000
G00 F3000 X68.900 Y26.870
G00 F1500 Z0
G01 F60 Z-2.000
G00 F3000 Z2.000
G00 F3000 X68.900 Y38.391
G00 F1500 Z0
G01 F60 Z-2.000
G00 F3000 Z2.000
G00 F3000 X68.900 Y39.661
G00 F1500 Z0
G01 F60 Z-2.000
G00 F3000 Z2.000
G00 F3000 X68.900 Y51.183
G00 F1500 Z0
G01 F60 Z-2.000
G00 F3000 Z2.000
G00 F3000 X68.900 Y54.901
G00 F1500 Z0
G01 F60 Z-2.000
G00 F3000 Z2.000
G00 F3000 X68.900 Y57.441
G00 F1500 Z0
G01 F60 Z-2.000
G00 F3000 Z2.000
G00 F3000 X75.250 Y19.341
G00 F1500 Z0
G01 F60 Z-2.000
G00 F3000 Z2.000
G00 F3000 X75.250 Y21.881
G00 F1500 Z0
G01 F60 Z-2.000
G00 F3000 Z2.000
G00 F3000 X75.250 Y26.870
G00 F1500 Z0
G01 F60 Z-2.000
G00 F3000 Z2.000
G00 F3000 X75.250 Y38.391
G00 F1500 Z0
G01 F60 Z-2.000
G00 F3000 Z2.000
G00 F3000 X75.250 Y39.661
G00 F1500 Z0
G01 F60 Z-2.000
G00 F3000 Z2.000
G00 F3000 X75.250 Y51.183
G00 F1500 Z0
G01 F60 Z-2.000
G00 F3000 Z2.000
G00 F3000 X75.250 Y54.901
G00 F1500 Z0
G01 F60 Z-2.000
G00 F3000 Z2.000
G00 F3000 X75.250 Y57.441
G00 F1500 Z0
G01 F60 Z-2.000
G00 F3000 Z2.000
G00 F3000 X77.790 Y19.341
G00 F1500 Z0
G01 F60 Z-2.000
G00 F3000 Z2.000
G00 F3000 X77.790 Y21.881
G00 F1500 Z0
G01 F60 Z-2.000
G00 F3000 Z2.000
G00 F3000 X77.790 Y26.870
G00 F1500 Z0
G01 F60 Z-2.000
G00 F3000 Z2.000
G00 F3000 X77.790 Y38.391
G00 F1500 Z0
G01 F60 Z-2.000
G00 F3000 Z2.000
G00 F3000 X77.790 Y39.661
G00 F1500 Z0
G01 F60 Z-2.000
G00 F3000 Z2.000
G00 F3000 X77.790 Y51.183
G00 F1500 Z0
G01 F60 Z-2.000
G00 F3000 Z2.000
G00 F3000 X77.790 Y54.901
G00 F1500 Z0
G01 F60 Z-2.000
G00 F3000 Z2.000
G00 F3000 X77.790 Y57.441
G00 F1500 Z0
G01 F60 Z-2.000
G00 F3000 Z2.000
G00 F3000 X80.330 Y19.341
G00 F1500 Z0
G01 F60 Z-2.000
G00 F3000 Z2.000
G00 F3000 X80.330 Y21.881
G00 F1500 Z0
G01 F60 Z-2.000
G00 F3000 Z2.000
G00 F3000 X80.330 Y26.870
G00 F1500 Z0
G01 F60 Z-2.000
G00 F3000 Z2.000
G00 F3000 X80.330 Y38.391
G00 F1500 Z0
G01 F60 Z-2.000
G00 F3000 Z2.000
G00 F3000 X80.330 Y39.661
G00 F1500 Z0
G01 F60 Z-2.000
G00 F3000 Z2.000
G00 F3000 X80.330 Y51.183
G00 F1500 Z0
G01 F60 Z-2.000
G00 F3000 Z2.000
G00 F3000 X80.330 Y54.901
G00 F1500 Z0
G01 F60 Z-2.000
G00 F3000 Z2.000
G00 F3000 X80.330 Y57.441
G00 F1500 Z0
G01 F60 Z-2.000
G00 F3000 Z2.000
G00 F3000 X82.870 Y19.341
G00 F1500 Z0
G01 F60 Z-2.000
G00 F3000 Z2.000
G00 F3000 X82.870 Y21.881
G00 F1500 Z0
G01 F60 Z-2.000
G00 F3000 Z2.000
G00 F3000 X82.870 Y26.870
G00 F1500 Z0
G01 F60 Z-2.000
G00 F3000 Z2.000
G00 F3000 X82.870 Y38.391
G00 F1500 Z0
G01 F60 Z-2.000
G00 F3000 Z2.000
G00 F3000 X82.870 Y39.661
G00 F1500 Z0
G01 F60 Z-2.000
G00 F3000 Z2.000
G00 F3000 X82.870 Y51.183
G00 F1500 Z0
G01 F60 Z-2.000
G00 F3000 Z2.000
G00 F3000 X82.870 Y54.901
G00 F1500 Z0
G01 F60 Z-2.000
G00 F3000 Z2.000
G00 F3000 X82.870 Y57.441
G00 F1500 Z0
G01 F60 Z-2.000
G00 F3000 Z2.000
G00 F3000 X85.410 Y19.341
G00 F1500 Z0
G01 F60 Z-2.000
G00 F3000 Z2.000
G00 F3000 X85.410 Y21.881
G00 F1500 Z0
G01 F60 Z-2.000
G00 F3000 Z2.000
G00 F3000 X85.410 Y26.870
G00 F1500 Z0
G01 F60 Z-2.000
G00 F3000 Z2.000
G00 F3000 X85.410 Y38.391
G00 F1500 Z0
G01 F60 Z-2.000
G00 F3000 Z2.000
G00 F3000 X85.410 Y39.661
G00 F1500 Z0
G01 F60 Z-2.000
G00 F3000 Z2.000
G00 F3000 X85.410 Y51.183
G00 F1500 Z0
G01 F60 Z-2.000
G00 F3000 Z2.000
G00 F3000 X85.410 Y54.901
G00 F1500 Z0
G01 F60 Z-2.000
G00 F3000 Z2.000
G00 F3000 X85.410 Y57.441
G00 F1500 Z0
G01 F60 Z-2.000
G00 F3000 Z2.000
G00 F3000 X87.950 Y19.341
G00 F1500 Z0
G01 F60 Z-2.000
G00 F3000 Z2.000
G00 F3000 X87.950 Y21.881
G00 F1500 Z0
G01 F60 Z-2.000
G00 F3000 Z2.000
G00 F3000 X87.950 Y26.870
G00 F1500 Z0
G01 F60 Z-2.000
G00 F3000 Z2.000
G00 F3000 X87.950 Y38.391
G00 F1500 Z0
G01 F60 Z-2.000
G00 F3000 Z2.000
G00 F3000 X87.950 Y39.661
G00 F1500 Z0
G01 F60 Z-2.000
G00 F3000 Z2.000
G00 F3000 X87.950 Y51.183
G00 F1500 Z0
G01 F60 Z-2.000
G00 F3000 Z2.000
G00 F3000 X87.950 Y54.901
G00 F1500 Z0
G01 F60 Z-2.000
G00 F3000 Z2.000
G00 F3000 X87.950 Y57.441
G00 F1500 Z0
G01 F60 Z-2.000
G00 F3000 Z2.000
G00 F3000 X90.490 Y19.341
G00 F1500 Z0
G01 F60 Z-2.000
G00 F3000 Z2.000
G00 F3000 X90.490 Y21.881
G00 F1500 Z0
G01 F60 Z-2.000
G00 F3000 Z2.000
G00 F3000 X90.490 Y26.870
G00 F1500 Z0
G01 F60 Z-2.000
G00 F3000 Z2.000
G00 F3000 X90.490 Y38.391
G00 F1500 Z0
G01 F60 Z-2.000
G00 F3000 Z2.000
G00 F3000 X90.490 Y39.661
G00 F1500 Z0
G01 F60 Z-2.000
G00 F3000 Z2.000
G00 F3000 X90.490 Y51.183
G00 F1500 Z0
G01 F60 Z-2.000
G00 F3000 Z2.000
G00 F3000 X90.490 Y54.901
G00 F1500 Z0
G01 F60 Z-2.000
G00 F3000 Z2.000
G00 F3000 X90.490 Y57.441
G00 F1500 Z0
G01 F60 Z-2.000
G00 F3000 Z2.000
G00 F3000 X93.030 Y19.341
G00 F1500 Z0
G01 F60 Z-2.000
G00 F3000 Z2.000
G00 F3000 X93.030 Y21.881
G00 F1500 Z0
G01 F60 Z-2.000
G00 F3000 Z2.000
G00 F3000 X93.030 Y26.870
G00 F1500 Z0
G01 F60 Z-2.000
G00 F3000 Z2.000
G00 F3000 X93.030 Y38.391
G00 F1500 Z0
G01 F60 Z-2.000
G00 F3000 Z2.000
G00 F3000 X93.030 Y39.661
G00 F1500 Z0
G01 F60 Z-2.000
G00 F3000 Z2.000
G00 F3000 X93.030 Y51.183
G00 F1500 Z0
G01 F60 Z-2.000
G00 F3000 Z2.000
G00 F3000 X93.030 Y54.901
G00 F1500 Z0
G01 F60 Z-2.000
G00 F3000 Z2.000
G00 F3000 X93.030 Y57.441
G00 F1500 Z0
G01 F60 Z-2.000
G00 F3000 Z2.000
G00 F3000 X96.840 Y32.041
G00 F1500 Z0
G01 F60 Z-2.000
G00 F3000 Z2.000
G00 F3000 X96.840 Y34.581
G00 F1500 Z0
G01 F60 Z-2.000
G00 F3000 Z2.000
G00 F3000 X96.840 Y37.121
G00 F1500 Z0
G01 F60 Z-2.000
G00 F3000 Z2.000
G00 F3000 X96.840 Y39.661
G00 F1500 Z0
G01 F60 Z-2.000
G00 F3000 Z2.000
G00 F3000 X96.840 Y42.201
G00 F1500 Z0
G01 F60 Z-2.000
G00 F3000 Z2.000
G00 F3000 Z2.000
G00 F3000 X0.000 Y0.000
M05
M30
%